/* XPM */
static char *dframeIBL_xpm[] = {
"23 23 3 1",
"  c #262631",
". c #767682",
"+ c None",
" .... +++++++++++++++++",
" .... +++++++++++++++++",
" .... +++++++++++++++++",
" .... +++++++++++++++++",
" .... +++++++++++++++++",
" .... +++++++++++++++++",
" .... +++++++++++++++++",
" .... +++++++++++++++++",
" .... +++++++++++++++++",
" .... +++++++++++++++++",
" .... +++++++++++++++++",
" .... +++++++++++++++++",
" .... +++++++++++++++++",
" .... +++++++++++++++++",
" .... +++++++++++++++++",
" .... +++++++++++++++++",
" .... +++++++++++++++++",
" ....                  ",
" ......................",
" ......................",
" ......................",
" ......................",
"                       "};
