/* XPM */
static char *frameATL[]={
"23 23 4 1",
"b c None",
". c #2e2e3b",
"a c #5e5e6c",
"# c #767682",
".......................",
".######################",
".#aaaaaaaaaaaaaaaaaaaaa",
".#aaaaaaaaaaaaaaaaaaaaa",
".#aaaaaaaaaaaaaaaaaaaaa",
".#aaaaaaaaaaaaaaaaaaaaa",
".#aaaabbbbbbbbbbbbbbbbb",
".#aaaabbbbbbbbbbbbbbbbb",
".#aaaabbbbbbbbbbbbbbbbb",
".#aaaabbbbbbbbbbbbbbbbb",
".#aaaabbbbbbbbbbbbbbbbb",
".#aaaabbbbbbbbbbbbbbbbb",
".#aaaabbbbbbbbbbbbbbbbb",
".#aaaabbbbbbbbbbbbbbbbb",
".#aaaabbbbbbbbbbbbbbbbb",
".#aaaabbbbbbbbbbbbbbbbb",
".#aaaabbbbbbbbbbbbbbbbb",
".#aaaabbbbbbbbbbbbbbbbb",
".#aaaabbbbbbbbbbbbbbbbb",
".#aaaabbbbbbbbbbbbbbbbb",
".#aaaabbbbbbbbbbbbbbbbb",
".#aaaabbbbbbbbbbbbbbbbb",
".#aaaabbbbbbbbbbbbbbbbb"};
