/* XPM */
static char * dframeABR_xpm[] = {
"31 31 29 1",
" 	c #bccdcd",
".	c #3d5656",
"+	c #ffffff",
"@	c #658b8b",
"#	c #456161",
"$	c #000000",
"%	c #eef2f2",
"&	c #7a9b9b",
"*	c #2b3c3c",
"=	c #517272",
"-	c #476363",
";	c #344949",
">	c #618888",
",	c #456161",
"'	c #476464",
")	c #f7f9f9",
"!	c #c1d0d0",
"~	c #608686",
"{	c #405a5a",
"]	c #425c5c",
"^	c #eaefef",
"/	c #d0dcdc",
"(	c #5e8484",
"_	c #456060",
":	c #d1dddd",
"<	c #dde6e6",
"[	c #6a8f8f",
"}	c #729595",
"|	c #d4dfdf",
"      .+@@@@@@@@@@@@@#$%&******",
"      .+@@@@@@@@@@@@@#$%&&&&&&*",
"      .+@@@@@@@@@@@@@#$%&====**",
"      .+@@@@@@@@@@@@@#$%&====**",
"      .+@@@@@@@@@@@@@#$%&====**",
"      .+##############$%&====**",
"      .$$$$$$$$$$$$$$$$%&====**",
"      .+++++++++++++++$%&====**",
"      .+@@@@@@@@@@@@@#$%&====**",
"      .+@@@@@@@@@@@@@#$%&====**",
"      .+@@@@@@@@@@@@@#$%&====**",
"      .+@@@@@@@@@@@@@#$%&====**",
"      .+@@@@@@@@@@@@@#$%&====**",
"      .+@@-;;;;;;-@@@#$%&====**",
"      .+@@>,,;;;')!!@#$%&====**",
"      .+@@@~~{;]^/@@@#$%&====**",
"      .+@@@@@(_:<[@@@#$%&====**",
"      .+@@@@@@}|}@@@@#$%&====**",
"      .+@@@@@@@@@@@@@#$%&====**",
"      .+@@@@@@@@@@@@@#$%&====**",
"      .+@@@@@@@@@@@@@#$%&====**",
"      .+##############$%&====**",
"      .$$$$$$$$$$$$$$$$%&====**",
"      %%%%%%%%%%%%%%%%%%&====**",
"&&&&&&&&&&&&&&&&&&&&&&&&&====**",
"*&===========================**",
"*&===========================**",
"*&===========================**",
"*&===========================**",
"*&*****************************",
"*******************************"};
