/* XPM */
static char *dummy[]={
"79 22 289 2",
"aT c #023580",
"aU c #023681",
"b# c #023884",
"ba c #023885",
"bs c #023f8b",
"bt c #02418d",
"bu c #02438f",
".w c #024a96",
".2 c #024a97",
".x c #024b98",
".y c #024c99",
"aF c #024d99",
".z c #024d9a",
".A c #024e9b",
".B c #024f9c",
".C c #02509d",
".D c #02519e",
".E c #02529f",
".F c #0252a0",
".G c #0253a0",
".H c #0254a1",
".I c #0254a2",
".R c #0255a3",
".S c #0256a3",
".T c #0256a4",
".U c #0257a5",
".V c #0258a6",
".W c #0259a6",
".6 c #0259a7",
".7 c #025aa8",
"#h c #025ba9",
".8 c #025caa",
".9 c #025dab",
"#. c #025eac",
"#P c #025fad",
"#i c #025fae",
"#j c #0260af",
"#k c #0261b0",
"#l c #0262b0",
"#m c #0263b1",
"#n c #0264b2",
"#u c #0264b3",
"#v c #0265b4",
"#w c #0266b5",
"#x c #0267b6",
"#F c #0268b7",
"#G c #0269b8",
"#H c #026ab9",
"ad c #026aba",
"#I c #026bbb",
"#J c #026cbc",
"#K c #026dbd",
"#L c #026ebe",
"#1 c #026fbe",
"#Q c #0270c0",
"#R c #0271c0",
"#S c #0272c1",
"#T c #0273c2",
"#U c #0274c3",
"#V c #0275c4",
"#2 c #0275c5",
"#3 c #0276c6",
"ae c #0277c7",
"#4 c #0278c8",
"#5 c #0279c9",
"#6 c #027aca",
"#7 c #027bcb",
"aI c #027bcc",
"af c #027ccd",
"ag c #027dce",
"ah c #027ece",
"ai c #027fcf",
"aj c #0280d0",
"at c #0280d1",
"au c #0281d2",
"av c #0282d3",
"aw c #0283d4",
"ax c #0284d5",
"aJ c #0285d6",
"aK c #0286d7",
"bi c #0286d8",
"aL c #0287d8",
"aM c #0288d9",
"b6 c #0288da",
"bT c #0288db",
"aN c #0289da",
"aO c #0289db",
"a0 c #028adc",
"a1 c #028add",
"cf c #028bdd",
"a2 c #028bde",
"bU c #028cdd",
"a3 c #028cde",
"a4 c #028cdf",
"bB c #028ddf",
"bj c #028ee0",
"bk c #028fe1",
"bl c #0290e2",
"bC c #0291e3",
"bD c #0291e4",
"bV c #0292e4",
"bE c #0293e5",
"bF c #0294e6",
"bG c #0294e7",
"bW c #0295e7",
"b7 c #0295e8",
"cg c #0296e8",
"b8 c #0296e9",
"b9 c #0298ea",
"c. c #0299eb",
"c# c #0299ec",
"ca c #029aec",
"cq c #029aed",
"ch c #029bed",
"ci c #029bee",
"cj c #029cef",
"ck c #029df0",
"cr c #029ef1",
"cs c #029ff2",
"ct c #029ff3",
"cu c #02a0f3",
"cz c #02a0f4",
"cA c #02a1f5",
"cB c #02a2f5",
"cC c #02a2f6",
"## c #0560ad",
".5 c #0654a0",
"#W c #0677c4",
"cv c #06a1f3",
"ce c #076dba",
"#r c #08509b",
".v c #0b5099",
"aq c #0b529c",
".J c #0c5ba5",
"a5 c #0d91df",
"#D c #0e569f",
"aP c #0e8ddb",
"bb c #0f448b",
"cl c #0fa2f0",
"#e c #10549c",
"bA c #1059a1",
".X c #1062ab",
".O c #11539b",
"cD c #11a5f2",
"aV c #144489",
"br c #174d91",
"bv c #175399",
"bS c #1862a8",
"cp c #1980c6",
"aH c #1a6bb1",
"bm c #1a9ae3",
"bR c #1c63a6",
"bQ c #1d61a5",
"#E c #1d71b7",
"b. c #1f4d8e",
"aB c #214c8d",
"bh c #2162a4",
"ay c #2191d7",
"#s c #236db0",
".k c #2764a5",
"bX c #27a2e6",
".1 c #2864a3",
"bP c #2866a6",
".j c #2a65a5",
".l c #2a68a7",
"#O c #2b6aaa",
"aE c #2e68a6",
".i c #336ba8",
"bw c #3469a4",
".m c #3570ab",
"ac c #3676b1",
"bH c #38a6e5",
".Q c #3a72ad",
"aG c #3a7db7",
"bO c #3f73aa",
"#0 c #417ab1",
"#y c #428bc4",
".h c #4376ad",
"aa c #4379b0",
"ak c #459dd6",
"bc c #486fa2",
".n c #497eb3",
"cb c #49b0e7",
"bq c #4a71a4",
"bx c #4b7aad",
"cy c #4b99cb",
"ap c #4d7cb0",
"ar c #5086b8",
"aZ c #5381b2",
"by c #5482b2",
"bN c #5581b0",
".g c #5a86b5",
"#q c #5b87b6",
".N c #5c86b5",
"bz c #5d89b6",
"aW c #5e7ca8",
"b0 c #5eb5e4",
"aS c #607da8",
"b1 c #61b6e4",
".o c #638fbc",
"a9 c #6481ab",
"aA c #6581aa",
"bZ c #65b7e4",
"ab c #6792bd",
"b5 c #6899c2",
"#d c #6a91bb",
"#o c #6fa2cb",
"a# c #7196be",
".P c #7297be",
"bM c #7495b9",
"bY c #74bbe3",
"#8 c #75b1d8",
".f c #7799bf",
"b2 c #7abee3",
"bd c #7b95b7",
"#f c #7ba2c6",
"#C c #7d9fc3",
"#M c #7eb0d4",
".3 c #7fa2c5",
"bp c #8098b8",
"#t c #80a8cb",
"cd c #80abcc",
"cw c #85c3e4",
".p c #86a7c8",
".0 c #87a5c5",
"aC c #8b9ebb",
"as c #8babc9",
"cE c #8fbcd3",
".K c #97b5d1",
".e c #9ab1cc",
".Y c #9ab8d2",
"bL c #9bafc6",
"#A c #9dbfd8",
"a6 c #a2c8df",
"#a c #a3bfd7",
"ao c #a4b7cc",
"a. c #a8bbd0",
"#g c #a8bfd5",
"#X c #a8c8dd",
"am c #a9b6c8",
"be c #a9b7c9",
"co c #a9c2d4",
"a8 c #abb7c8",
"cm c #abcee0",
"#z c #aec8dc",
"#N c #afc1d4",
".M c #b3c2d4",
".q c #b4c6d8",
"bn c #b4cfdf",
"cx c #bac1c6",
"bg c #bbc6d3",
"aQ c #bcd1df",
"bo c #bdc5d0",
"bK c #c2cad3",
".u c #c2cedb",
".b c #c6c6c6",
"#Z c #c8d2dc",
"bI c #cad7de",
".d c #cbd4de",
".t c #cdd5df",
"#c c #cfd7df",
"cc c #d1d8dc",
"#p c #d2d9e0",
"aY c #d3d7db",
"az c #d3dadf",
"bf c #d5d7da",
"an c #d9dbdd",
"cn c #dbdbdb",
"b4 c #dcdcdc",
"b3 c #dcdcdd",
"aD c #dcddde",
".4 c #dce0e4",
"bJ c #dddddd",
"aX c #ddddde",
"a7 c #dedede",
".Z c #dee1e5",
"aR c #dfdfdf",
"al c #e0e0e0",
"#9 c #e0e2e4",
".r c #e4e6e8",
"#B c #e5e5e6",
"#Y c #e6e6e6",
".s c #e6e7e8",
".# c #e7e7e7",
"#b c #e8e8e8",
".L c #e9e9e9",
".c c #eaeaea",
".a c #ebebeb",
"Qt c #f7f7f7",
"QtQtQtQtQtQtQtQtQtQtQtQtQtQtQtQtQtQtQtQtQtQtQtQtQtQtQtQtQtQtQtQtQtQtQtQtQtQtQtQtQtQtQtQtQtQtQtQtQtQtQtQtQtQtQtQtQtQtQtQtQtQtQtQtQtQtQtQtQtQtQtQtQtQtQtQtQtQt.#",
"Qt.a.a.a.a.a.a.a.a.a.a.a.a.a.a.a.a.a.a.a.a.a.a.a.a.a.a.a.a.a.a.a.a.a.a.a.a.a.a.a.a.a.a.a.a.a.a.a.a.a.a.a.a.a.a.a.a.a.a.a.a.a.a.a.a.a.a.a.a.a.a.a.a.a.a.a.a.a.b",
"Qt.c.c.c.c.c.c.c.c.c.c.c.c.c.c.c.c.c.c.c.c.c.c.c.c.c.c.c.c.c.c.c.c.c.c.c.c.c.c.c.c.c.c.c.c.c.c.c.c.c.c.c.c.c.d.e.f.g.h.i.j.k.l.m.n.o.p.q.r.c.c.c.c.c.c.c.c.c.b",
"Qt.c.c.c.c.c.c.c.c.c.c.c.c.c.c.c.c.c.c.c.c.c.c.c.c.c.c.c.c.c.c.c.c.c.c.c.c.c.c.c.c.c.c.c.c.c.c.c.c.c.s.t.c.u.v.w.x.y.z.A.B.C.D.E.F.G.H.I.J.K.c.c.c.c.c.c.c.c.b",
"Qt.L.L.L.L.L.L.L.L.L.L.L.L.L.L.L.L.L.L.L.L.L.L.L.L.L.L.L.L.L.L.L.L.L.L.L.L.L.L.L.L.L.L.L.L.L.L.L.M.N.O.P.L.Q.z.A.C.D.E.G.H.R.S.T.U.V.W.X.Y.L.L.L.L.L.L.L.L.L.b",
"Qt.L.L.L.L.L.L.L.L.L.L.L.L.L.L.L.L.L.L.L.L.L.L.L.L.L.L.L.L.L.L.L.L.L.L.L.L.L.L.L.L.L.L.L.L.Z.0.1.2.x.z.3.4.5.F.H.R.T.U.W.6.7.8.8.9#.###a.L.L.L.L.L.L.L.L.L.L.b",
"Qt#b#b#b#b#b#b#b#b#b#b#b#b#b#b#b#b#b#b#b#b#b#b#b#b#b#b#b#b#b#b#b#b#b#b#b#b#b#b#b#b#b#b#c#d#e.y.A.B.D.F#f#g.T.V.6#h.8.9#.#i#j#k#l#m#n#o#b#b#b#b#b#b#b#b#b#b#b.b",
"Qt#b#b#b#b#b#b#b#b#b#b#b#b#b#b#b#b#b#b#b#b#b#b#b#b#b#b#b#b#b#b#b#b#b#b#b#b#b#b#b#b#p#q#r.A.C.D.G.I.T.V#s#t.8#.#i#k#l#n#u#v#w#x#y#z#A#b#b#b#b#b#b#b#b#b#b#b#b.b",
"Qt.#.#.#.#.#.#.#.#.#.#.#.#.#.#.#.#.#.#.#.#.#.#.#.#.#.#.#.#.#.#.#.#.#.#.#.#.#.##B#C#D.C.D.G.R.T.W#h.8#.#i#E#m#u#w#F#G#H#I#J#K#L#L#M.#.#.#.#.#.#.#.#.#.#.#.#.#.b",
"Qt.#.#.#.#.#.#.#.#.#.#.#.#.#.#.#.#.#.#.#.#.#.#.#.#.#.#.#.#.#.#.#.#.#.#.#.#.##N#O.D.G.R.U.6#h.9#P#k#m#u#w#F#H#I#K#L#Q#R#S#T#U#V#W#X.#.#.#.#.#.#.#.#.#.#.#.#.#.b",
"Qt#Y#Y#Y#Y#Y#Y#Y#Y#Y#Y#Y#Y#Y#Y#Y#Y#Y#Y#Y#Y#Y#Y#Y#Y#Y#Y#Y#Y#Y#Y#Y#Y#Y#Y#Y#Z#0.F.I.T.W#h.9#i#l#n#w#F#H#I#K#1#R#T#V#2#3#4#5#5#6#7#8#Y#Y#Y#Y#Y#Y#Y#Y#Y#Y#Y#Y#Y#Y.b",
"Qt#Y#Y#Y#Y#Y#Y#Y#Y#Y#Y#Y#Y#Y#Y#Y#Y#Y#Y#Y#Y#Y#Y#Y#Y#Y#Y#Y#Y#Y#9a.a#aaab#Yac.S.W#h.9#i#l#n#w#Gad#K#1#R#U#2ae#4#6#7afagahaiaiajak#Y#Y#Y#Y#Y#Y#Y#Y#Y#Y#Y#Y#Y#Y#Y.b",
"Qtalalalalalalamanalalalalalalalalalalalalalalalalalalalaoapaq.A.C.Faras.6.8#P#k#n#w#G#I#K#Q#T#V#3#5#7afagaiatauavawawaxaxayazalalalalalalalalalalalalalalal.b",
"QtalalalalalalaAaBaCaDalalalalalalalalalalalalalalalaoaEaF.A.D.H.S.WaGaH#j#m#v#Fad#K#Q#T#2ae#6aIahajauawawaJaKaLaMaMaNaOaPaQalalalalalalalalalalalalalalalal.b",
"QtaRaRaRaRaRaRaSaTaUaVaWamaXaRaRaRaRaRaRaRaRaRaRaYaZaF.B.E.I.T.6.8#P#k#u#x#H#K#Q#T#2#4#6afaiatawaxaKaLaNaOa0a1a2a3a4a4a5a6aRaRaRaRaRaRaRaRaRaRaRaRaRaRaRaRaR.b",
"Qta7a7a7a7a7a7a7a8a9b.b#babbbcbdbebfa7a7a7a7a7bgbh.C.E.I.U.7.8#i#l#v#F#I#L#R#Vae#6afaiauawaJbiaNaOa1a3a3bjbjbkblblblbmbna7a7a7a7a7a7a7a7a7a7a7a7a7a7a7a7a7a7.b",
"Qta7a7a7a7a7a7a7a7a7a7bobpbqbrbsbtbubvbwbxbybzbA.F.I.U.7.9#i#m#w#G#J#1#T#2#5aIahatawaJaLaOa0a3bBbjblbCbDbEbEbFbFbGbHbIa7a7a7a7a7a7a7a7a7a7a7a7a7a7a7a7a7a7a7.b",
"QtbJbJbJbJbJbJbJbJbJbJbJbJbJbJbKbLbMbNbObPbQbRbS.U.7.9#j#n#w#H#K#R#Uae#6agajavaJaLbTa1bUbjblbCbVbEbGbWbXbYbZb0b1b2b3bJbJbJbJbJbJbJbJbJbJbJbJbJbJbJbJbJbJbJbJ.b",
"Qtb4b4b4b4b4b4b4b4b4b4b4b4b4b4b4b4b4b4b4b4b4b4b4b5#j#n#xad#K#R#V#4#7ahatawaKb6a0bUbjblbDbEbGb7b8b9c.c#cacbccb4b4b4b4b4b4b4b4b4b4b4b4b4b4b4b4b4b4b4b4b4b4b4b4.b",
"Qtb4b4b4b4b4b4b4b4b4b4b4b4b4b4b4b4b4b4b4b4b4b4b4b4cdce#K#R#V#4aIaiauaxaLbTcfbBbkbCbEbGcgb9c.cachcicjckckckclcmb4b4b4b4b4b4b4b4b4b4b4b4b4b4b4b4b4b4b4b4b4b4b4.b",
"Qtcncncncncncncncncncncncncncncncncncncncncncncncncncocp#4aIaiavaJbiaObUbjblbVbFcgb9c#cqcicjckcrcsctcucucvcwcncncncncncncncncncncncncncncncncncncncncncncncn.b",
".#.b.b.b.b.b.b.b.b.b.b.b.b.b.b.b.b.b.b.b.b.b.b.b.b.b.bcxcyauaxaLaNbUbjbCbEbWb8c.cqcickcrcscuczcAcBcBcCcDcE.b.b.b.b.b.b.b.b.b.b.b.b.b.b.b.b.b.b.b.b.b.b.b.b.b.b"};
