/* XPM */
static char *dframeIBR_xpm[] = {
"23 23 3 1",
"  c None",
". c #716e71",
"+ c #c6c4c6",
"                 .++++.",
"                 .++++.",
"                 .++++.",
"                 .++++.",
"                 .++++.",
"                 .++++.",
"                 .++++.",
"                 .++++.",
"                 .++++.",
"                 .++++.",
"                 .++++.",
"                 .++++.",
"                 .++++.",
"                 .++++.",
"                 .++++.",
"                 .++++.",
"                 .++++.",
"..................++++.",
"++++++++++++++++++++++.",
"++++++++++++++++++++++.",
"++++++++++++++++++++++.",
"++++++++++++++++++++++.",
"......................."};
