/* XPM */
static char *dframeABL_xpm[] = {
"23 23 5 1",
"  c #000000",
". c #ffffff",
"+ c #aeaaae",
"@ c #716e71",
"# c None",
" .++@ #################",
" .++@ #################",
" .++@ #################",
" .++@ #################",
" .++@ #################",
" .++@ #################",
" .++@ #################",
" .++@ #################",
" .++@ #################",
" .++@ #################",
" .++@ #################",
" .++@ #################",
" .++@ #################",
" .++@ #################",
" .++@ #################",
" .++@ #################",
" .++@ #################",
" .++@                  ",
" .+++..................",
" .+++++++++++++++++++++",
" .+++++++++++++++++++++",
" +@@@@@@@@@@@@@@@@@@@@@",
"                       "};
