/* XPM */
static char * frameABR_xpm[] = {
"31 31 29 1",
" 	c None",
".	c #f8d6d6",
"+	c #976363",
"@	c #ffffff",
"#	c #efa0a0",
"$	c #aa7070",
"%	c #000000",
"&	c #f2adad",
"*	c #6a4646",
"=	c #c98484",
"-	c #af7373",
";	c #815555",
">	c #ef9d9d",
",	c #ab7070",
"'	c #af7373",
")	c #fefafa",
"!	c #f9d8d8",
"~	c #ec9b9b",
"{	c #9f6868",
"]	c #a26a6a",
"^	c #fdf2f2",
"/	c #fae2e2",
"(	c #e89999",
"_	c #a96f6f",
":	c #fae3e3",
"<	c #fceaea",
"[	c #f0a2a2",
"}	c #f1a7a7",
"|	c #fbe5e5",
"......+@#############$%  &*****",
"......+@#############$%  &&&&&*",
"......+@#############$%  &===**",
"......+@#############$%  &===**",
"......+@#############$%  &===**",
"......+@$$$$$$$$$$$$$$%  &===**",
"......+%%%%%%%%%%%%%%%%  &===**",
"......+@@@@@@@@@@@@@@@%  &===**",
"......+@#############$%  &===**",
"......+@#############$%  &===**",
"......+@#############$%  &===**",
"......+@#############$%  &===**",
"......+@#############$%  &===**",
"......+@##-;;;;;;-###$%  &===**",
"......+@##>,,;;;')!!#$%  &===**",
"......+@###~~{;]^/###$%  &===**",
"......+@#####(_:<[###$%  &===**",
"......+@######}|}####$%  &===**",
"......+@#############$%  &===**",
"......+@#############$%  &===**",
"......+@#############$%  &===**",
"......+@$$$$$$$$$$$$$$%  &===**",
"......+%%%%%%%%%%%%%%%%  &===**",
"                         &===**",
"                         &===**",
"&&&&&&&&&&&&&&&&&&&&&&&&&&===**",
"*&===========================**",
"*&===========================**",
"*&===========================**",
"*&*****************************",
"*******************************"};
