/* XPM */
static char * rollupI_xpm[] = {
"24 48 5 1",
" 	c #b1cccc",
".	c #405757",
"+	c #7eabab",
"@	c #ffffff",
"#	c #4e6a6a",
"                       .",
" ++++++++++++++++++++++.",
" ++++++++++++++++++++++.",
" ++++++++++++++++++++++.",
" ++++++++++++++++++++++.",
" ++++++++++++++++++++++.",
" +++++++++++@++++++++++.",
" ++++++++++@+.+++++++++.",
" ++++++++++@+.+++++++++.",
" ++++++++++@+.+++++++++.",
" +++++++++@+++..+++++++.",
" +++++++++@+++..+++++++.",
" +++++++@@++++++.++++++.",
" +++++++@@++++++.++++++.",
" ++++++@+++++++++.+++++.",
" ++++++@+++++++++.+++++.",
" ++++++@+++++++++.+++++.",
" +++++@+++++++++++.++++.",
" +++++@............++++.",
" ++++++++++++++++++++++.",
" ++++++++++++++++++++++.",
" ++++++++++++++++++++++.",
" ++++++++++++++++++++++.",
" .......................",
".......................+",
".+++++++++++++++++++++++",
".+++++++++++++++++++++++",
".+++++++++++++++++++++++",
".+++++++++++++++++++++++",
".+++++++++++++++++++++++",
".+++++++++++@+++++++++++",
".++++++++++@+#++++++++++",
".++++++++++@+#++++++++++",
".++++++++++@+#++++++++++",
".+++++++++@+++##++++++++",
".+++++++++@+++##++++++++",
".+++++++@@++++++#+++++++",
".+++++++@@++++++#+++++++",
".++++++@+++++++++#++++++",
".++++++@+++++++++#++++++",
".++++++@+++++++++#++++++",
".+++++@+++++++++++#+++++",
".+++++@############+++++",
".+++++++++++++++++++++++",
".+++++++++++++++++++++++",
".+++++++++++++++++++++++",
".+++++++++++++++++++++++",
".+++++++++++++++++++++++"};
