/* XPM */
static char *dframeIBR_xpm[] = {
"23 23 3 1",
"  c None",
". c #8a8782",
"+ c #e1ded8",
"                 .++++.",
"                 .++++.",
"                 .++++.",
"                 .++++.",
"                 .++++.",
"                 .++++.",
"                 .++++.",
"                 .++++.",
"                 .++++.",
"                 .++++.",
"                 .++++.",
"                 .++++.",
"                 .++++.",
"                 .++++.",
"                 .++++.",
"                 .++++.",
"                 .++++.",
"..................++++.",
"++++++++++++++++++++++.",
"++++++++++++++++++++++.",
"++++++++++++++++++++++.",
"++++++++++++++++++++++.",
"......................."};
