/* XPM */
static char * workspacebuttonbg_xpm[] = {
"91 37 3 1",
" 	c #55363d",
".	c #d8bdc3",
"+	c #a86b79",
" ..........................................................................................",
" ........................................................................................ .",
" ..+++++++++++++++++++++++++++++++++++++++++++++++++++++++++++++++++++++++++++++++++++++  .",
" ..+++++++++++++++++++++++++++++++++++++++++++++++++++++++++++++++++++++++++++++++++++++  .",
" ..+++++++++++++++++++++++++++++++++++++++++++++++++++++++++++++++++++++++++++++++++++++  .",
" ..+++++++++++++++++++++++++++++++++++++++++++++++++++++++++++++++++++++++++++++++++++++  .",
" ..+++++++++++++++++++++++++++++++++++++++++++++++++++++++++++++++++++++++++++++++++++++  .",
" ..+++++++++++++++++++++++++++++++++++++++++++++++++++++++++++++++++++++++++++++++++++++  .",
" ..+++++++++++++++++++++++++++++++++++++++++++++++++++++++++++++++++++++++++++++++++++++  .",
" ..+++++++++++++++++++++++++++++++++++++++++++++++++++++++++++++++++++++++++++++++++++++  .",
" ..+++++++++++++++++++++++++++++++++++++++++++++++++++++++++++++++++++++++++++++++++++++  .",
" ..+++++++++++++++++++++++++++++++++++++++++++++++++++++++++++++++++++++++++++++++++++++  .",
" ..+++++++++++++++++++++++++++++++++++++++++++++++++++++++++++++++++++++++++++++++++++++  .",
" ..+++++++++++++++++++++++++++++++++++++++++++++++++++++++++++++++++++++++++++++++++++++  .",
" ..+++++++++++++++++++++++++++++++++++++++++++++++++++++++++++++++++++++++++++++++++++++  .",
" ..+++++++++++++++++++++++++++++++++++++++++++++++++++++++++++++++++++++++++++++++++++++  .",
" ..+++++++++++++++++++++++++++++++++++++++++++++++++++++++++++++++++++++++++++++++++++++  .",
" ..+++++++++++++++++++++++++++++++++++++++++++++++++++++++++++++++++++++++++++++++++++++  .",
" ..+++++++++++++++++++++++++++++++++++++++++++++++++++++++++++++++++++++++++++++++++++++  .",
" ..+++++++++++++++++++++++++++++++++++++++++++++++++++++++++++++++++++++++++++++++++++++  .",
" ..+++++++++++++++++++++++++++++++++++++++++++++++++++++++++++++++++++++++++++++++++++++  .",
" ..+++++++++++++++++++++++++++++++++++++++++++++++++++++++++++++++++++++++++++++++++++++  .",
" ..+++++++++++++++++++++++++++++++++++++++++++++++++++++++++++++++++++++++++++++++++++++  .",
" ..+++++++++++++++++++++++++++++++++++++++++++++++++++++++++++++++++++++++++++++++++++++  .",
" ..+++++++++++++++++++++++++++++++++++++++++++++++++++++++++++++++++++++++++++++++++++++  .",
" ..+++++++++++++++++++++++++++++++++++++++++++++++++++++++++++++++++++++++++++++++++++++  .",
" ..+++++++++++++++++++++++++++++++++++++++++++++++++++++++++++++++++++++++++++++++++++++  .",
" ..+++++++++++++++++++++++++++++++++++++++++++++++++++++++++++++++++++++++++++++++++++++  .",
" ..+++++++++++++++++++++++++++++++++++++++++++++++++++++++++++++++++++++++++++++++++++++  .",
" ..+++++++++++++++++++++++++++++++++++++++++++++++++++++++++++++++++++++++++++++++++++++  .",
" ..+++++++++++++++++++++++++++++++++++++++++++++++++++++++++++++++++++++++++++++++++++++  .",
" ..+++++++++++++++++++++++++++++++++++++++++++++++++++++++++++++++++++++++++++++++++++++  .",
" ..+++++++++++++++++++++++++++++++++++++++++++++++++++++++++++++++++++++++++++++++++++++  .",
" ..+++++++++++++++++++++++++++++++++++++++++++++++++++++++++++++++++++++++++++++++++++++  .",
" ..                                                                                       .",
" .                                                                                        .",
" .........................................................................................."};
