/* XPM */
static char * frameITL_xpm[] = {
"31 32 4 1",
" 	c None",
".	c #93c4c3",
"+	c #083f3e",
"@	c #0f7c7a",
"...............................",
".............................+.",
"..@@@@@@@@@@@@@@@@@@@@@@@@@@@+.",
"..@@@@@@@@@@@@@@@@@@@@@@@@@@@+.",
"..@@@@@@@@@@@@@@@@@@@@@@@@@@@+.",
"..@@@++++++++++++++++++++++++++",
"..@@@+                         ",
"..@@@+                         ",
"..@@@+                         ",
"..@@@+                         ",
"..@@@+                         ",
"..@@@+                         ",
"..@@@+                         ",
"..@@@+                         ",
"..@@@+                         ",
"..@@@+                         ",
"..@@@+                         ",
"..@@@+                         ",
"..@@@+                         ",
"..@@@+                         ",
"..@@@+                         ",
"..@@@+                         ",
"..@@@+                         ",
"..@@@+                         ",
"..@@@+                         ",
"..@@@+                         ",
"..@@@+                         ",
"..@@@+                         ",
"..@@@+                         ",
"..@@@+                         ",
"++++++                         ",
".....+                         "};
