/* XPM */
static char * frameABR_xpm[] = {
"31 31 29 1",
" 	c None",
".	c #edd9d1",
"+	c #87685c",
"@	c #ffffff",
"#	c #d6a794",
"$	c #977567",
"%	c #000000",
"&	c #dcb3a3",
"*	c #5f4940",
"=	c #b38b7a",
"-	c #9c796a",
";	c #73594e",
">	c #d5a591",
",	c #987667",
"'	c #9c796a",
")	c #fdfaf9",
"!	c #eedcd4",
"~	c #d2a38f",
"{	c #8d6d60",
"]	c #907062",
"^	c #f9f3f1",
"/	c #f3e4de",
"(	c #cfa08d",
"_	c #977567",
":	c #f3e5df",
"<	c #f6ece7",
"[	c #d7aa97",
"}	c #d9ae9d",
"|	c #f4e7e1",
"......+@#############$%  &*****",
"......+@#############$%  &&&&&*",
"......+@#############$%  &===**",
"......+@#############$%  &===**",
"......+@#############$%  &===**",
"......+@$$$$$$$$$$$$$$%  &===**",
"......+%%%%%%%%%%%%%%%%  &===**",
"......+@@@@@@@@@@@@@@@%  &===**",
"......+@#############$%  &===**",
"......+@#############$%  &===**",
"......+@#############$%  &===**",
"......+@#############$%  &===**",
"......+@#############$%  &===**",
"......+@##-;;;;;;-###$%  &===**",
"......+@##>,,;;;')!!#$%  &===**",
"......+@###~~{;]^/###$%  &===**",
"......+@#####(_:<[###$%  &===**",
"......+@######}|}####$%  &===**",
"......+@#############$%  &===**",
"......+@#############$%  &===**",
"......+@#############$%  &===**",
"......+@$$$$$$$$$$$$$$%  &===**",
"......+%%%%%%%%%%%%%%%%  &===**",
"                         &===**",
"                         &===**",
"&&&&&&&&&&&&&&&&&&&&&&&&&&===**",
"*&===========================**",
"*&===========================**",
"*&===========================**",
"*&*****************************",
"*******************************"};
