/* XPM */
static char * taskbuttonbg_xpm[] = {
"59 28 5 1",
" 	c #ffffff",
".	c #7a7c7f",
"+	c #000000",
"@	c #babbbd",
"#	c #515254",
"                                                           ",
"...........................................................",
"...........................................................",
"..                                                       +.",
".. @@@@@@@@@@@@@@@@@@@@@@@@@@@@@@@@@@@@@@@@@@@@@@@@@@@@@#+.",
".. @....................................................#+.",
".. @....................................................#+.",
".. @....................................................#+.",
".. @....................................................#+.",
".. @....................................................#+.",
".. @....................................................#+.",
".. @....................................................#+.",
".. @....................................................#+.",
".. @....................................................#+.",
".. @....................................................#+.",
".. @....................................................#+.",
".. @....................................................#+.",
".. @....................................................#+.",
".. @....................................................#+.",
".. @....................................................#+.",
".. @....................................................#+.",
".. @....................................................#+.",
".. @....................................................#+.",
".. ######################################################+.",
"..++++++++++++++++++++++++++++++++++++++++++++++++++++++++.",
"...........................................................",
"...........................................................",
"..........................................................."};
