/* XPM */
static char *dframeATL_xpm[] = {
"23 23 4 1",
"  c #000000",
". c #ffffff",
"+ c #313a3f",
"@ c None",
"                       ",
" ......................",
" .+++++++++++++++++++++",
" .+++++++++++++++++++++",
" .+++++++++++++++++++++",
" .+++++++++++++++++++++",
" .++++@@@@@@@@@@@@@@@@@",
" .++++@@@@@@@@@@@@@@@@@",
" .++++@@@@@@@@@@@@@@@@@",
" .++++@@@@@@@@@@@@@@@@@",
" .++++@@@@@@@@@@@@@@@@@",
" .++++@@@@@@@@@@@@@@@@@",
" .++++@@@@@@@@@@@@@@@@@",
" .++++@@@@@@@@@@@@@@@@@",
" .++++@@@@@@@@@@@@@@@@@",
" .++++@@@@@@@@@@@@@@@@@",
" .++++@@@@@@@@@@@@@@@@@",
" .++++@@@@@@@@@@@@@@@@@",
" .++++@@@@@@@@@@@@@@@@@",
" .++++@@@@@@@@@@@@@@@@@",
" .++++@@@@@@@@@@@@@@@@@",
" .++++@@@@@@@@@@@@@@@@@",
" .++++@@@@@@@@@@@@@@@@@"};
