/* XPM */
static char *frameATR_xpm[] = {
"23 23 5 1",
"  c #000000",
". c #ffffff",
"+ c #313a3f",
"@ c #202629",
"# c None",
"                       ",
".....................+ ",
"+++++++++++++++++++++@ ",
"+++++++++++++++++++++@ ",
"+++++++++++++++++++++@ ",
"+++++++++++++++++++++@ ",
"#################++++@ ",
"#################++++@ ",
"#################++++@ ",
"#################++++@ ",
"#################++++@ ",
"#################++++@ ",
"#################++++@ ",
"#################++++@ ",
"#################++++@ ",
"#################++++@ ",
"#################++++@ ",
"#################++++@ ",
"#################++++@ ",
"#################++++@ ",
"#################++++@ ",
"#################++++@ ",
"#################++++@ "};
