/* XPM */
static char *frameIBL[]={
"23 23 3 1",
"a c None",
". c #3e4549",
"# c #5e656a",
".####.aaaaaaaaaaaaaaaaa",
".####.aaaaaaaaaaaaaaaaa",
".####.aaaaaaaaaaaaaaaaa",
".####.aaaaaaaaaaaaaaaaa",
".####.aaaaaaaaaaaaaaaaa",
".####.aaaaaaaaaaaaaaaaa",
".####.aaaaaaaaaaaaaaaaa",
".####.aaaaaaaaaaaaaaaaa",
".####.aaaaaaaaaaaaaaaaa",
".####.aaaaaaaaaaaaaaaaa",
".####.aaaaaaaaaaaaaaaaa",
".####.aaaaaaaaaaaaaaaaa",
".####.aaaaaaaaaaaaaaaaa",
".####.aaaaaaaaaaaaaaaaa",
".####.aaaaaaaaaaaaaaaaa",
".####.aaaaaaaaaaaaaaaaa",
".####.aaaaaaaaaaaaaaaaa",
".####..................",
".######################",
".######################",
".######################",
".######################",
"......................."};
