/* XPM */
static char *rollupA_xpm[] = {
"16 38 5 1",
". c #313a3f",
"+ c #202629",
"@ c #000000",
"# c #ffffff",
"$ c #6f7579",
"................",
"++++++++++++....",
"+@@@@@@@@@@@#...",
"+@#........@#...",
"+@........+@#...",
"+@........+@#...",
"+@.......$+@#...",
"+@......$$+@#...",
"+@.....$$$+@#...",
"+@....$$$$+@#...",
"+@...$$$$#+@#...",
"+@.++++++++@#...",
"+@@@@@@@@@@@#...",
".############...",
"................",
"................",
"................",
"++++++++++++++++",
"@@@@@@@@@@@@@@@@",
"................",
"++++++++++++....",
"+@@@@@@@@@@@#...",
"+@+++++++++@#...",
"+@+#.......@#...",
"+@+........@#...",
"+@+........@#...",
"+@+.......$@#...",
"+@+......$$@#...",
"+@+.....$$$@#...",
"+@+....$$$$@#...",
"+@+...$$$$#@#...",
"+@@@@@@@@@@@#...",
".############...",
"................",
"................",
"................",
"++++++++++++++++",
"@@@@@@@@@@@@@@@@"};
