/* XPM */
static char * buttonA_xpm[] = {
"76 22 3 1",
" 	c #000000",
".	c #C2BFA5",
"+	c #8D8961",
"                                                                           .",
" +++++++++++++++++++++++++++++++++++++++++++++++++++++++++++++++++++++++++ .",
" +.......................................................................+ .",
" +.......................................................................+ .",
" +... . . . . . . . . . . . . . . . . . . . . . . . . . . . . . . . . ...+ .",
" +.. ................................................................. ..+ .",
" +.......................................................................+ .",
" +.. ................................................................. ..+ .",
" +.......................................................................+ .",
" +.. ................................................................. ..+ .",
" +.......................................................................+ .",
" +.. ................................................................. ..+ .",
" +.......................................................................+ .",
" +.. ................................................................. ..+ .",
" +.......................................................................+ .",
" +.. ................................................................. ..+ .",
" +... . . . . . . . . . . . . . . . . . . . . . . . . . . . . . . . . ...+ .",
" +.......................................................................+ .",
" +.......................................................................+ .",
" +++++++++++++++++++++++++++++++++++++++++++++++++++++++++++++++++++++++++ .",
"                                                                           .",
"............................................................................"};
