/* XPM */
static char *minimizeA_xpm[] = {
"23 46 5 1",
". c #928f86",
"+ c #000000",
"@ c #ffffff",
"# c #403e35",
"$ c #635f52",
".......................",
"+++++++++++++++++++++++",
"+++++++++++++++++++++++",
"+++@@@@@@@@@@@@@@#+++++",
"+++@$$$$$$$$$$$$$#+++++",
"+++@$$$$$$$$$$$$$#+++++",
"+++@$$$$$$$$$$$$$#+++++",
"+++@$$$$$$$$$$$$$#+++++",
"+++@$$$$$$$$$$$$$#+++++",
"+++@$$$$$$$$$$$$$#+++++",
"+++@$$$$$$$$$$$$$#+++++",
"+++@$$$$$$$$$$$$$#+++++",
"+++@$$$$$$$$$$$$$#+++++",
"+++@$$$$$$$$$$$$$#+++++",
"+++@$$$$$$$$$$$$$#+++++",
"+++@$$$$$$$$$$$$$#+++++",
"+++@$$$$$$$$$$$$$#+++++",
"+++$##############+++++",
"+++++++++++++++++++++++",
"+++++++++++++++++++++++",
"+++++++++++++++++++++++",
"#######################",
"+++++++++++++++++++++++",
".......................",
"+++++++++++++++++++++++",
"+++++++++++++++++++++++",
"+++##############@+++++",
"+++#$$$$$$$$$$$$$@+++++",
"+++#$$$$$$$$$$$$$@+++++",
"+++#$$$$$$$$$$$$$@+++++",
"+++#$$$$$$$$$$$$$@+++++",
"+++#$$$$$$$$$$$$$@+++++",
"+++#$$$$$$$$$$$$$@+++++",
"+++#$$$$$$$$$$$$$@+++++",
"+++#$$$$$$$$$$$$$@+++++",
"+++#$$$$$$$$$$$$$@+++++",
"+++#$$$$$$$$$$$$$@+++++",
"+++#$$$$$$$$$$$$$@+++++",
"+++#$$$$$$$$$$$$$@+++++",
"+++#$$$$$$$$$$$$$@+++++",
"+++$@@@@@@@@@@@@@@+++++",
"+++++++++++++++++++++++",
"+++++++++++++++++++++++",
"+++++++++++++++++++++++",
"#######################",
"+++++++++++++++++++++++"};
