/* XPM */
static char *rolldownA_xpm[] = {
"23 46 6 1",
". c #928f86",
"+ c #a69e8a",
"@ c #ffffff",
"# c #403e35",
"$ c #000000",
"% c #635f52",
".......................",
"+++++++++++++++++++++++",
"+++++++++++++++++++++++",
"+++@@@@@@@@@@@@@@#$++++",
"+++@%%%%%%%%%%%%%#$++++",
"+++@%%%%%%%%%%%%%#$++++",
"+++@%%%%%%%%%%%%%#$++++",
"+++@%%%%%%%%%%%%%#$++++",
"+++@%%%%%%%%%%%%%#$++++",
"+++@%%%%%%%%%%%%%#$++++",
"+++@%%%%%%%%%%%%%#$++++",
"+++@%%%%%%%%%%%%%#$++++",
"+++@%%%%%%%%%%%%%#$++++",
"+++@%%%%%%%%%%%%%#$++++",
"+++@%%%%%%%%%%%%%#$++++",
"+++@%%%%%%%%%%%%%#$++++",
"+++@%%%%%%%%%%%%%#$++++",
"+++%##############$++++",
"+++$$$$$$$$$$$$$$$$++++",
"+++++++++++++++++++++++",
"+++++++++++++++++++++++",
"#######################",
"$$$$$$$$$$$$$$$$$$$$$$$",
".......................",
"+++++++++++++++++++++++",
"+++++++++++++++++++++++",
"+++##############@$++++",
"+++#%%%%%%%%%%%%%@$++++",
"+++#%%%%%%%%%%%%%@$++++",
"+++#%%%%%%%%%%%%%@$++++",
"+++#%%%%%%%%%%%%%@$++++",
"+++#%%%%%%%%%%%%%@$++++",
"+++#%%%%%%%%%%%%%@$++++",
"+++#%%%%%%%%%%%%%@$++++",
"+++#%%%%%%%%%%%%%@$++++",
"+++#%%%%%%%%%%%%%@$++++",
"+++#%%%%%%%%%%%%%@$++++",
"+++#%%%%%%%%%%%%%@$++++",
"+++#%%%%%%%%%%%%%@$++++",
"+++#%%%%%%%%%%%%%@$++++",
"+++%@@@@@@@@@@@@@@$++++",
"+++$$$$$$$$$$$$$$$$++++",
"+++++++++++++++++++++++",
"+++++++++++++++++++++++",
"#######################",
"$$$$$$$$$$$$$$$$$$$$$$$"};
