/* XPM */
static char *frameABL[]={
"23 23 5 1",
"c c None",
". c #1e2f24",
"b c #547f62",
"a c #70937c",
"# c #85a38f",
".#aab.ccccccccccccccccc",
".#aab.ccccccccccccccccc",
".#aab.ccccccccccccccccc",
".#aab.ccccccccccccccccc",
".#aab.ccccccccccccccccc",
".#aab.ccccccccccccccccc",
".#aab.ccccccccccccccccc",
".#aab.ccccccccccccccccc",
".#aab.ccccccccccccccccc",
".#aab.ccccccccccccccccc",
".#aab.ccccccccccccccccc",
".#aab.ccccccccccccccccc",
".#aab.ccccccccccccccccc",
".#aab.ccccccccccccccccc",
".#aab.ccccccccccccccccc",
".#aab.ccccccccccccccccc",
".#aab.ccccccccccccccccc",
".#aab..................",
".#aaa##################",
".#aaaaaaaaaaaaaaaaaaaaa",
".#aaaaaaaaaaaaaaaaaaaaa",
".abbbbbbbbbbbbbbbbbbbbb",
"......................."};
