/* XPM */
static char *minimizeA_xpm[] = {
"23 46 4 1",
". c #85a38f",
"+ c #517c5f",
"@ c #30573c",
"# c #000000",
".......................",
"+++++++++++++++++++++++",
"+++++++++++++++++++++++",
"+++..............@#++++",
"+++.+++++++++++++@#++++",
"+++.+++++++++++++@#++++",
"+++.+++++++++++++@#++++",
"+++.+++++++++++++@#++++",
"+++.+++++++++++++@#++++",
"+++.+++++++++++++@#++++",
"+++.+++++++++++++@#++++",
"+++.+++++++++++++@#++++",
"+++.+++++++++++++@#++++",
"+++.+++++++++++++@#++++",
"+++.+++++++++++++@#++++",
"+++.+++++++++++++@#++++",
"+++.+++++++++++++@#++++",
"++++@@@@@@@@@@@@@@#++++",
"+++################++++",
"+++++++++++++++++++++++",
"+++++++++++++++++++++++",
"@@@@@@@@@@@@@@@@@@@@@@@",
"#######################",
".......................",
"+++++++++++++++++++++++",
"+++++++++++++++++++++++",
"+++@@@@@@@@@@@@@@.#++++",
"+++@+++++++++++++.#++++",
"+++@+++++++++++++.#++++",
"+++@+++++++++++++.#++++",
"+++@+++++++++++++.#++++",
"+++@+++++++++++++.#++++",
"+++@+++++++++++++.#++++",
"+++@+++++++++++++.#++++",
"+++@+++++++++++++.#++++",
"+++@+++++++++++++.#++++",
"+++@+++++++++++++.#++++",
"+++@+++++++++++++.#++++",
"+++@+++++++++++++.#++++",
"+++@+++++++++++++.#++++",
"++++..............#++++",
"+++################++++",
"+++++++++++++++++++++++",
"+++++++++++++++++++++++",
"@@@@@@@@@@@@@@@@@@@@@@@",
"#######################"};
