/* XPM */
static char * taskbuttonactive_xpm[] = {
"59 28 4 1",
" 	c #E1E0D2",
".	c #C2BFA5",
"+	c #000000",
"@	c #828282",
"                                                           ",
"...........................................................",
"...........................................................",
"..+++++++++++++++++++++++++++++++++++++++++++++++++++++++ .",
"..+@@@@@@@@@@@@@@@@@@@@@@@@@@@@@@@@@@@@@@@@@@@@@@@@@@@@@. .",
"..+@                                                    . .",
"..+@. . . . . . . . . . . . . . . . . . . . . . . . . . . .",
"..+@ . . . . . . . . . . . . . . . . . . . . . . . . . .. .",
"..+@. . . . . . . . . . . . . . . . . . . . . . . . . . . .",
"..+@ . . . . . . . . . . . . . . . . . . . . . . . . . .. .",
"..+@. . . . . . . . . . . . . . . . . . . . . . . . . . . .",
"..+@ . . . . . . . . . . . . . . . . . . . . . . . . . .. .",
"..+@. . . . . . . . . . . . . . . . . . . . . . . . . . . .",
"..+@ . . . . . . . . . . . . . . . . . . . . . . . . . .. .",
"..+@. . . . . . . . . . . . . . . . . . . . . . . . . . . .",
"..+@ . . . . . . . . . . . . . . . . . . . . . . . . . .. .",
"..+@. . . . . . . . . . . . . . . . . . . . . . . . . . . .",
"..+@ . . . . . . . . . . . . . . . . . . . . . . . . . .. .",
"..+@. . . . . . . . . . . . . . . . . . . . . . . . . . . .",
"..+@ . . . . . . . . . . . . . . . . . . . . . . . . . .. .",
"..+@. . . . . . . . . . . . . . . . . . . . . . . . . . . .",
"..+@ . . . . . . . . . . . . . . . . . . . . . . . . . .. .",
"..+@. . . . . . . . . . . . . . . . . . . . . . . . . . . .",
"..+...................................................... .",
"..                                                        .",
"...........................................................",
"...........................................................",
"..........................................................."};
