/* XPM */
static char * nextstep_cube[] = {
"48 48 8 1",
"  c None",
". c #05070A",
"+ c #E6EBEE",
"@ c #AAB5BC",
"# c #77838C",
"$ c #2C373F",
"% c #10171C",
"& c #FFFFFF",
"                                                ",
"                                                ",
"                                                ",
"                                                ",
"                                                ",
"                       ..                       ",
"                     ......                     ",
"                    ..++++..                    ",
"                  ..++++++++..                  ",
"                ..++++++++++++..                ",
"              ...@@@@@@@@@@@@@@...              ",
"            ...+@@@@@@@@@@@@@@@@@...            ",
"           ..+++@@@@@@@@@@@@@@@@@@@..           ",
"         ..+++++@@@@@@@@@@@@@@@@@@@@@..         ",
"        ...+++++@@@@@@@@@@@@@@@@@@@@@...        ",
"        .....+++@@@@@@@@@@@@@@@@@@@.....        ",
"        .#.....+@@@@@@@@@@@@@@@@@.....$.        ",
"        .###.....@@@@@@@@@@@@@@.....$$$.        ",
"        .####@....@@@@@@@@@@@@....$$$$$.        ",
"        .####@@.....@@@@@@@@.....$$$$$$.        ",
"        .####@@@@.....@@@@.....$$$$$$$$.        ",
"        .####@@@@@@..........$$$$$$$$$$.        ",
"        .####@@@@@@@@......$$$$$$$$$$$$.        ",
"        .####@@@@@@@@@@..$$$$$$$$$$$$$$.        ",
"        .####@@@@@@@@@@..$$$$$$$$$$$$$$.        ",
"        .####@@@@@@@@@@..$$$$$$$$$$$$$$.        ",
"        .####@@@@@@@@@@..$$&&&$$$&&$$$$.        ",
"        .####@@@@@@@@@@..$$&&&$$$&&$$$$.        ",
"        .####@@@@@@@@@@..$$&&&&$$&&$$$$.        ",
"        .####@@@@@@@@@@..$$&&&&$$&&$$$$.        ",
"        .####@@@@@@@@@@..$$&&$&&$&&$$$$.        ",
"        .####@@@@@@@@@@..$$&&$&&$&&$$$$.        ",
"        .####@@@@@@@@@@..$$&&$$&&&&$$$$.        ",
"        .####@@@@@@@@@@..$$&&$$&&&&$$$$.        ",
"        .####@@@@@@@@@@..$$&&$$$&&&$$$$.        ",
"         ..##@@@@@@@@@@..$$&&$$$$&&$$..         ",
"           ..@@@@@@@@@@..$$$$$$$$$$..           ",
"            ...@@@@@@@@..$$$$$$$$...            ",
"              ...@@@@@@..$$$$$$...              ",
"                ..@@@@@..$$$$$..                ",
"                  ..@@@..$$$..                  ",
"                    ..@..$..                    ",
"                     ......                     ",
"                       ..                       ",
"                                                ",
"                                                ",
"                                                ",
"                                                "
};
