/* XPM */
static char * nextstep_logo[] = {
"60 60 8 1 ",
"  c #010100",
". c #2F2814",
"X c #C4382C",
"o c #15A45F",
"O c #E5CB10",
"+ c None",
"@ c black",
"# c #DD0389",
"++++++++++++++++++++++++++++++++++++@.@+++++++++++++++++++++",
"+++++++++++++++++++++++++++++++++++.   +++++++++++++++++++++",
"+++++++++++++++++++++++++++++++++@     @++++++++++++++++++++",
"+++++++++++++++++++++++++++++++@        ++++++++++++++++++++",
"+++++++++++++++++++++++++++++@  ....    @+++++++++++++++++++",
"+++++++++++++++++++++++++++@  XOOOOOOX   +++++++++++++++++++",
"+++++++++++++++++++++++++@   OOO...XOOO. @++++++++++++++++++",
"+++++++++++++++++++++++@    OO.      XOO  ++++++++++++++++++",
"+++++++++++++++++++++@     XOX       XOOX .+++++++++++++++++",
"+++++++++++++++++++@       OO      XOOO.   @++++++++++++++++",
"+++++++++++++++++@   XX   .OX    .OOO.      ++++++++++++++++",
"+++++++++++++++@     XX   .O.  .OOO.    OX  @+++++++++++++++",
"+++++++++++++@       .XX  .O..OOOX     .OO   +++++++++++++++",
"+++++++++++@.         XX. .OOOOX       .OX   @++++++++++++++",
"+++++++++@.           .XX  OOO         OO.    ++++++++++++++",
"++++++++.              XX. XOO        .OO     @+++++++++++++",
"++++++++. .X.          .XX  OOO.     .OO.      +++++++++++++",
"+++++++@@  XXXXX.       XX.  OOOOX.XOOO.   X#. @++++++++++++",
"+++++++@@. .XXXXXXXX.    XX   XOOOOOOO   X###   @+++++++++++",
"+++++++  @  XXX.XXXXXXXX.XXX    ....   X###.    .+++++++++++",
"+++++++  @@ .XX    .XXXXXXXX         X###.       @++++++++++",
"+++++++   +  XXX       .XXXXX      X####.         ++++++++++",
"++++++@   @@ .XX           .X    .###. ##         @+++++++++",
"++++++@    @  XXX               ###.   X#X         +++++++++",
"++++++@    .@  XX.           ..  .      ##         @++++++++",
"++++++.     @  XXX           oo         .#X         ++++++++",
"++++++       @  XX.          oo          ##         @+++++++",
"++++++       @. XXX         oo.          .##         +++++++",
"+++++@        @  .          oo            ##.        .++++++",
"+++++@        @@            oo            .##         ++++++",
"+++++@         @  ooo.     .oo             ##.      @+++++++",
"+++++.         @@ oooooo.  oo               ##    @@.@++++++",
"+++++           +   .oooooooo               .   @@.  +++++++",
"+++++           @@      .ooooooo              @@.   @+++++++",
"+++++@           @        ooooooooo.        @+@     @+++++++",
"++++++.          .@       oo   .ooooo.    @+@       ++++++++",
"+++++++           @       oo       .o   @+@        @++++++++",
"+++++++@           @     .o.          @+@          +++++++++",
"++++++++           @.    oo         @@@            +++++++++",
"++++++++@           @    oo       .+@             @+++++++++",
"+++++++++           @@  .oo     .@@               ++++++++++",
"+++++++++@           @  oo    .@@                .++++++++++",
"++++++++++           @@  .  .@@                  @++++++++++",
"++++++++++@           @   .@@                    +++++++++++",
"+++++++++++           .@ @@                     @+++++++++++",
"+++++++++++@           @@                      .++++++++++++",
"++++++++++++.          +                      @+++++++++++++",
"+++++++++++++          @                    @+++++++++++++++",
"+++++++++++++@        @@                  @+++++++++++++++++",
"++++++++++++++        @                 @+++++++++++++++++++",
"++++++++++++++@       @               @+++++++++++++++++++++",
"+++++++++++++++      @@             @+++++++++++++++++++++++",
"+++++++++++++++@     @            @+++++++++++++++++++++++++",
"++++++++++++++++     @          @+++++++++++++++++++++++++++",
"++++++++++++++++@   .@        @+++++++++++++++++++++++++++++",
"+++++++++++++++++.  @.      @+++++++++++++++++++++++++++++++",
"+++++++++++++++++@  +     @+++++++++++++++++++++++++++++++++",
"++++++++++++++++++. @   .+++++++++++++++++++++++++++++++++++",
"+++++++++++++++++++@. @+++++++++++++++++++++++++++++++++++++",
"++++++++++++++++++++@+++++++++++++++++++++++++++++++++++++++"
};
