/* XPM */
static char * dframeITR_xpm[] = {
"31 32 4 1",
" 	c None",
".	c #394748",
"+	c #bfcbcc",
"@	c #708c8d",
".+++++++++++++++++++++++++++++.",
".++++++++++++++++++++++++++++..",
".+@@@@@@@@@@@@@@@@@@@@@@@@@@@..",
".+@@@@@@@@@@@@@@@@@@@@@@@@@@@..",
".+@@@@@@@@@@@@@@@@@@@@@@@@@@@..",
".+........................@@@..",
"                         +@@@..",
"                         +@@@..",
"                         +@@@..",
"                         +@@@..",
"                         +@@@..",
"                         +@@@..",
"                         +@@@..",
"                         +@@@..",
"                         +@@@..",
"                         +@@@..",
"                         +@@@..",
"                         +@@@..",
"                         +@@@..",
"                         +@@@..",
"                         +@@@..",
"                         +@@@..",
"                         +@@@..",
"                         +@@@..",
"                         +@@@..",
"                         +@@@..",
"                         +@@@..",
"                         +@@@..",
"                         +@@@..",
"                         +@@@..",
"                         +.....",
"                         +++++."};
