/* XPM */
static char * maximizeI_xpm[] = {
"24 48 3 1",
" 	c #bfcbcc",
".	c #394748",
"+	c #708c8d",
"                       .",
" ++++++++++++++++++++++.",
" ++++++++++++++++++++++.",
" ++++++++++++++++++++++.",
" ++++++++++++++++++++++.",
" ++++++++++++++++++++++.",
" ++++++           +++++.",
" ++++++ +++++++++.+++++.",
" ++++++ +++++++++.+++++.",
" ++++++ +++++++++.+++++.",
" ++++++ +++++++++.+++++.",
" ++++++ +++++++++.+++++.",
" ++++++ +++++++++.+++++.",
" ++++++ +++++++++.+++++.",
" ++++++ +++++++++.+++++.",
" ++++++ +++++++++.+++++.",
" ++++++ +++++++++.+++++.",
" ++++++ +++++++++.+++++.",
" ++++++...........+++++.",
" ++++++++++++++++++++++.",
" ++++++++++++++++++++++.",
" ++++++++++++++++++++++.",
" ++++++++++++++++++++++.",
" .......................",
"....................... ",
".++++++++++++++++++++++ ",
".++++++++++++++++++++++ ",
".++++++++++++++++++++++ ",
".++++++++++++++++++++++ ",
".++++++++++++++++++++++ ",
".++++++           +++++ ",
".++++++ +++++++++.+++++ ",
".++++++ +++++++++.+++++ ",
".++++++ +++++++++.+++++ ",
".++++++ +++++++++.+++++ ",
".++++++ +++++++++.+++++ ",
".++++++ +++++++++.+++++ ",
".++++++ +++++++++.+++++ ",
".++++++ +++++++++.+++++ ",
".++++++ +++++++++.+++++ ",
".++++++ +++++++++.+++++ ",
".++++++ +++++++++.+++++ ",
".++++++...........+++++ ",
".++++++++++++++++++++++ ",
".++++++++++++++++++++++ ",
".++++++++++++++++++++++ ",
".++++++++++++++++++++++ ",
".                       "};
