/* XPM */
static char * menuButtonA_xpm[] = {
"24 48 4 1",
" 	c #d9d9ff",
".	c #595987",
"+	c #a9a9ff",
"@	c #3e3e5e",
"                       .",
" ++++++++++++++++++++++.",
" ++++++++++++++++++++++.",
" ++++++++++++++++++++++.",
" ++++++++++++++++++++++.",
" ++++++++++++++++++++++.",
" ++++++++++++++++++++++.",
" ++++++++++++++++++++++.",
" ++++++++++++++++++++++.",
" ++++             @++++.",
" ++++ ++++++++++++@++++.",
" ++++ ++++++++++++@++++.",
" ++++ ++++++++++++@++++.",
" ++++ ++++++++++++@++++.",
" ++++ @@@@@@@@@@@@@++++.",
" ++++++++++++++++++++++.",
" ++++++++++++++++++++++.",
" ++++++++++++++++++++++.",
" ++++++++++++++++++++++.",
" ++++++++++++++++++++++.",
" ++++++++++++++++++++++.",
" ++++++++++++++++++++++.",
" ++++++++++++++++++++++.",
" .......................",
"....................... ",
".++++++++++++++++++++++ ",
".++++++++++++++++++++++ ",
".++++++++++++++++++++++ ",
".++++++++++++++++++++++ ",
".++++++++++++++++++++++ ",
".++++++++++++++++++++++ ",
".++++++++++++++++++++++ ",
".++++++++++++++++++++++ ",
".++++             @++++ ",
".++++ ++++++++++++@++++ ",
".++++ ++++++++++++@++++ ",
".++++ ++++++++++++@++++ ",
".++++ ++++++++++++@++++ ",
".++++ @@@@@@@@@@@@@++++ ",
".++++++++++++++++++++++ ",
".++++++++++++++++++++++ ",
".++++++++++++++++++++++ ",
".++++++++++++++++++++++ ",
".++++++++++++++++++++++ ",
".++++++++++++++++++++++ ",
".++++++++++++++++++++++ ",
".++++++++++++++++++++++ ",
".                       "};
