/* XPM */
static char * buttonI_xpm[] = {
"76 22 5 1",
" 	c #ffffff",
".	c #000000",
"+	c #b4aa94",
"@	c #d8d3c7",
"#	c #777162",
"                                                                          .+",
" @@@@@@@@@@@@@@@@@@@@@@@@@@@@@@@@@@@@@@@@@@@@@@@@@@@@@@@@@@@@@@@@@@@@@@@@#.+",
" @+++++++++++++++++++++++++++++++++++++++++++++++++++++++++++++++++++++++#.+",
" @+++++++++++++++++++++++++++++++++++++++++++++++++++++++++++++++++++++++#.+",
" @+++++++++++++++++++++++++++++++++++++++++++++++++++++++++++++++++++++++#.+",
" @+++++++++++++++++++++++++++++++++++++++++++++++++++++++++++++++++++++++#.+",
" @+++++++++++++++++++++++++++++++++++++++++++++++++++++++++++++++++++++++#.+",
" @+++++++++++++++++++++++++++++++++++++++++++++++++++++++++++++++++++++++#.+",
" @+++++++++++++++++++++++++++++++++++++++++++++++++++++++++++++++++++++++#.+",
" @+++++++++++++++++++++++++++++++++++++++++++++++++++++++++++++++++++++++#.+",
" @+++++++++++++++++++++++++++++++++++++++++++++++++++++++++++++++++++++++#.+",
" @+++++++++++++++++++++++++++++++++++++++++++++++++++++++++++++++++++++++#.+",
" @+++++++++++++++++++++++++++++++++++++++++++++++++++++++++++++++++++++++#.+",
" @+++++++++++++++++++++++++++++++++++++++++++++++++++++++++++++++++++++++#.+",
" @+++++++++++++++++++++++++++++++++++++++++++++++++++++++++++++++++++++++#.+",
" @+++++++++++++++++++++++++++++++++++++++++++++++++++++++++++++++++++++++#.+",
" @+++++++++++++++++++++++++++++++++++++++++++++++++++++++++++++++++++++++#.+",
" @+++++++++++++++++++++++++++++++++++++++++++++++++++++++++++++++++++++++#.+",
" @+++++++++++++++++++++++++++++++++++++++++++++++++++++++++++++++++++++++#.+",
" #########################################################################.+",
"...........................................................................+",
"++++++++++++++++++++++++++++++++++++++++++++++++++++++++++++++++++++++++++++"};
