/* XPM */
static char *menuButtonI_xpm[] = {
"19 38 4 1",
". c #000000",
"+ c #D6D6D6",
"@ c #9A9ABC",
"# c #74748C",
"...................",
".+++++++++++++++++.",
".+@@@@@@@@@@@@@@@#.",
".+@@@@@@@@@@@@@@@#.",
".+@@@@@@@@@@@@@@@#.",
".+@@@@@@@@@@@@@@@#.",
".+@@@@.......@@@@#.",
".+@@@@.@.@.@.@@@@#.",
".+@@@@@.@.@.@@@@@#.",
".+@@@@.......@@@@#.",
".+@@@@.@.@.@.@@@@#.",
".+@@@@@.@.@.@@@@@#.",
".+@@@@.......@@@@#.",
".+@@@@@@@@@@@@@@@#.",
".+@@@@@@@@@@@@@@@#.",
".+@@@@@@@@@@@@@@@#.",
".+@@@@@@@@@@@@@@@#.",
".+################.",
"...................",
"...................",
".#################.",
".#################.",
".#################.",
".#################.",
".#################.",
".#################.",
".######+++++++####.",
".######+#+#+#+####.",
".#######+#+#+#####.",
".######+++++++####.",
".######+#+#+#+####.",
".#######+#+#+#####.",
".######+++++++####.",
".#################.",
".#################.",
".#################.",
".#################.",
"..................."};
