/* XPM */
static char *restoreA[] = {
/* columns rows colors chars-per-pixel */
"18 38 6 1 ",
"  c black",
". c gray25",
"X c #808080",
"o c #1084D0",
"O c #D4D0C8",
"+ c white",
/* pixels */
"oooooooooooooooooo",
"oooooooooooooooooo",
"+++++++++++++++.oo",
"+OOOOOOOOOOOOOX.oo",
"+OOOO      OOOX.oo",
"+OOOO      OOOX.oo",
"+OOOO OOOO OOOX.oo",
"+OO      O OOOX.oo",
"+OO      O OOOX.oo",
"+OO OOOO   OOOX.oo",
"+OO OOOO OOOOOX.oo",
"+OO OOOO OOOOOX.oo",
"+OO      OOOOOX.oo",
"+OOOOOOOOOOOOOX.oo",
"+XXXXXXXXXXXXXX.oo",
"................oo",
"oooooooooooooooooo",
"oooooooooooooooooo",
"OOOOOOOOOOOOOOOOOO",
"oooooooooooooooooo",
"oooooooooooooooooo",
"...............+oo",
".XXXXXXXXXXXXXO+oo",
".XOOOOOOOOOOOOO+oo",
".XOOOO      OOO+oo",
".XOOOO      OOO+oo",
".XOOOO OOOO OOO+oo",
".XOO      O OOO+oo",
".XOO      O OOO+oo",
".XOO OOOO   OOO+oo",
".XOO OOOO OOOOO+oo",
".XOO OOOO OOOOO+oo",
".XOO      OOOOO+oo",
".OOOOOOOOOOOOOO+oo",
"++++++++++++++++oo",
"oooooooooooooooooo",
"oooooooooooooooooo",
"OOOOOOOOOOOOOOOOOO"
};
