/* XPM */
static char*macos[]={
"50 10 8 1",
". c #cecece",
"c c #dedede",
"a c #adadad",
"b c #bdbdbd",
"f c #8c8c8c",
"# c #9c9c9c",
"d c #efefef",
"e c #ffffff",
".###aabbbbb............................cccccddeeef",
".##aaaabbb..............................cccddddeef",
".###aabbbbb............................cccccddeeef",
".##aaaabbb..............................cccddddeef",
".###aabbbbb............................cccccddeeef",
".##aaaabbb..............................cccddddeef",
".###aabbbbb............................cccccddeeef",
".##aaaabbb..............................cccddddeef",
".###aabbbbb............................cccccddeeef",
".##aaaabbb..............................cccddddeef"};
