/* XPM */
static char * dframeIBR_xpm[] = {
"31 31 19 1",
" 	c #9ab4a9",
".	c #557769",
"+	c #ffffff",
"@	c #c3d2cc",
"#	c #608676",
"$	c #000000",
"%	c #31443c",
"&	c #5f8576",
"*	c #638a7a",
"=	c #49665a",
"-	c #608676",
";	c #e7edea",
">	c #b7c9c2",
",	c #5c8071",
"'	c #f7f9f8",
")	c #edf1ef",
"!	c #f2f5f4",
"~	c #c8d6d0",
"{	c #344840",
"      .+@@@@@@@@@@@@@#$  %%%%%%",
"      .+@@@@@@@@@@@@@#$       %",
"      .+@@@@@@@@@@@@@#$  &&&&%%",
"      .+@@@@@@@@@@@@@#$  &&&&%%",
"      .+@@@@@@@@@@@@@#$  &&&&%%",
"      .+##############$  &&&&%%",
"      .$$$$$$$$$$$$$$$$  &&&&%%",
"      .+++++++++++++++$  &&&&%%",
"      .+@@@@@@@@@@@@@#$  &&&&%%",
"      .+@@@@@@@@@@@@@#$  &&&&%%",
"      .+@@@@@@@@@@@@@#$  &&&&%%",
"      .+@@@@@@@@@@@@@#$  &&&&%%",
"      .+@@@@@@@@@@@@@#$  &&&&%%",
"      .+@@*======*@@@#$  &&&&%%",
"      .+@@@--===*+;;@#$  &&&&%%",
"      .+@@@>>,=,')@@@#$  &&&&%%",
"      .+@@@@@>-)!@@@@#$  &&&&%%",
"      .+@@@@@@@!~@@@@#$  &&&&%%",
"      .+@@@@@@@@@@@@@#$  &&&&%%",
"      .+@@@@@@@@@@@@@#$  &&&&%%",
"      .+@@@@@@@@@@@@@#$  &&&&%%",
"      .+##############$  &&&&%%",
"      .$$$$$$$$$$$$$$$$  &&&&%%",
"                         &&&&%%",
"                         &&&&%%",
"{ &&&&&&&&&&&&&&&&&&&&&&&&&&&%%",
"{ &&&&&&&&&&&&&&&&&&&&&&&&&&&%%",
"% &&&&&&&&&&&&&&&&&&&&&&&&&&&%%",
"{ &&&&&&&&&&&&&&&&&&&&&&&&&&&%%",
"{ %%%%%%%%%%%%%%%%%%%%%%%%%%%%%",
"{%%%%%%%%%%%%%%%%%%%%%%%%%%%%%%"};
