/* XPM */
static char * dframeABL_xpm[] = {
"27 27 4 1",
" 	c #d88775",
".	c #5d3a33",
"+	c #ebc3ba",
"@	c #b06e60",
" .....+++++++++++++++++++++",
"     .+++++++++++++++++++++",
"  @@@.+++++++++++++++++++++",
"  @@@.+++++++++++++++++++++",
"  @@@.+++++++++++++++++++++",
"  @@@.+++++++++++++++++++++",
"  @@@.+++++++++++++++++++++",
"  @@@.+++++++++++++++++++++",
"  @@@.+++++++++++++++++++++",
"  @@@.+++++++++++++++++++++",
"  @@@.+++++++++++++++++++++",
"  @@@.+++++++++++++++++++++",
"  @@@.+++++++++++++++++++++",
"  @@@.+++++++++++++++++++++",
"  @@@.+++++++++++++++++++++",
"  @@@.+++++++++++++++++++++",
"  @@@.+++++++++++++++++++++",
"  @@@.+++++++++++++++++++++",
"  @@@.+++++++++++++++++++++",
"  @@@.+++++++++++++++++++++",
"  @@@.+++++++++++++++++++++",
"  @@@.                     ",
"  @@@@@@@@@@@@@@@@@@@@@@@. ",
"  @@@@@@@@@@@@@@@@@@@@@@@. ",
"  @@@@@@@@@@@@@@@@@@@@@@@. ",
"  ........................ ",
" .........................."};
