/* XPM */
static char * frameABR_xpm[] = {
"31 31 29 1",
" 	c None",
".	c #efccc5",
"+	c #88554a",
"@	c #ffffff",
"#	c #d98a79",
"$	c #996053",
"%	c #000000",
"&	c #de9a8b",
"*	c #603c34",
"=	c #b57162",
"-	c #9e6356",
";	c #74493f",
">	c #d88775",
",	c #9a6053",
"'	c #9e6356",
")	c #fdf9f8",
"!	c #f0d0c9",
"~	c #d58573",
"{	c #8f5a4e",
"]	c #925b4f",
"^	c #faefed",
"/	c #f3dcd6",
"(	c #d28372",
"_	c #996053",
":	c #f4dcd7",
"<	c #f7e5e2",
"[	c #da8e7d",
"}	c #dc9484",
"|	c #f4dfda",
"......+@#############$%  &*****",
"......+@#############$%  &&&&&*",
"......+@#############$%  &===**",
"......+@#############$%  &===**",
"......+@#############$%  &===**",
"......+@$$$$$$$$$$$$$$%  &===**",
"......+%%%%%%%%%%%%%%%%  &===**",
"......+@@@@@@@@@@@@@@@%  &===**",
"......+@#############$%  &===**",
"......+@#############$%  &===**",
"......+@#############$%  &===**",
"......+@#############$%  &===**",
"......+@#############$%  &===**",
"......+@##-;;;;;;-###$%  &===**",
"......+@##>,,;;;')!!#$%  &===**",
"......+@###~~{;]^/###$%  &===**",
"......+@#####(_:<[###$%  &===**",
"......+@######}|}####$%  &===**",
"......+@#############$%  &===**",
"......+@#############$%  &===**",
"......+@#############$%  &===**",
"......+@$$$$$$$$$$$$$$%  &===**",
"......+%%%%%%%%%%%%%%%%  &===**",
"                         &===**",
"                         &===**",
"&&&&&&&&&&&&&&&&&&&&&&&&&&===**",
"*&===========================**",
"*&===========================**",
"*&===========================**",
"*&*****************************",
"*******************************"};
