/* XPM */
static char * workspacebuttonbg_xpm[] = {
"91 37 3 1",
" 	c #816c49",
".	c #ffedcd",
"+	c #ffd690",
" ..........................................................................................",
" ........................................................................................ .",
" ..+++++++++++++++++++++++++++++++++++++++++++++++++++++++++++++++++++++++++++++++++++++  .",
" ..+++++++++++++++++++++++++++++++++++++++++++++++++++++++++++++++++++++++++++++++++++++  .",
" ..+++++++++++++++++++++++++++++++++++++++++++++++++++++++++++++++++++++++++++++++++++++  .",
" ..+++++++++++++++++++++++++++++++++++++++++++++++++++++++++++++++++++++++++++++++++++++  .",
" ..+++++++++++++++++++++++++++++++++++++++++++++++++++++++++++++++++++++++++++++++++++++  .",
" ..+++++++++++++++++++++++++++++++++++++++++++++++++++++++++++++++++++++++++++++++++++++  .",
" ..+++++++++++++++++++++++++++++++++++++++++++++++++++++++++++++++++++++++++++++++++++++  .",
" ..+++++++++++++++++++++++++++++++++++++++++++++++++++++++++++++++++++++++++++++++++++++  .",
" ..+++++++++++++++++++++++++++++++++++++++++++++++++++++++++++++++++++++++++++++++++++++  .",
" ..+++++++++++++++++++++++++++++++++++++++++++++++++++++++++++++++++++++++++++++++++++++  .",
" ..+++++++++++++++++++++++++++++++++++++++++++++++++++++++++++++++++++++++++++++++++++++  .",
" ..+++++++++++++++++++++++++++++++++++++++++++++++++++++++++++++++++++++++++++++++++++++  .",
" ..+++++++++++++++++++++++++++++++++++++++++++++++++++++++++++++++++++++++++++++++++++++  .",
" ..+++++++++++++++++++++++++++++++++++++++++++++++++++++++++++++++++++++++++++++++++++++  .",
" ..+++++++++++++++++++++++++++++++++++++++++++++++++++++++++++++++++++++++++++++++++++++  .",
" ..+++++++++++++++++++++++++++++++++++++++++++++++++++++++++++++++++++++++++++++++++++++  .",
" ..+++++++++++++++++++++++++++++++++++++++++++++++++++++++++++++++++++++++++++++++++++++  .",
" ..+++++++++++++++++++++++++++++++++++++++++++++++++++++++++++++++++++++++++++++++++++++  .",
" ..+++++++++++++++++++++++++++++++++++++++++++++++++++++++++++++++++++++++++++++++++++++  .",
" ..+++++++++++++++++++++++++++++++++++++++++++++++++++++++++++++++++++++++++++++++++++++  .",
" ..+++++++++++++++++++++++++++++++++++++++++++++++++++++++++++++++++++++++++++++++++++++  .",
" ..+++++++++++++++++++++++++++++++++++++++++++++++++++++++++++++++++++++++++++++++++++++  .",
" ..+++++++++++++++++++++++++++++++++++++++++++++++++++++++++++++++++++++++++++++++++++++  .",
" ..+++++++++++++++++++++++++++++++++++++++++++++++++++++++++++++++++++++++++++++++++++++  .",
" ..+++++++++++++++++++++++++++++++++++++++++++++++++++++++++++++++++++++++++++++++++++++  .",
" ..+++++++++++++++++++++++++++++++++++++++++++++++++++++++++++++++++++++++++++++++++++++  .",
" ..+++++++++++++++++++++++++++++++++++++++++++++++++++++++++++++++++++++++++++++++++++++  .",
" ..+++++++++++++++++++++++++++++++++++++++++++++++++++++++++++++++++++++++++++++++++++++  .",
" ..+++++++++++++++++++++++++++++++++++++++++++++++++++++++++++++++++++++++++++++++++++++  .",
" ..+++++++++++++++++++++++++++++++++++++++++++++++++++++++++++++++++++++++++++++++++++++  .",
" ..+++++++++++++++++++++++++++++++++++++++++++++++++++++++++++++++++++++++++++++++++++++  .",
" ..+++++++++++++++++++++++++++++++++++++++++++++++++++++++++++++++++++++++++++++++++++++  .",
" ..                                                                                       .",
" .                                                                                        .",
" .........................................................................................."};
