/* XPM */
static char *frameIBL_xpm[] = {
"23 23 3 1",
"  c #716e71",
". c #c6c4c6",
"+ c None",
" .... +++++++++++++++++",
" .... +++++++++++++++++",
" .... +++++++++++++++++",
" .... +++++++++++++++++",
" .... +++++++++++++++++",
" .... +++++++++++++++++",
" .... +++++++++++++++++",
" .... +++++++++++++++++",
" .... +++++++++++++++++",
" .... +++++++++++++++++",
" .... +++++++++++++++++",
" .... +++++++++++++++++",
" .... +++++++++++++++++",
" .... +++++++++++++++++",
" .... +++++++++++++++++",
" .... +++++++++++++++++",
" .... +++++++++++++++++",
" ....                  ",
" ......................",
" ......................",
" ......................",
" ......................",
"                       "};
