/* XPM */
static char *dframeIBL_xpm[] = {
"23 23 3 1",
"  c #2a2928",
". c #797978",
"+ c None",
" .... +++++++++++++++++",
" .... +++++++++++++++++",
" .... +++++++++++++++++",
" .... +++++++++++++++++",
" .... +++++++++++++++++",
" .... +++++++++++++++++",
" .... +++++++++++++++++",
" .... +++++++++++++++++",
" .... +++++++++++++++++",
" .... +++++++++++++++++",
" .... +++++++++++++++++",
" .... +++++++++++++++++",
" .... +++++++++++++++++",
" .... +++++++++++++++++",
" .... +++++++++++++++++",
" .... +++++++++++++++++",
" .... +++++++++++++++++",
" ....                  ",
" ......................",
" ......................",
" ......................",
" ......................",
"                       "};
