/* XPM */
static char *restoreA_xpm[] = {
"16 38 5 1",
". c #403f3e",
"+ c #2a2928",
"@ c #000000",
"# c #ffffff",
"$ c #797978",
"................",
"...++++++++++++.",
"...+@@@@@@@@@@@#",
"...+@#........@#",
"...+@........+@#",
"...+@........+@#",
"...+@...@@@@@@@#",
"...+@...@..$$+@#",
"...+@...@.$$$+@#",
"...+@...@$$$$+@#",
"...+@...@$$$#+@#",
"...+@.++@+++++@#",
"...+@@@@@@@@@@@#",
"....############",
"................",
"................",
"................",
"++++++++++++++++",
"@@@@@@@@@@@@@@@@",
"................",
"...++++++++++++.",
"...+@@@@@@@@@@@#",
"...+@+++++++++@#",
"...+@+#.......@#",
"...+@+........@#",
"...+@+........@#",
"...+@+...@@@@@@#",
"...+@+...@..$$@#",
"...+@+...@.$$$@#",
"...+@+...@$$$$@#",
"...+@+...@$$$#@#",
"...+@@@@@@@@@@@#",
"....############",
"................",
"................",
"................",
"++++++++++++++++",
"@@@@@@@@@@@@@@@@"};
