/* XPM */
static char *rolldownA_xpm[] = {
"23 46 6 1",
". c #acadaa",
"+ c #e3aa00",
"@ c #ffffff",
"# c #585a56",
"$ c #000000",
"% c #888a85",
".......................",
"+++++++++++++++++++++++",
"+++++++++++++++++++++++",
"+++@@@@@@@@@@@@@@#$++++",
"+++@%%%%%%%%%%%%%#$++++",
"+++@%%%%%%%%%%%%%#$++++",
"+++@%%%%%%%%%%%%%#$++++",
"+++@%%%%%%%%%%%%%#$++++",
"+++@%%%%%%%%%%%%%#$++++",
"+++@%%%%%%%%%%%%%#$++++",
"+++@%%%%%%%%%%%%%#$++++",
"+++@%%%%%%%%%%%%%#$++++",
"+++@%%%%%%%%%%%%%#$++++",
"+++@%%%%%%%%%%%%%#$++++",
"+++@%%%%%%%%%%%%%#$++++",
"+++@%%%%%%%%%%%%%#$++++",
"+++@%%%%%%%%%%%%%#$++++",
"+++%##############$++++",
"+++$$$$$$$$$$$$$$$$++++",
"+++++++++++++++++++++++",
"+++++++++++++++++++++++",
"#######################",
"$$$$$$$$$$$$$$$$$$$$$$$",
".......................",
"+++++++++++++++++++++++",
"+++++++++++++++++++++++",
"+++##############@$++++",
"+++#%%%%%%%%%%%%%@$++++",
"+++#%%%%%%%%%%%%%@$++++",
"+++#%%%%%%%%%%%%%@$++++",
"+++#%%%%%%%%%%%%%@$++++",
"+++#%%%%%%%%%%%%%@$++++",
"+++#%%%%%%%%%%%%%@$++++",
"+++#%%%%%%%%%%%%%@$++++",
"+++#%%%%%%%%%%%%%@$++++",
"+++#%%%%%%%%%%%%%@$++++",
"+++#%%%%%%%%%%%%%@$++++",
"+++#%%%%%%%%%%%%%@$++++",
"+++#%%%%%%%%%%%%%@$++++",
"+++#%%%%%%%%%%%%%@$++++",
"+++%@@@@@@@@@@@@@@$++++",
"+++$$$$$$$$$$$$$$$$++++",
"+++++++++++++++++++++++",
"+++++++++++++++++++++++",
"#######################",
"$$$$$$$$$$$$$$$$$$$$$$$"};
