/* XPM */
static char *dframeITR_xpm[] = {
"23 23 3 1",
"  c #000000",
". c #4c4c4c",
"+ c None",
"                       ",
"...................... ",
"...................... ",
"...................... ",
"...................... ",
"...................... ",
"+++++++++++++++++..... ",
"+++++++++++++++++..... ",
"+++++++++++++++++..... ",
"+++++++++++++++++..... ",
"+++++++++++++++++..... ",
"+++++++++++++++++..... ",
"+++++++++++++++++..... ",
"+++++++++++++++++..... ",
"+++++++++++++++++..... ",
"+++++++++++++++++..... ",
"+++++++++++++++++..... ",
"+++++++++++++++++..... ",
"+++++++++++++++++..... ",
"+++++++++++++++++..... ",
"+++++++++++++++++..... ",
"+++++++++++++++++..... ",
"+++++++++++++++++..... "};
