/* XPM */
static char *rolldownA_xpm[] = {
"16 38 3 1",
". c #000000",
"+ c #ffffff",
"@ c #4c4c4c",
"................",
"................",
"............+...",
"..+.........+...",
"............+...",
"............+...",
".........@..+...",
"........@@..+...",
".......@@@..+...",
"......@@@@..+...",
".....@@@@+..+...",
"............+...",
"............+...",
".++++++++++++...",
"................",
"................",
"................",
"................",
"................",
"................",
"................",
"............+...",
"............+...",
"...+........+...",
"............+...",
"............+...",
"..........@.+...",
".........@@.+...",
"........@@@.+...",
".......@@@@.+...",
"......@@@@+.+...",
"............+...",
".++++++++++++...",
"................",
"................",
"................",
"................",
"................"};
