/* XPM */
static char * taskbuttonactive_xpm[] = {
"59 28 4 1",
" 	c #E9E7DF",
".	c #C7C2B0",
"+	c #000000",
"@	c #828282",
"                                                           ",
"...........................................................",
"...........................................................",
"..+++++++++++++++++++++++++++++++++++++++++++++++++++++++ .",
"..+@@@@@@@@@@@@@@@@@@@@@@@@@@@@@@@@@@@@@@@@@@@@@@@@@@@@@. .",
"..+@                                                    . .",
"..+@. . . . . . . . . . . . . . . . . . . . . . . . . . . .",
"..+@ . . . . . . . . . . . . . . . . . . . . . . . . . .. .",
"..+@. . . . . . . . . . . . . . . . . . . . . . . . . . . .",
"..+@ . . . . . . . . . . . . . . . . . . . . . . . . . .. .",
"..+@. . . . . . . . . . . . . . . . . . . . . . . . . . . .",
"..+@ . . . . . . . . . . . . . . . . . . . . . . . . . .. .",
"..+@. . . . . . . . . . . . . . . . . . . . . . . . . . . .",
"..+@ . . . . . . . . . . . . . . . . . . . . . . . . . .. .",
"..+@. . . . . . . . . . . . . . . . . . . . . . . . . . . .",
"..+@ . . . . . . . . . . . . . . . . . . . . . . . . . .. .",
"..+@. . . . . . . . . . . . . . . . . . . . . . . . . . . .",
"..+@ . . . . . . . . . . . . . . . . . . . . . . . . . .. .",
"..+@. . . . . . . . . . . . . . . . . . . . . . . . . . . .",
"..+@ . . . . . . . . . . . . . . . . . . . . . . . . . .. .",
"..+@. . . . . . . . . . . . . . . . . . . . . . . . . . . .",
"..+@ . . . . . . . . . . . . . . . . . . . . . . . . . .. .",
"..+@. . . . . . . . . . . . . . . . . . . . . . . . . . . .",
"..+...................................................... .",
"..                                                        .",
"...........................................................",
"...........................................................",
"..........................................................."};
