/* XPM */
static char *maximizeA_xpm[] = {
"23 46 4 1",
". c #4c4c4c",
"+ c #31363b",
"@ c #ffffff",
"# c #000000",
".......................",
".++++++++++++++++++++++",
".++++++++++++++++++++++",
".++@@@@@@@@@@@@@@##++++",
".++@###############++++",
".++@###############++++",
".++@###############++++",
".++@###############++++",
".++@###############++++",
".++@###############++++",
".++@###############++++",
".++@###############++++",
".++@###############++++",
".++@###############++++",
".++@###############++++",
".++@###############++++",
".++@###############++++",
".++################++++",
".++################++++",
".++++++++++++++++++++++",
".++++++++++++++++++++++",
"#######################",
"#######################",
".......................",
".++++++++++++++++++++++",
".++++++++++++++++++++++",
".++##############@#++++",
".++##############@#++++",
".++##############@#++++",
".++##############@#++++",
".++##############@#++++",
".++##############@#++++",
".++##############@#++++",
".++##############@#++++",
".++##############@#++++",
".++##############@#++++",
".++##############@#++++",
".++##############@#++++",
".++##############@#++++",
".++##############@#++++",
".++#@@@@@@@@@@@@@@#++++",
".++################++++",
".++++++++++++++++++++++",
".++++++++++++++++++++++",
"#######################",
"#######################"};
