/* XPM */
static char *menuButtonI_xpm[] = {
"23 46 2 1",
". c #4c4c4c",
"+ c #000000",
".......................",
"+++++++++++++++++++++++",
"+++++++++++++++++++++++",
"+++..............++++++",
"+++.+++++++++++++++++++",
"+++.+++++++++++++++++++",
"+++.+++++++++++++++++++",
"+++.+++++++++++++++++++",
"+++.+++++++++++++++++++",
"+++.+++++++++++++++++++",
"+++.+++++++++++++++++++",
"+++.+++++++++++++++++++",
"+++.+++++++++++++++++++",
"+++.+++++++++++++++++++",
"+++.+++++++++++++++++++",
"+++.+++++++++++++++++++",
"+++.+++++++++++++++++++",
"+++++++++++++++++++++++",
"+++++++++++++++++++++++",
"+++++++++++++++++++++++",
"+++++++++++++++++++++++",
"+++++++++++++++++++++++",
"+++++++++++++++++++++++",
".......................",
"+++++++++++++++++++++++",
"+++++++++++++++++++++++",
"+++++++++++++++++.+++++",
"+++++++++++++++++.+++++",
"+++++++++++++++++.+++++",
"+++++++++++++++++.+++++",
"+++++++++++++++++.+++++",
"+++++++++++++++++.+++++",
"+++++++++++++++++.+++++",
"+++++++++++++++++.+++++",
"+++++++++++++++++.+++++",
"+++++++++++++++++.+++++",
"+++++++++++++++++.+++++",
"+++++++++++++++++.+++++",
"+++++++++++++++++.+++++",
"+++++++++++++++++.+++++",
"++++..............+++++",
"+++++++++++++++++++++++",
"+++++++++++++++++++++++",
"+++++++++++++++++++++++",
"+++++++++++++++++++++++",
"+++++++++++++++++++++++"};
