/* XPM */
static char *dummy[]={
"30 30 6 1",
". c None",
"b c #606060",
"# c #888888",
"d c #975842",
"c c #be816c",
"a c #d7b0a3",
"..............................",
"..............................",
"..............................",
"..............................",
"..............................",
".........................#####",
".........................aaaab",
".........................cccdb",
".........................cccdb",
".........................cccdb",
".........................cccdb",
".........................cccdb",
".........................cccdb",
".........................cccdb",
".........................cccdb",
".........................cccdb",
".........................cccdb",
".........................cccdb",
".........................cccdb",
".........................cccdb",
".........................cccdb",
".........................cccdb",
".........................cccdb",
".........................cccdb",
".........................cccdb",
".........................cccdb",
".........................cccdb",
".........................cccdb",
".........................cccdb",
".........................####b"};
