/* XPM */
static char *dummy[]={
"16 50 12 1",
". c #888888",
"b c #9d5b45",
"g c #b67159",
"f c #b8745d",
"i c #bc7b65",
"j c #bc7c67",
"e c #cea495",
"c c #c99a8a",
"a c #be816c",
"d c #c89482",
"h c #d2a697",
"# c #d7b0a3",
"................",
"################",
"aaaaaaaaaaaaaaaa",
"aaaaaaaaaaaaaaaa",
"aaaaaaaaaaaaaaaa",
"bbbbbbbbbaaaaaaa",
"bccccccccaaaaaaa",
"bccddaabcaaaaaaa",
"bcddaeabcbbbbbaa",
"bcdaeafbccccccaa",
"bcaeaafbcdddbcaa",
"bcaafffbcddfbcaa",
"bcbbbbbbcdafbcaa",
"bccccccccadfbcaa",
"aaabcdddadafbcaa",
"aaabcddadaafbcaa",
"aaabcaffffffbcaa",
"aaabcbbbbbbbbcaa",
"aaabccccccccccaa",
"aaaaaaaaaaaaaaaa",
"aaaaaaaaaaaaaaaa",
"aaaaaaaaaaaaaaaa",
"aaaaaaaaaaaaaaaa",
"aaaaaaaaaaaaaaaa",
"................",
"................",
"################",
"aaaaaaaaaaaaaaaa",
"aaaaaaaaaaaaaaaa",
"aaaaaaaaaaaaaaaa",
"bbbbbbbbbaaaaaaa",
"bggggggghaaaaaaa",
"bgiiiiegcaaaaaaa",
"bgiieejgcbbbbbaa",
"bgieeahgcgggghaa",
"bgieahagcgiegcaa",
"bgeehahgcgiegcaa",
"bgggggggcgiegcaa",
"bhcccccccghjgcaa",
"aaabggggggjhgcaa",
"aaabgiiihjhagcaa",
"aaabgeeejhahgcaa",
"aaabgggggggggcaa",
"aaabhcccccccccaa",
"aaaaaaaaaaaaaaaa",
"aaaaaaaaaaaaaaaa",
"aaaaaaaaaaaaaaaa",
"aaaaaaaaaaaaaaaa",
"aaaaaaaaaaaaaaaa",
"................"};
