/* XPM */
static char * buttonA_xpm[] = {
"76 22 3 1",
" 	c #000000",
".	c #c4e2f6",
"+	c #85c4ed",
"                                                                           .",
" +++++++++++++++++++++++++++++++++++++++++++++++++++++++++++++++++++++++++ .",
" +.......................................................................+ .",
" +.......................................................................+ .",
" +... . . . . . . . . . . . . . . . . . . . . . . . . . . . . . . . . ...+ .",
" +.. ................................................................. ..+ .",
" +.......................................................................+ .",
" +.. ................................................................. ..+ .",
" +.......................................................................+ .",
" +.. ................................................................. ..+ .",
" +.......................................................................+ .",
" +.. ................................................................. ..+ .",
" +.......................................................................+ .",
" +.. ................................................................. ..+ .",
" +.......................................................................+ .",
" +.. ................................................................. ..+ .",
" +... . . . . . . . . . . . . . . . . . . . . . . . . . . . . . . . . ...+ .",
" +.......................................................................+ .",
" +.......................................................................+ .",
" +++++++++++++++++++++++++++++++++++++++++++++++++++++++++++++++++++++++++ .",
"                                                                           .",
"............................................................................"};
