/* XPM */
static char *closeA_xpm[] = {
"23 46 5 1",
". c #c6c4c6",
"+ c #101040",
"@ c #716e71",
"# c #000000",
"$ c #aeaaae",
".......................",
"++++++++++++++++++++++@",
"++++++++++++++++++++++@",
"++++..............@#++@",
"++++.$$$$$$$$$$$$$@#++@",
"++++.$##$$$$$$$##$@#++@",
"++++.$$##$$$$$##$$@#++@",
"++++.$$$##$$$##$$$@#++@",
"++++.$$$$##$##$$$$@#++@",
"++++.$$$$$###$$$$$@#++@",
"++++.$$$$$$#$$$$$$@#++@",
"++++.$$$$$###$$$$$@#++@",
"++++.$$$$##$##$$$$@#++@",
"++++.$$$##$$$##$$$@#++@",
"++++.$$##$$$$$##$$@#++@",
"++++.$##$$$$$$$##$@#++@",
"++++.$$$$$$$$$$$$$@#++@",
"++++$@@@@@@@@@@@@@@#++@",
"++++################++@",
"++++++++++++++++++++++@",
"++++++++++++++++++++++@",
"@@@@@@@@@@@@@@@@@@@@@@@",
"#######################",
".......................",
"++++++++++++++++++++++@",
"++++++++++++++++++++++@",
"++++@@@@@@@@@@@@@@.#++@",
"++++@$$$$$$$$$$$$$.#++@",
"++++@$$$$$$$$$$$$$.#++@",
"++++@$$##$$$$$$##$.#++@",
"++++@$$$##$$$$##$$.#++@",
"++++@$$$$##$$##$$$.#++@",
"++++@$$$$$####$$$$.#++@",
"++++@$$$$$$##$$$$$.#++@",
"++++@$$$$$$##$$$$$.#++@",
"++++@$$$$$####$$$$.#++@",
"++++@$$$$##$$##$$$.#++@",
"++++@$$$##$$$$##$$.#++@",
"++++@$$##$$$$$$##$.#++@",
"++++@$$$$$$$$$$$$$.#++@",
"++++$..............#++@",
"++++################++@",
"++++++++++++++++++++++@",
"++++++++++++++++++++++@",
"@@@@@@@@@@@@@@@@@@@@@@@",
"#######################"};
