/* XPM */
static char * start_xpm[] = {
"55 24 9 1",
" 	c #D4D0C8",
".	c #FFFFFF",
"+	c #404040",
"@	c #808080",
"#	c #000000",
"t	c #000000",
"$	c #FF0000",
"%	c #00FF00",
"&	c #6E2209",
"*	c #FFFF00",
"                                                       ",
"......................................................+",
".                                                    @+",
".                                                    @+",
".                                                    @+",
".            ####                                    @+",
".          ########                                  @+",
".   #     ###$##%###                                 @+",
".   # # ####$$##%%##   ttttt tt               tt     @+",
".     ######$$##%%##  tt     tt               tt     @+",
".   $     ##$####%##  tt     tttt  tttt  tt t tttt   @+",
".   $ $ $$##########  ttttt  tt       tt tttt tt     @+",
".     $$$$###&##*###   ttttt tt    ttttt tt   tt     @+",
".   &     ##&&##**##      tt tt   tt  tt tt   tt     @+",
".   & & &&##&&##**##      tt tt   tt  tt tt   tt     @+",
".     &&&&##&####*##  ttttt   ttt  ttttt tt    ttt   @+",
".   #     ##########                                 @+",
".   # # #####    ###                                 @+",
".     #####        #                                 @+",
".                                                    @+",
".                                                    @+",
".@@@@@@@@@@@@@@@@@@@@@@@@@@@@@@@@@@@@@@@@@@@@@@@@@@@@@+",
"+++++++++++++++++++++++++++++++++++++++++++++++++++++++",
"                                                       "};
