/* XPM */
static char * start_xpm[] = {
"55 24 5 1",
" 	c #D4D0C8",
".	c #FFFFFF",
"+	c #404040",
"@	c #808080",
"t	c #000000",
"                                                       ",
"......................................................+",
".                                                    @+",
".                                                    @+",
".                                                    @+",
".                                                    @+",
".                                                    @+",
".                                                    @+",
".                      ttttt tt               tt     @+",
".                     tt     tt               tt     @+",
".                     tt     tttt  tttt  tt t tttt   @+",
".                     ttttt  tt       tt tttt tt     @+",
".                      ttttt tt    ttttt tt   tt     @+",
".                         tt tt   tt  tt tt   tt     @+",
".                         tt tt   tt  tt tt   tt     @+",
".                     ttttt   ttt  ttttt tt    ttt   @+",
".                                                    @+",
".                                                    @+",
".                                                    @+",
".                                                    @+",
".                                                    @+",
".@@@@@@@@@@@@@@@@@@@@@@@@@@@@@@@@@@@@@@@@@@@@@@@@@@@@@+",
"+++++++++++++++++++++++++++++++++++++++++++++++++++++++",
"                                                       "};
