/* XPM */
static char * frameABR_xpm[] = {
"31 31 29 1",
" 	c None",
".	c #d8f4e7",
"+	c #66917d",
"@	c #ffffff",
"#	c #a4e6c8",
"$	c #73a38d",
"%	c #000000",
"&	c #b1e9cf",
"*	c #486658",
"=	c #88c0a6",
"-	c #77a891",
";	c #577b6b",
">	c #a2e5c6",
",	c #74a38d",
"'	c #77a891",
")	c #fafefc",
"!	c #daf5e9",
"~	c #a0e2c3",
"{	c #6b9883",
"]	c #6e9b86",
"^	c #f3fcf7",
"/	c #e4f7ee",
"(	c #9ddec0",
"_	c #73a28c",
":	c #e4f7ee",
"<	c #ebf9f3",
"[	c #a7e6c9",
"}	c #ace8cc",
"|	c #e6f8f0",
"......+@#############$%  &*****",
"......+@#############$%  &&&&&*",
"......+@#############$%  &===**",
"......+@#############$%  &===**",
"......+@#############$%  &===**",
"......+@$$$$$$$$$$$$$$%  &===**",
"......+%%%%%%%%%%%%%%%%  &===**",
"......+@@@@@@@@@@@@@@@%  &===**",
"......+@#############$%  &===**",
"......+@#############$%  &===**",
"......+@#############$%  &===**",
"......+@#############$%  &===**",
"......+@#############$%  &===**",
"......+@##-;;;;;;-###$%  &===**",
"......+@##>,,;;;')!!#$%  &===**",
"......+@###~~{;]^/###$%  &===**",
"......+@#####(_:<[###$%  &===**",
"......+@######}|}####$%  &===**",
"......+@#############$%  &===**",
"......+@#############$%  &===**",
"......+@#############$%  &===**",
"......+@$$$$$$$$$$$$$$%  &===**",
"......+%%%%%%%%%%%%%%%%  &===**",
"                         &===**",
"                         &===**",
"&&&&&&&&&&&&&&&&&&&&&&&&&&===**",
"*&===========================**",
"*&===========================**",
"*&===========================**",
"*&*****************************",
"*******************************"};
