/* XPM */
static char * rollupI_xpm[] = {
"24 48 5 1",
" 	c #8abdba",
".	c #204b48",
"+	c #3f938d",
"@	c #ffffff",
"#	c #275b58",
"                       .",
" ++++++++++++++++++++++.",
" ++++++++++++++++++++++.",
" ++++++++++++++++++++++.",
" ++++++++++++++++++++++.",
" ++++++++++++++++++++++.",
" +++++++++++@++++++++++.",
" ++++++++++@+.+++++++++.",
" ++++++++++@+.+++++++++.",
" ++++++++++@+.+++++++++.",
" +++++++++@+++..+++++++.",
" +++++++++@+++..+++++++.",
" +++++++@@++++++.++++++.",
" +++++++@@++++++.++++++.",
" ++++++@+++++++++.+++++.",
" ++++++@+++++++++.+++++.",
" ++++++@+++++++++.+++++.",
" +++++@+++++++++++.++++.",
" +++++@............++++.",
" ++++++++++++++++++++++.",
" ++++++++++++++++++++++.",
" ++++++++++++++++++++++.",
" ++++++++++++++++++++++.",
" .......................",
".......................+",
".+++++++++++++++++++++++",
".+++++++++++++++++++++++",
".+++++++++++++++++++++++",
".+++++++++++++++++++++++",
".+++++++++++++++++++++++",
".+++++++++++@+++++++++++",
".++++++++++@+#++++++++++",
".++++++++++@+#++++++++++",
".++++++++++@+#++++++++++",
".+++++++++@+++##++++++++",
".+++++++++@+++##++++++++",
".+++++++@@++++++#+++++++",
".+++++++@@++++++#+++++++",
".++++++@+++++++++#++++++",
".++++++@+++++++++#++++++",
".++++++@+++++++++#++++++",
".+++++@+++++++++++#+++++",
".+++++@############+++++",
".+++++++++++++++++++++++",
".+++++++++++++++++++++++",
".+++++++++++++++++++++++",
".+++++++++++++++++++++++",
".+++++++++++++++++++++++"};
