/* XPM */
static char *frameABL_xpm[] = {
"23 23 5 1",
"  c #000000",
". c #ffffff",
"+ c #888888",
"@ c #686868",
"# c None",
" .++@ #################",
" .++@ #################",
" .++@ #################",
" .++@ #################",
" .++@ #################",
" .++@ #################",
" .++@ #################",
" .++@ #################",
" .++@ #################",
" .++@ #################",
" .++@ #################",
" .++@ #################",
" .++@ #################",
" .++@ #################",
" .++@ #################",
" .++@ #################",
" .++@ #################",
" .++@                  ",
" .+++..................",
" .+++++++++++++++++++++",
" .+++++++++++++++++++++",
" +@@@@@@@@@@@@@@@@@@@@@",
"                       "};
