/* XPM */
static char *frameITL[]={
"23 23 4 1",
"a c None",
". c #b5b5b5",
"b c #c8c8c8",
"# c #c8c8c8",
".......................",
".######################",
".######################",
".######################",
".######################",
".######################",
".#####aaaaaaaaaaaaaaaaa",
".#####aaaaaaaaaaaaaaaaa",
".#####aaaaaaaaaaaaaaaaa",
".#####aaaaaaaaaaaaaaaaa",
".#####aaaaaaaaaaaaaaaaa",
".#####aaaaaaaaaaaaaaaaa",
".#####aaaaaaaaaaaaaaaaa",
".#####aaaaaaaaaaaaaaaaa",
".#####aaaaaaaaaaaaaaaaa",
".#####aaaaaaaaaaaaaaaaa",
".#####aaaaaaaaaaaaaaaaa",
".#####aaaaaaaaaaaaaaaaa",
".#####aaaaaaaaaaaaaaaaa",
".#####aaaaaaaaaaaaaaaaa",
".#####aaaaaaaaaaaaaaaaa",
".#####aaaaaaaaaaaaaaaaa",
".b####aaaaaaaaaaaaaaaaa"};
