/* XPM */
static char *rolldownA_xpm[] = {
"21 44 5 1",
". c #B6B6B6",
"+ c #00ee33",
"@ c #616161",
"# c #ffffff",
"$ c #000000",
".....................",
".+++++++++++++++++++@",
".+++++++++++++++++++@",
".+++++++++++++++++++@",
".+++++++++++++++++++@",
".+++++++++++++++++++@",
".+++++++++++++++++++@",
".++++++#########++++@",
".++++++#+#+#+#+#++++@",
".++++++++++#++++++++@",
".+++++++++###+++++++@",
".++++++++#####++++++@",
".+++++++###+###+++++@",
".++++++###+++###++++@",
".++++++##+++++##++++@",
".+++++++++++++++++++@",
".+++++++++++++++++++@",
".+++++++++++++++++++@",
".+++++++++++++++++++@",
".+++++++++++++++++++@",
"@@@@@@@@@@@@@@@@@@@@@",
"$$$$$$$$$$$$$$$$$$$$$",
"@@@@@@@@@@@@@@@@@@@@@",
"@+++++++++++++++++++.",
"@+++++++++++++++++++.",
"@+++++++++++++++++++.",
"@+++++++++++++++++++.",
"@+++++++++++++++++++.",
"@+++++++++++++++++++.",
"@++++++#########++++.",
"@++++++#+#+#+#+#++++.",
"@++++++++++#++++++++.",
"@+++++++++###+++++++.",
"@++++++++#####++++++.",
"@+++++++###+###+++++.",
"@++++++###+++###++++.",
"@++++++##+++++##++++.",
"@+++++++++++++++++++.",
"@+++++++++++++++++++.",
"@+++++++++++++++++++.",
"@+++++++++++++++++++.",
"@+++++++++++++++++++.",
".....................",
"$$$$$$$$$$$$$$$$$$$$$"};
