/* XPM */
static char *closeA_xpm[] = {
"23 46 5 1",
". c #e0e0e0",
"+ c #000000",
"@ c #898989",
"# c #ffffff",
"$ c #d3d3d3",
".......................",
"++++++++++++++++++++++@",
"++++++++++++++++++++++@",
"++++##############@+++@",
"++++#$$$$$$$$$$$$$@+++@",
"++++#$++$$$$$$$++$@+++@",
"++++#$$++$$$$$++$$@+++@",
"++++#$$$++$$$++$$$@+++@",
"++++#$$$$++$++$$$$@+++@",
"++++#$$$$$+++$$$$$@+++@",
"++++#$$$$$$+$$$$$$@+++@",
"++++#$$$$$+++$$$$$@+++@",
"++++#$$$$++$++$$$$@+++@",
"++++#$$$++$$$++$$$@+++@",
"++++#$$++$$$$$++$$@+++@",
"++++#$++$$$$$$$++$@+++@",
"++++#$$$$$$$$$$$$$@+++@",
"++++$@@@@@@@@@@@@@@+++@",
"++++++++++++++++++++++@",
"++++++++++++++++++++++@",
"++++++++++++++++++++++@",
"@@@@@@@@@@@@@@@@@@@@@@@",
"+++++++++++++++++++++++",
".......................",
"++++++++++++++++++++++@",
"++++++++++++++++++++++@",
"++++@@@@@@@@@@@@@@#+++@",
"++++@$$$$$$$$$$$$$#+++@",
"++++@$$$$$$$$$$$$$#+++@",
"++++@$$++$$$$$$++$#+++@",
"++++@$$$++$$$$++$$#+++@",
"++++@$$$$++$$++$$$#+++@",
"++++@$$$$$++++$$$$#+++@",
"++++@$$$$$$++$$$$$#+++@",
"++++@$$$$$$++$$$$$#+++@",
"++++@$$$$$++++$$$$#+++@",
"++++@$$$$++$$++$$$#+++@",
"++++@$$$++$$$$++$$#+++@",
"++++@$$++$$$$$$++$#+++@",
"++++@$$$$$$$$$$$$$#+++@",
"++++$##############+++@",
"++++++++++++++++++++++@",
"++++++++++++++++++++++@",
"++++++++++++++++++++++@",
"@@@@@@@@@@@@@@@@@@@@@@@",
"+++++++++++++++++++++++"};
