/* XPM */
static char *frameATL[]={
"23 23 4 1",
"b c None",
". c #4f4f4f",
"a c #dbdbdb",
"# c #e0e0e0",
".......................",
".######################",
".#aaaaaaaaaaaaaaaaaaaaa",
".#aaaaaaaaaaaaaaaaaaaaa",
".#aaaaaaaaaaaaaaaaaaaaa",
".#aaaaaaaaaaaaaaaaaaaaa",
".#aaaabbbbbbbbbbbbbbbbb",
".#aaaabbbbbbbbbbbbbbbbb",
".#aaaabbbbbbbbbbbbbbbbb",
".#aaaabbbbbbbbbbbbbbbbb",
".#aaaabbbbbbbbbbbbbbbbb",
".#aaaabbbbbbbbbbbbbbbbb",
".#aaaabbbbbbbbbbbbbbbbb",
".#aaaabbbbbbbbbbbbbbbbb",
".#aaaabbbbbbbbbbbbbbbbb",
".#aaaabbbbbbbbbbbbbbbbb",
".#aaaabbbbbbbbbbbbbbbbb",
".#aaaabbbbbbbbbbbbbbbbb",
".#aaaabbbbbbbbbbbbbbbbb",
".#aaaabbbbbbbbbbbbbbbbb",
".#aaaabbbbbbbbbbbbbbbbb",
".#aaaabbbbbbbbbbbbbbbbb",
".#aaaabbbbbbbbbbbbbbbbb"};
