/* XPM */
static char *frameITR[]={
"23 23 3 1",
"a c None",
". c #a2a2a2",
"# c #dddddd",
".......................",
"######################.",
"######################.",
"######################.",
"######################.",
"######################.",
"aaaaaaaaaaaaaaaaa#####.",
"aaaaaaaaaaaaaaaaa#####.",
"aaaaaaaaaaaaaaaaa#####.",
"aaaaaaaaaaaaaaaaa#####.",
"aaaaaaaaaaaaaaaaa#####.",
"aaaaaaaaaaaaaaaaa#####.",
"aaaaaaaaaaaaaaaaa#####.",
"aaaaaaaaaaaaaaaaa#####.",
"aaaaaaaaaaaaaaaaa#####.",
"aaaaaaaaaaaaaaaaa#####.",
"aaaaaaaaaaaaaaaaa#####.",
"aaaaaaaaaaaaaaaaa#####.",
"aaaaaaaaaaaaaaaaa#####.",
"aaaaaaaaaaaaaaaaa#####.",
"aaaaaaaaaaaaaaaaa#####.",
"aaaaaaaaaaaaaaaaa#####.",
"aaaaaaaaaaaaaaaaa#####."};
