/* XPM */
static char *maximizeI_xpm[] = {
"23 46 5 1",
". c #e0e0e0",
"+ c #d3d3d3",
"@ c #ffffff",
"# c #898989",
"$ c #000000",
".......................",
".++++++++++++++++++++++",
".++++++++++++++++++++++",
".++@@@@@@@@@@@@@@#$++++",
".++@+++++++++++++#$++++",
".++@+$$$$$$$$$$$+#$++++",
".++@+$$$$$$$$$$$+#$++++",
".++@+$$$$$$$$$$$+#$++++",
".++@+$+++++++++$+#$++++",
".++@+$+++++++++$+#$++++",
".++@+$+++++++++$+#$++++",
".++@+$+++++++++$+#$++++",
".++@+$+++++++++$+#$++++",
".++@+$+++++++++$+#$++++",
".++@+$+++++++++$+#$++++",
".++@+$$$$$$$$$$$+#$++++",
".++@+++++++++++++#$++++",
".+++##############$++++",
".++$$$$$$$$$$$$$$$$++++",
".++++++++++++++++++++++",
".++++++++++++++++++++++",
"#######################",
"$$$$$$$$$$$$$$$$$$$$$$$",
".......................",
".++++++++++++++++++++++",
".++++++++++++++++++++++",
".++##############@$++++",
".++#+++++++++++++@$++++",
".++#+++++++++++++@$++++",
".++#++$$$$$$$$$$+@$++++",
".++#++$$$$$$$$$$+@$++++",
".++#++$$$$$$$$$$+@$++++",
".++#++$++++++++$+@$++++",
".++#++$++++++++$+@$++++",
".++#++$++++++++$+@$++++",
".++#++$++++++++$+@$++++",
".++#++$++++++++$+@$++++",
".++#++$++++++++$+@$++++",
".++#++$$$$$$$$$$+@$++++",
".++#+++++++++++++@$++++",
".+++@@@@@@@@@@@@@@$++++",
".++$$$$$$$$$$$$$$$$++++",
".++++++++++++++++++++++",
".++++++++++++++++++++++",
"#######################",
"$$$$$$$$$$$$$$$$$$$$$$$"};
