/* XPM */
static char *dframeITR_xpm[] = {
"23 23 3 1",
"  c #666666",
". c #eeeeee",
"+ c None",
"                       ",
"...................... ",
"...................... ",
"...................... ",
"...................... ",
"...................... ",
"+++++++++++++++++..... ",
"+++++++++++++++++..... ",
"+++++++++++++++++..... ",
"+++++++++++++++++..... ",
"+++++++++++++++++..... ",
"+++++++++++++++++..... ",
"+++++++++++++++++..... ",
"+++++++++++++++++..... ",
"+++++++++++++++++..... ",
"+++++++++++++++++..... ",
"+++++++++++++++++..... ",
"+++++++++++++++++..... ",
"+++++++++++++++++..... ",
"+++++++++++++++++..... ",
"+++++++++++++++++..... ",
"+++++++++++++++++..... ",
"+++++++++++++++++..... "};
