/* XPM */
static char * dframeIBR_xpm[] = {
"31 31 19 1",
" 	c #a7a4a9",
".	c #666268",
"+	c #ffffff",
"@	c #cac9cc",
"#	c #736f75",
"$	c #000000",
"%	c #3a383b",
"&	c #726e75",
"*	c #767279",
"=	c #575459",
"-	c #726e75",
";	c #eae9ea",
">	c #c0bec2",
",	c #6d6a70",
"'	c #f8f8f8",
")	c #efefef",
"!	c #f3f3f4",
"~	c #cfcdd0",
"{	c #3e3c3f",
"      .+@@@@@@@@@@@@@#$  %%%%%%",
"      .+@@@@@@@@@@@@@#$       %",
"      .+@@@@@@@@@@@@@#$  &&&&%%",
"      .+@@@@@@@@@@@@@#$  &&&&%%",
"      .+@@@@@@@@@@@@@#$  &&&&%%",
"      .+##############$  &&&&%%",
"      .$$$$$$$$$$$$$$$$  &&&&%%",
"      .+++++++++++++++$  &&&&%%",
"      .+@@@@@@@@@@@@@#$  &&&&%%",
"      .+@@@@@@@@@@@@@#$  &&&&%%",
"      .+@@@@@@@@@@@@@#$  &&&&%%",
"      .+@@@@@@@@@@@@@#$  &&&&%%",
"      .+@@@@@@@@@@@@@#$  &&&&%%",
"      .+@@*======*@@@#$  &&&&%%",
"      .+@@@--===*+;;@#$  &&&&%%",
"      .+@@@>>,=,')@@@#$  &&&&%%",
"      .+@@@@@>-)!@@@@#$  &&&&%%",
"      .+@@@@@@@!~@@@@#$  &&&&%%",
"      .+@@@@@@@@@@@@@#$  &&&&%%",
"      .+@@@@@@@@@@@@@#$  &&&&%%",
"      .+@@@@@@@@@@@@@#$  &&&&%%",
"      .+##############$  &&&&%%",
"      .$$$$$$$$$$$$$$$$  &&&&%%",
"                         &&&&%%",
"                         &&&&%%",
"{ &&&&&&&&&&&&&&&&&&&&&&&&&&&%%",
"{ &&&&&&&&&&&&&&&&&&&&&&&&&&&%%",
"% &&&&&&&&&&&&&&&&&&&&&&&&&&&%%",
"{ &&&&&&&&&&&&&&&&&&&&&&&&&&&%%",
"{ %%%%%%%%%%%%%%%%%%%%%%%%%%%%%",
"{%%%%%%%%%%%%%%%%%%%%%%%%%%%%%%"};
