/* XPM */
static char * dframeIBL_xpm[] = {
"31 31 4 1",
" 	c #767279",
".	c #2c2b2d",
"+	c #827e85",
"@	c #565359",
" ......++++++++++++++++++++++++",
"      .++++++++++++++++++++++++",
"  @@@@.++++++++++++++++++++++++",
"  @@@@.++++++++++++++++++++++++",
"  @@@@.++++++++++++++++++++++++",
"  @@@@.++++++++++++++++++++++++",
"  @@@@.++++++++++++++++++++++++",
"  @@@@.++++++++++++++++++++++++",
"  @@@@.++++++++++++++++++++++++",
"  @@@@.++++++++++++++++++++++++",
"  @@@@.++++++++++++++++++++++++",
"  @@@@.++++++++++++++++++++++++",
"  @@@@.++++++++++++++++++++++++",
"  @@@@.++++++++++++++++++++++++",
"  @@@@.++++++++++++++++++++++++",
"  @@@@.++++++++++++++++++++++++",
"  @@@@.++++++++++++++++++++++++",
"  @@@@.++++++++++++++++++++++++",
"  @@@@.++++++++++++++++++++++++",
"  @@@@.++++++++++++++++++++++++",
"  @@@@.++++++++++++++++++++++++",
"  @@@@.++++++++++++++++++++++++",
"  @@@@.++++++++++++++++++++++++",
"  @@@@.++++++++++++++++++++++++",
"  @@@@.                        ",
"  @@@@@@@@@@@@@@@@@@@@@@@@@@@. ",
"  @@@@@@@@@@@@@@@@@@@@@@@@@@@. ",
"  @@@@@@@@@@@@@@@@@@@@@@@@@@@. ",
"  @@@@@@@@@@@@@@@@@@@@@@@@@@@. ",
"  ............................ ",
" .............................."};
