/* XPM */
static char * dframeABR_xpm[] = {
"31 31 29 1",
" 	c #ccdfde",
".	c #55726f",
"+	c #ffffff",
"@	c #8ab6b2",
"#	c #60807d",
"$	c #000000",
"%	c #f2f7f6",
"&	c #9ac0bd",
"*	c #3c504e",
"=	c #719794",
"-	c #638481",
";	c #49615f",
">	c #87b4b0",
",	c #60807e",
"'	c #638481",
")	c #f9fbfb",
"!	c #d0e2e0",
"~	c #85b2ae",
"{	c #5a7775",
"]	c #5b7a77",
"^	c #eff5f5",
"/	c #dce9e8",
"(	c #83afab",
"_	c #60807d",
":	c #dce9e8",
"<	c #e5efee",
"[	c #8eb8b4",
"}	c #94bcb8",
"|	c #dfebea",
"      .+@@@@@@@@@@@@@#$%&******",
"      .+@@@@@@@@@@@@@#$%&&&&&&*",
"      .+@@@@@@@@@@@@@#$%&====**",
"      .+@@@@@@@@@@@@@#$%&====**",
"      .+@@@@@@@@@@@@@#$%&====**",
"      .+##############$%&====**",
"      .$$$$$$$$$$$$$$$$%&====**",
"      .+++++++++++++++$%&====**",
"      .+@@@@@@@@@@@@@#$%&====**",
"      .+@@@@@@@@@@@@@#$%&====**",
"      .+@@@@@@@@@@@@@#$%&====**",
"      .+@@@@@@@@@@@@@#$%&====**",
"      .+@@@@@@@@@@@@@#$%&====**",
"      .+@@-;;;;;;-@@@#$%&====**",
"      .+@@>,,;;;')!!@#$%&====**",
"      .+@@@~~{;]^/@@@#$%&====**",
"      .+@@@@@(_:<[@@@#$%&====**",
"      .+@@@@@@}|}@@@@#$%&====**",
"      .+@@@@@@@@@@@@@#$%&====**",
"      .+@@@@@@@@@@@@@#$%&====**",
"      .+@@@@@@@@@@@@@#$%&====**",
"      .+##############$%&====**",
"      .$$$$$$$$$$$$$$$$%&====**",
"      %%%%%%%%%%%%%%%%%%&====**",
"&&&&&&&&&&&&&&&&&&&&&&&&&====**",
"*&===========================**",
"*&===========================**",
"*&===========================**",
"*&===========================**",
"*&*****************************",
"*******************************"};
