/* XPM */
static char * buttonI_xpm[] = {
"76 22 5 1",
" 	c #ffffff",
".	c #000000",
"+	c #76a99c",
"@	c #b8d2cc",
"#	c #4e7067",
"                                                                          .+",
" @@@@@@@@@@@@@@@@@@@@@@@@@@@@@@@@@@@@@@@@@@@@@@@@@@@@@@@@@@@@@@@@@@@@@@@@#.+",
" @+++++++++++++++++++++++++++++++++++++++++++++++++++++++++++++++++++++++#.+",
" @+++++++++++++++++++++++++++++++++++++++++++++++++++++++++++++++++++++++#.+",
" @+++++++++++++++++++++++++++++++++++++++++++++++++++++++++++++++++++++++#.+",
" @+++++++++++++++++++++++++++++++++++++++++++++++++++++++++++++++++++++++#.+",
" @+++++++++++++++++++++++++++++++++++++++++++++++++++++++++++++++++++++++#.+",
" @+++++++++++++++++++++++++++++++++++++++++++++++++++++++++++++++++++++++#.+",
" @+++++++++++++++++++++++++++++++++++++++++++++++++++++++++++++++++++++++#.+",
" @+++++++++++++++++++++++++++++++++++++++++++++++++++++++++++++++++++++++#.+",
" @+++++++++++++++++++++++++++++++++++++++++++++++++++++++++++++++++++++++#.+",
" @+++++++++++++++++++++++++++++++++++++++++++++++++++++++++++++++++++++++#.+",
" @+++++++++++++++++++++++++++++++++++++++++++++++++++++++++++++++++++++++#.+",
" @+++++++++++++++++++++++++++++++++++++++++++++++++++++++++++++++++++++++#.+",
" @+++++++++++++++++++++++++++++++++++++++++++++++++++++++++++++++++++++++#.+",
" @+++++++++++++++++++++++++++++++++++++++++++++++++++++++++++++++++++++++#.+",
" @+++++++++++++++++++++++++++++++++++++++++++++++++++++++++++++++++++++++#.+",
" @+++++++++++++++++++++++++++++++++++++++++++++++++++++++++++++++++++++++#.+",
" @+++++++++++++++++++++++++++++++++++++++++++++++++++++++++++++++++++++++#.+",
" #########################################################################.+",
"...........................................................................+",
"++++++++++++++++++++++++++++++++++++++++++++++++++++++++++++++++++++++++++++"};
