/* XPM */
static char *titleIR_xpm[] = {
"22 22 3 1",
". c #B6B6B6",
"+ c #000000",
"@ c #616161",
".....................+",
"++++++++++++++++++++@+",
"++++++++++++++++++++@+",
"++++++++++++++++++++@+",
"++++++++++++++++++++@+",
"++++++++++++++++++++@+",
"++++++++++++++++++++@+",
"++++++++++++++++++++@+",
"++++++++++++++++++++@+",
"++++++++++++++++++++@+",
"++++++++++++++++++++@+",
"++++++++++++++++++++@+",
"++++++++++++++++++++@+",
"++++++++++++++++++++@+",
"++++++++++++++++++++@+",
"++++++++++++++++++++@+",
"++++++++++++++++++++@+",
"++++++++++++++++++++@+",
"++++++++++++++++++++@+",
"++++++++++++++++++++@+",
"@@@@@@@@@@@@@@@@@@@@@+",
"++++++++++++++++++++++"};
