/* XPM */
static char * dframeABR_xpm[] = {
"31 31 29 1",
" 	c #e0babc",
".	c #733a3d",
"+	c #ffffff",
"@	c #b86065",
"#	c #814145",
"$	c #000000",
"%	c #f7edee",
"&	c #c2767a",
"*	c #51292b",
"=	c #994d51",
"-	c #854347",
";	c #623234",
">	c #b65c61",
",	c #824245",
"'	c #854347",
")	c #fbf6f7",
"!	c #e2bfc1",
"~	c #b35b60",
"{	c #793d40",
"]	c #7b3e42",
"^	c #f5eaea",
"/	c #e9cfd0",
"(	c #b1595e",
"_	c #814145",
":	c #ead0d1",
"<	c #efdcdd",
"[	c #ba656a",
"}	c #be6d72",
"|	c #ebd3d4",
"      .+@@@@@@@@@@@@@#$%&******",
"      .+@@@@@@@@@@@@@#$%&&&&&&*",
"      .+@@@@@@@@@@@@@#$%&====**",
"      .+@@@@@@@@@@@@@#$%&====**",
"      .+@@@@@@@@@@@@@#$%&====**",
"      .+##############$%&====**",
"      .$$$$$$$$$$$$$$$$%&====**",
"      .+++++++++++++++$%&====**",
"      .+@@@@@@@@@@@@@#$%&====**",
"      .+@@@@@@@@@@@@@#$%&====**",
"      .+@@@@@@@@@@@@@#$%&====**",
"      .+@@@@@@@@@@@@@#$%&====**",
"      .+@@@@@@@@@@@@@#$%&====**",
"      .+@@-;;;;;;-@@@#$%&====**",
"      .+@@>,,;;;')!!@#$%&====**",
"      .+@@@~~{;]^/@@@#$%&====**",
"      .+@@@@@(_:<[@@@#$%&====**",
"      .+@@@@@@}|}@@@@#$%&====**",
"      .+@@@@@@@@@@@@@#$%&====**",
"      .+@@@@@@@@@@@@@#$%&====**",
"      .+@@@@@@@@@@@@@#$%&====**",
"      .+##############$%&====**",
"      .$$$$$$$$$$$$$$$$%&====**",
"      %%%%%%%%%%%%%%%%%%&====**",
"&&&&&&&&&&&&&&&&&&&&&&&&&====**",
"*&===========================**",
"*&===========================**",
"*&===========================**",
"*&===========================**",
"*&*****************************",
"*******************************"};
