/* XPM */
static char * dframeABL_xpm[] = {
"27 27 4 1",
" 	c #b65c61",
".	c #4f282a",
"+	c #daadb0",
"@	c #954b4f",
" .....+++++++++++++++++++++",
"     .+++++++++++++++++++++",
"  @@@.+++++++++++++++++++++",
"  @@@.+++++++++++++++++++++",
"  @@@.+++++++++++++++++++++",
"  @@@.+++++++++++++++++++++",
"  @@@.+++++++++++++++++++++",
"  @@@.+++++++++++++++++++++",
"  @@@.+++++++++++++++++++++",
"  @@@.+++++++++++++++++++++",
"  @@@.+++++++++++++++++++++",
"  @@@.+++++++++++++++++++++",
"  @@@.+++++++++++++++++++++",
"  @@@.+++++++++++++++++++++",
"  @@@.+++++++++++++++++++++",
"  @@@.+++++++++++++++++++++",
"  @@@.+++++++++++++++++++++",
"  @@@.+++++++++++++++++++++",
"  @@@.+++++++++++++++++++++",
"  @@@.+++++++++++++++++++++",
"  @@@.+++++++++++++++++++++",
"  @@@.                     ",
"  @@@@@@@@@@@@@@@@@@@@@@@. ",
"  @@@@@@@@@@@@@@@@@@@@@@@. ",
"  @@@@@@@@@@@@@@@@@@@@@@@. ",
"  ........................ ",
" .........................."};
