/* XPM */
static char * restoreA_xpm[] = {
"24 48 3 1",
" 	c #dfb8ba",
".	c #603133",
"+	c #b65c61",
"                       .",
" ++++++++++++++++++++++.",
" ++++++++++++++++++++++.",
" ++++++++++++++++++++++.",
" ++++++++++++++++++++++.",
" ++++++++++++++++++++++.",
" +++++.............++++.",
" +++++.+++++++++++ ++++.",
" +++++.+++++++++++ ++++.",
" +++++.+++++++++++ ++++.",
" +++++.+++++++++++ ++++.",
" +++++.+++++++++++ ++++.",
" +++++.+++++++++++ ++++.",
" +++++.+++++++++++ ++++.",
" +++++.+++++++++++ ++++.",
" +++++.+++++++++++ ++++.",
" +++++.+++++++++++ ++++.",
" +++++.+++++++++++ ++++.",
" +++++             ++++.",
" ++++++++++++++++++++++.",
" ++++++++++++++++++++++.",
" ++++++++++++++++++++++.",
" ++++++++++++++++++++++.",
" .......................",
"....................... ",
".++++++++++++++++++++++ ",
".++++++++++++++++++++++ ",
".++++++++++++++++++++++ ",
".++++++++++++++++++++++ ",
".++++++++++++++++++++++ ",
".+++++.............++++ ",
".+++++.+++++++++++ ++++ ",
".+++++.+++++++++++ ++++ ",
".+++++.+++++++++++ ++++ ",
".+++++.+++++++++++ ++++ ",
".+++++.+++++++++++ ++++ ",
".+++++.+++++++++++ ++++ ",
".+++++.+++++++++++ ++++ ",
".+++++.+++++++++++ ++++ ",
".+++++.+++++++++++ ++++ ",
".+++++.+++++++++++ ++++ ",
".+++++.+++++++++++ ++++ ",
".+++++             ++++ ",
".++++++++++++++++++++++ ",
".++++++++++++++++++++++ ",
".++++++++++++++++++++++ ",
".++++++++++++++++++++++ ",
".                       "};
