/* XPM */
static char * taskbuttonbg_xpm[] = {
"59 28 5 1",
" 	c #F1F1F1",
".	c #DDDDDD",
"+	c #000000",
"@	c #DDDDDD",
"#	c #858585",
"                                                           ",
"...........................................................",
"...........................................................",
"..                                                       +.",
".. @@@@@@@@@@@@@@@@@@@@@@@@@@@@@@@@@@@@@@@@@@@@@@@@@@@@@#+.",
".. @....................................................#+.",
".. @....................................................#+.",
".. @....................................................#+.",
".. @....................................................#+.",
".. @....................................................#+.",
".. @....................................................#+.",
".. @....................................................#+.",
".. @....................................................#+.",
".. @....................................................#+.",
".. @....................................................#+.",
".. @....................................................#+.",
".. @....................................................#+.",
".. @....................................................#+.",
".. @....................................................#+.",
".. @....................................................#+.",
".. @....................................................#+.",
".. @....................................................#+.",
".. @....................................................#+.",
".. ######################################################+.",
"..++++++++++++++++++++++++++++++++++++++++++++++++++++++++.",
"...........................................................",
"...........................................................",
"..........................................................."};
