/* XPM */
static char *maximizeI_xpm[] = {
"22 44 4 1",
". c #B6B6B6",
"+ c #000000",
"@ c #aeaaae",
"# c #616161",
".....................+",
".@@@@@@@@@@@@@@@@@@@#+",
".@@@@@@@@@@@@@@@@@@@#+",
".@@@@@@@@@@@@@@@@@@@#+",
".@@@@@@@@@@@@@@@@@@@#+",
".@@@@@@@@@@@@@@@@@@@#+",
".@@@@@@@@@@@@@@@@@@@#+",
".@@@@@@@@@+@@@@@@@@@#+",
".@@@@@@@@+++@@@@@@@@#+",
".@@@@@@@+++++@@@@@@@#+",
".@@@@@@+++@+++@@@@@@#+",
".@@@@@+++@@@+++@@@@@#+",
".@@@@@++@@@@@++@@@@@#+",
".@@@@@@@@@@@@@@@@@@@#+",
".@@@@@@@@@@@@@@@@@@@#+",
".@@@@@@@@@@@@@@@@@@@#+",
".@@@@@@@@@@@@@@@@@@@#+",
".@@@@@@@@@@@@@@@@@@@#+",
".@@@@@@@@@@@@@@@@@@@#+",
".@@@@@@@@@@@@@@@@@@@#+",
"#####################+",
"++++++++++++++++++++++",
"#####################+",
"#@@@@@@@@@@@@@@@@@@@.+",
"#@@@@@@@@@@@@@@@@@@@.+",
"#@@@@@@@@@@@@@@@@@@@.+",
"#@@@@@@@@@@@@@@@@@@@.+",
"#@@@@@@@@@@@@@@@@@@@.+",
"#@@@@@@@@@@@@@@@@@@@.+",
"#@@@@@@@@@@@@@@@@@@@.+",
"#@@@@@@@@@@+@@@@@@@@.+",
"#@@@@@@@@@+++@@@@@@@.+",
"#@@@@@@@@+++++@@@@@@.+",
"#@@@@@@@+++@+++@@@@@.+",
"#@@@@@@+++@@@+++@@@@.+",
"#@@@@@@++@@@@@++@@@@.+",
"#@@@@@@@@@@@@@@@@@@@.+",
"#@@@@@@@@@@@@@@@@@@@.+",
"#@@@@@@@@@@@@@@@@@@@.+",
"#@@@@@@@@@@@@@@@@@@@.+",
"#@@@@@@@@@@@@@@@@@@@.+",
"#@@@@@@@@@@@@@@@@@@@.+",
".....................+",
"++++++++++++++++++++++"};
