/* XPM */
static char *closeA_xpm[] = {
"23 46 5 1",
". c #b3b4c2",
"+ c #000000",
"@ c #5f606d",
"# c #ffffff",
"$ c #9294a8",
".......................",
"++++++++++++++++++++++@",
"++++++++++++++++++++++@",
"++++##############@+++@",
"++++#$$$$$$$$$$$$$@+++@",
"++++#$++$$$$$$$++$@+++@",
"++++#$$++$$$$$++$$@+++@",
"++++#$$$++$$$++$$$@+++@",
"++++#$$$$++$++$$$$@+++@",
"++++#$$$$$+++$$$$$@+++@",
"++++#$$$$$$+$$$$$$@+++@",
"++++#$$$$$+++$$$$$@+++@",
"++++#$$$$++$++$$$$@+++@",
"++++#$$$++$$$++$$$@+++@",
"++++#$$++$$$$$++$$@+++@",
"++++#$++$$$$$$$++$@+++@",
"++++#$$$$$$$$$$$$$@+++@",
"++++$@@@@@@@@@@@@@@+++@",
"++++++++++++++++++++++@",
"++++++++++++++++++++++@",
"++++++++++++++++++++++@",
"@@@@@@@@@@@@@@@@@@@@@@@",
"+++++++++++++++++++++++",
".......................",
"++++++++++++++++++++++@",
"++++++++++++++++++++++@",
"++++@@@@@@@@@@@@@@#+++@",
"++++@$$$$$$$$$$$$$#+++@",
"++++@$$$$$$$$$$$$$#+++@",
"++++@$$++$$$$$$++$#+++@",
"++++@$$$++$$$$++$$#+++@",
"++++@$$$$++$$++$$$#+++@",
"++++@$$$$$++++$$$$#+++@",
"++++@$$$$$$++$$$$$#+++@",
"++++@$$$$$$++$$$$$#+++@",
"++++@$$$$$++++$$$$#+++@",
"++++@$$$$++$$++$$$#+++@",
"++++@$$$++$$$$++$$#+++@",
"++++@$$++$$$$$$++$#+++@",
"++++@$$$$$$$$$$$$$#+++@",
"++++$##############+++@",
"++++++++++++++++++++++@",
"++++++++++++++++++++++@",
"++++++++++++++++++++++@",
"@@@@@@@@@@@@@@@@@@@@@@@",
"+++++++++++++++++++++++"};
