/* XPM */
static char *maximizeA_xpm[] = {
"23 46 5 1",
". c #b3b4c2",
"+ c #5c5c7f",
"@ c #5f606d",
"# c #000000",
"$ c #9294a8",
".......................",
".++++++++++++++++++++++",
".++++++++++++++++++++++",
".++..............@#++++",
".++.$$$$$$$$$$$$$@#++++",
".++.$###########$@#++++",
".++.$###########$@#++++",
".++.$###########$@#++++",
".++.$#$$$$$$$$$#$@#++++",
".++.$#$$$$$$$$$#$@#++++",
".++.$#$$$$$$$$$#$@#++++",
".++.$#$$$$$$$$$#$@#++++",
".++.$#$$$$$$$$$#$@#++++",
".++.$#$$$$$$$$$#$@#++++",
".++.$#$$$$$$$$$#$@#++++",
".++.$###########$@#++++",
".++.$$$$$$$$$$$$$@#++++",
".++$@@@@@@@@@@@@@@#++++",
".++################++++",
".++++++++++++++++++++++",
".++++++++++++++++++++++",
"@@@@@@@@@@@@@@@@@@@@@@@",
"#######################",
".......................",
".++++++++++++++++++++++",
".++++++++++++++++++++++",
".++@@@@@@@@@@@@@@.#++++",
".++@$$$$$$$$$$$$$.#++++",
".++@$$$$$$$$$$$$$.#++++",
".++@$$##########$.#++++",
".++@$$##########$.#++++",
".++@$$##########$.#++++",
".++@$$#$$$$$$$$#$.#++++",
".++@$$#$$$$$$$$#$.#++++",
".++@$$#$$$$$$$$#$.#++++",
".++@$$#$$$$$$$$#$.#++++",
".++@$$#$$$$$$$$#$.#++++",
".++@$$#$$$$$$$$#$.#++++",
".++@$$##########$.#++++",
".++@$$$$$$$$$$$$$.#++++",
".++$..............#++++",
".++################++++",
".++++++++++++++++++++++",
".++++++++++++++++++++++",
"@@@@@@@@@@@@@@@@@@@@@@@",
"#######################"};
