/* XPM */
static char *button[] = {
"16 38 2 1",
"h c #000000",
"# c #ffffff",
"hhhhhhhhhhhhhhhh",
"hhhhhhhhhhhhhhhh",
"hhhhhhhhhhhhhhhh",
"hhhhhhhhhhhhhhhh",
"hhhhhhhhhhhhhhhh",
"hhhh########hhhh",
"hhhhhhhhhhhhhhhh",
"hhhhhhhhhhhhhhhh",
"hhhh########hhhh",
"hhhhhhhhhhhhhhhh",
"hhhhhhhhhhhhhhhh",
"hhhh########hhhh",
"hhhhhhhhhhhhhhhh",
"hhhhhhhhhhhhhhhh",
"hhhhhhhhhhhhhhhh",
"hhhhhhhhhhhhhhhh",
"hhhhhhhhhhhhhhhh",
"hhhhhhhhhhhhhhhh",
"hhhhhhhhhhhhhhhh",
"hhhhhhhhhhhhhhhh",
"hhhhhhhhhhhhhhhh",
"hhhhhhhhhhhhhhhh",
"hhhhhhhhhhhhhhhh",
"hhhhhhhhhhhhhhhh",
"hhhhhhhhhhhhhhhh",
"hhhhh########hhh",
"hhhhhhhhhhhhhhhh",
"hhhhhhhhhhhhhhhh",
"hhhhh########hhh",
"hhhhhhhhhhhhhhhh",
"hhhhhhhhhhhhhhhh",
"hhhhh########hhh",
"hhhhhhhhhhhhhhhh",
"hhhhhhhhhhhhhhhh",
"hhhhhhhhhhhhhhhh",
"hhhhhhhhhhhhhhhh",
"hhhhhhhhhhhhhhhh",
"hhhhhhhhhhhhhhhh"};
