/* XPM */
static char * workspacebuttonbg_xpm[] = {
"91 37 3 1",
" 	c #63635d",
".	c #e4e4e0",
"+	c #c3c3b9",
" ..........................................................................................",
" ........................................................................................ .",
" ..+++++++++++++++++++++++++++++++++++++++++++++++++++++++++++++++++++++++++++++++++++++  .",
" ..+++++++++++++++++++++++++++++++++++++++++++++++++++++++++++++++++++++++++++++++++++++  .",
" ..+++++++++++++++++++++++++++++++++++++++++++++++++++++++++++++++++++++++++++++++++++++  .",
" ..+++++++++++++++++++++++++++++++++++++++++++++++++++++++++++++++++++++++++++++++++++++  .",
" ..+++++++++++++++++++++++++++++++++++++++++++++++++++++++++++++++++++++++++++++++++++++  .",
" ..+++++++++++++++++++++++++++++++++++++++++++++++++++++++++++++++++++++++++++++++++++++  .",
" ..+++++++++++++++++++++++++++++++++++++++++++++++++++++++++++++++++++++++++++++++++++++  .",
" ..+++++++++++++++++++++++++++++++++++++++++++++++++++++++++++++++++++++++++++++++++++++  .",
" ..+++++++++++++++++++++++++++++++++++++++++++++++++++++++++++++++++++++++++++++++++++++  .",
" ..+++++++++++++++++++++++++++++++++++++++++++++++++++++++++++++++++++++++++++++++++++++  .",
" ..+++++++++++++++++++++++++++++++++++++++++++++++++++++++++++++++++++++++++++++++++++++  .",
" ..+++++++++++++++++++++++++++++++++++++++++++++++++++++++++++++++++++++++++++++++++++++  .",
" ..+++++++++++++++++++++++++++++++++++++++++++++++++++++++++++++++++++++++++++++++++++++  .",
" ..+++++++++++++++++++++++++++++++++++++++++++++++++++++++++++++++++++++++++++++++++++++  .",
" ..+++++++++++++++++++++++++++++++++++++++++++++++++++++++++++++++++++++++++++++++++++++  .",
" ..+++++++++++++++++++++++++++++++++++++++++++++++++++++++++++++++++++++++++++++++++++++  .",
" ..+++++++++++++++++++++++++++++++++++++++++++++++++++++++++++++++++++++++++++++++++++++  .",
" ..+++++++++++++++++++++++++++++++++++++++++++++++++++++++++++++++++++++++++++++++++++++  .",
" ..+++++++++++++++++++++++++++++++++++++++++++++++++++++++++++++++++++++++++++++++++++++  .",
" ..+++++++++++++++++++++++++++++++++++++++++++++++++++++++++++++++++++++++++++++++++++++  .",
" ..+++++++++++++++++++++++++++++++++++++++++++++++++++++++++++++++++++++++++++++++++++++  .",
" ..+++++++++++++++++++++++++++++++++++++++++++++++++++++++++++++++++++++++++++++++++++++  .",
" ..+++++++++++++++++++++++++++++++++++++++++++++++++++++++++++++++++++++++++++++++++++++  .",
" ..+++++++++++++++++++++++++++++++++++++++++++++++++++++++++++++++++++++++++++++++++++++  .",
" ..+++++++++++++++++++++++++++++++++++++++++++++++++++++++++++++++++++++++++++++++++++++  .",
" ..+++++++++++++++++++++++++++++++++++++++++++++++++++++++++++++++++++++++++++++++++++++  .",
" ..+++++++++++++++++++++++++++++++++++++++++++++++++++++++++++++++++++++++++++++++++++++  .",
" ..+++++++++++++++++++++++++++++++++++++++++++++++++++++++++++++++++++++++++++++++++++++  .",
" ..+++++++++++++++++++++++++++++++++++++++++++++++++++++++++++++++++++++++++++++++++++++  .",
" ..+++++++++++++++++++++++++++++++++++++++++++++++++++++++++++++++++++++++++++++++++++++  .",
" ..+++++++++++++++++++++++++++++++++++++++++++++++++++++++++++++++++++++++++++++++++++++  .",
" ..+++++++++++++++++++++++++++++++++++++++++++++++++++++++++++++++++++++++++++++++++++++  .",
" ..                                                                                       .",
" .                                                                                        .",
" .........................................................................................."};
