/* XPM */
static char * start_xpm[] = {
"55 22 6 1",
"! c None",
"# c #000000",
"$ c #FDE012",
"% c #F14729",
"& c #17AE65",
"' c #E1038C",
"!!!!!!!!!!!!!!!!!!!!!!!!!!!!!!!!!!!!!!!!!!!!!!!!!!!!!!!",
"!!!!!!!!!!!!!!!!!!!!!!!!!!!!!!!!!!!!!!!!!!!!!!!!!!!!!!!",
"!!!!!!!!!!#!!!!!!!!!!!!!!!!!!!!!!!!!!!!!!!!!!!!!!!!!!!!",
"!!!!!!!!!###!!!!!!!!!!!!!!!!!!!!!!!!!!!!!!!!!!!!!!!!!!!",
"!!!!!!!!#$$$#!!!!!!!!!##############################!!!",
"!!!!!!!#$$$$$#!!!!!!!!##############################!!!",
"!!!!!!#$$$$$$$#!!!!!!!##%###%###$$$###&###&##'''''##!!!",
"!!!!!#$$$$$$$$$#!!!!!!##%%##%##$###$###&#&#####'####!!!",
"!!!!#&&&&&#'''''#!!!!!##%#%#%##$$$$$####&######'####!!!",
"!!!!#&&&&&#'''''#!!!!!##%##%%##$#######&#&#####'####!!!",
"!!!!!#&&&&#''''#!!!!!!##%###%##$###$##&###&####'####!!!",
"!!!!!#&&&&#''''#!!!!!!##%###%###$$$####&#&#####'####!!!",
"!!!!!!#&&&#'''#!!!!!!!##%###%###########&######'####!!!",
"!!!!!!#&&&#'''#!!!!!!!##%###%##########&#&#####'####!!!",
"!!!!!!!#&&#''#!!!!!!!!##%###%#########&###&####'####!!!",
"!!!!!!!#&&#''#!!!!!!!!##############################!!!",
"!!!!!!!!#&#'#!!!!!!!!!##############################!!!",
"!!!!!!!!#&#'#!!!!!!!!!!!!!!!!!!!!!!!!!!!!!!!!!!!!!!!!!!",
"!!!!!!!!!###!!!!!!!!!!!!!!!!!!!!!!!!!!!!!!!!!!!!!!!!!!!",
"!!!!!!!!!!#!!!!!!!!!!!!!!!!!!!!!!!!!!!!!!!!!!!!!!!!!!!!",
"!!!!!!!!!!!!!!!!!!!!!!!!!!!!!!!!!!!!!!!!!!!!!!!!!!!!!!!",
"!!!!!!!!!!!!!!!!!!!!!!!!!!!!!!!!!!!!!!!!!!!!!!!!!!!!!!!"}
};
