/* XPM */
static char *dframeITR_xpm[] = {
"23 23 3 1",
"  c #898989",
". c #e0e0e0",
"+ c None",
"                       ",
"...................... ",
"...................... ",
"...................... ",
"...................... ",
"...................... ",
"+++++++++++++++++..... ",
"+++++++++++++++++..... ",
"+++++++++++++++++..... ",
"+++++++++++++++++..... ",
"+++++++++++++++++..... ",
"+++++++++++++++++..... ",
"+++++++++++++++++..... ",
"+++++++++++++++++..... ",
"+++++++++++++++++..... ",
"+++++++++++++++++..... ",
"+++++++++++++++++..... ",
"+++++++++++++++++..... ",
"+++++++++++++++++..... ",
"+++++++++++++++++..... ",
"+++++++++++++++++..... ",
"+++++++++++++++++..... ",
"+++++++++++++++++..... "};
