/* XPM */
static char *maximizeA_xpm[] = {
"23 46 6 1",
". c #797978",
"+ c #505050",
"@ c #2a2928",
"# c #000000",
"$ c #403f3e",
"% c #ffffff",
".......................",
".++++++++++++++++++++++",
".++++++++++++++++++++++",
".++..............@#++++",
".++.$$$$$$$$$$$$$@#++++",
".++.$%%%%%%%%%%%$@#++++",
".++.$%%%%%%%%%%%$@#++++",
".++.$%%%%%%%%%%%$@#++++",
".++.$%$$$$$$$$$%$@#++++",
".++.$%$$$$$$$$$%$@#++++",
".++.$%$$$$$$$$$%$@#++++",
".++.$%$$$$$$$$$%$@#++++",
".++.$%$$$$$$$$$%$@#++++",
".++.$%$$$$$$$$$%$@#++++",
".++.$%$$$$$$$$$%$@#++++",
".++.$%%%%%%%%%%%$@#++++",
".++.$$$$$$$$$$$$$@#++++",
".++$@@@@@@@@@@@@@@#++++",
".++################++++",
".++++++++++++++++++++++",
".++++++++++++++++++++++",
"@@@@@@@@@@@@@@@@@@@@@@@",
"#######################",
".......................",
".++++++++++++++++++++++",
".++++++++++++++++++++++",
".++@@@@@@@@@@@@@@.#++++",
".++@$$$$$$$$$$$$$.#++++",
".++@$$$$$$$$$$$$$.#++++",
".++@$$%%%%%%%%%%$.#++++",
".++@$$%%%%%%%%%%$.#++++",
".++@$$%%%%%%%%%%$.#++++",
".++@$$%$$$$$$$$%$.#++++",
".++@$$%$$$$$$$$%$.#++++",
".++@$$%$$$$$$$$%$.#++++",
".++@$$%$$$$$$$$%$.#++++",
".++@$$%$$$$$$$$%$.#++++",
".++@$$%$$$$$$$$%$.#++++",
".++@$$%%%%%%%%%%$.#++++",
".++@$$$$$$$$$$$$$.#++++",
".++$..............#++++",
".++################++++",
".++++++++++++++++++++++",
".++++++++++++++++++++++",
"@@@@@@@@@@@@@@@@@@@@@@@",
"#######################"};
