/* XPM */
static char *restoreA_xpm[] = {
"23 46 6 1",
". c #797978",
"+ c #505050",
"@ c #ffffff",
"# c #2a2928",
"$ c #000000",
"% c #403f3e",
".......................",
"+++++++++++++++++++++++",
"+++++++++++++++++++++++",
"+++@@@@@@@@@@@@@@#$++++",
"+++@%%%%%%%%%%%%%#$++++",
"+++@%%%%%%%%%%%%%#$++++",
"+++@%%%%%%%%%%%%%#$++++",
"+++@%%%%%%%%%%%%%#$++++",
"+++@%%%%%%%%%%%%%#$++++",
"+++@%%%%%%%%%%%%%#$++++",
"+++@%%%%%%%%%%%%%#$++++",
"+++@%%%%%%%%%%%%%#$++++",
"+++@%%%%%%%%%%%%%#$++++",
"+++@%%%%%%%%%%%%%#$++++",
"+++@%%%%%%%%%%%%%#$++++",
"+++@%%%%%%%%%%%%%#$++++",
"+++@%%%%%%%%%%%%%#$++++",
"+++%##############$++++",
"+++$$$$$$$$$$$$$$$$++++",
"+++++++++++++++++++++++",
"+++++++++++++++++++++++",
"#######################",
"$$$$$$$$$$$$$$$$$$$$$$$",
".......................",
"+++++++++++++++++++++++",
"+++++++++++++++++++++++",
"+++##############@$++++",
"+++#%%%%%%%%%%%%%@$++++",
"+++#%%%%%%%%%%%%%@$++++",
"+++#%%%%%%%%%%%%%@$++++",
"+++#%%%%%%%%%%%%%@$++++",
"+++#%%%%%%%%%%%%%@$++++",
"+++#%%%%%%%%%%%%%@$++++",
"+++#%%%%%%%%%%%%%@$++++",
"+++#%%%%%%%%%%%%%@$++++",
"+++#%%%%%%%%%%%%%@$++++",
"+++#%%%%%%%%%%%%%@$++++",
"+++#%%%%%%%%%%%%%@$++++",
"+++#%%%%%%%%%%%%%@$++++",
"+++#%%%%%%%%%%%%%@$++++",
"+++%@@@@@@@@@@@@@@$++++",
"+++$$$$$$$$$$$$$$$$++++",
"+++++++++++++++++++++++",
"+++++++++++++++++++++++",
"#######################",
"$$$$$$$$$$$$$$$$$$$$$$$"};
