/* XPM */
static char *restoreI_xpm[] = {
"23 46 5 1",
". c #797978",
"+ c #403f3e",
"@ c #ffffff",
"# c #2a2928",
"$ c #000000",
".......................",
"+++++++++++++++++++++++",
"+++++++++++++++++++++++",
"+++@@@@@@@@@@@@@@#$++++",
"+++@+++++++++++++#$++++",
"+++@+++++++++++++#$++++",
"+++@+++++++++++++#$++++",
"+++@+++++++++++++#$++++",
"+++@+++++++++++++#$++++",
"+++@+++++++++++++#$++++",
"+++@+++++++++++++#$++++",
"+++@+++++++++++++#$++++",
"+++@+++++++++++++#$++++",
"+++@+++++++++++++#$++++",
"+++@+++++++++++++#$++++",
"+++@+++++++++++++#$++++",
"+++@+++++++++++++#$++++",
"++++##############$++++",
"+++$$$$$$$$$$$$$$$$++++",
"+++++++++++++++++++++++",
"+++++++++++++++++++++++",
"#######################",
"$$$$$$$$$$$$$$$$$$$$$$$",
".......................",
"+++++++++++++++++++++++",
"+++++++++++++++++++++++",
"+++##############@$++++",
"+++#+++++++++++++@$++++",
"+++#+++++++++++++@$++++",
"+++#+++++++++++++@$++++",
"+++#+++++++++++++@$++++",
"+++#+++++++++++++@$++++",
"+++#+++++++++++++@$++++",
"+++#+++++++++++++@$++++",
"+++#+++++++++++++@$++++",
"+++#+++++++++++++@$++++",
"+++#+++++++++++++@$++++",
"+++#+++++++++++++@$++++",
"+++#+++++++++++++@$++++",
"+++#+++++++++++++@$++++",
"++++@@@@@@@@@@@@@@$++++",
"+++$$$$$$$$$$$$$$$$++++",
"+++++++++++++++++++++++",
"+++++++++++++++++++++++",
"#######################",
"$$$$$$$$$$$$$$$$$$$$$$$"};
