/* XPM */
static char *rolldownA_xpm[] = {
"23 46 5 1",
". c #797978",
"+ c #000000",
"@ c #ffffff",
"# c #2a2928",
"$ c #403f3e",
".......................",
"+++++++++++++++++++++++",
"+++++++++++++++++++++++",
"+++@@@@@@@@@@@@@@#+++++",
"+++@$$$$$$$$$$$$$#+++++",
"+++@$$$$$$$$$$$$$#+++++",
"+++@$$$$$$$$$$$$$#+++++",
"+++@$$$$$$$$$$$$$#+++++",
"+++@$$$$$$$$$$$$$#+++++",
"+++@$$$$$$$$$$$$$#+++++",
"+++@$$$$$$$$$$$$$#+++++",
"+++@$$$$$$$$$$$$$#+++++",
"+++@$$$$$$$$$$$$$#+++++",
"+++@$$$$$$$$$$$$$#+++++",
"+++@$$$$$$$$$$$$$#+++++",
"+++@$$$$$$$$$$$$$#+++++",
"+++@$$$$$$$$$$$$$#+++++",
"+++$##############+++++",
"+++++++++++++++++++++++",
"+++++++++++++++++++++++",
"+++++++++++++++++++++++",
"#######################",
"+++++++++++++++++++++++",
".......................",
"+++++++++++++++++++++++",
"+++++++++++++++++++++++",
"+++##############@+++++",
"+++#$$$$$$$$$$$$$@+++++",
"+++#$$$$$$$$$$$$$@+++++",
"+++#$$$$$$$$$$$$$@+++++",
"+++#$$$$$$$$$$$$$@+++++",
"+++#$$$$$$$$$$$$$@+++++",
"+++#$$$$$$$$$$$$$@+++++",
"+++#$$$$$$$$$$$$$@+++++",
"+++#$$$$$$$$$$$$$@+++++",
"+++#$$$$$$$$$$$$$@+++++",
"+++#$$$$$$$$$$$$$@+++++",
"+++#$$$$$$$$$$$$$@+++++",
"+++#$$$$$$$$$$$$$@+++++",
"+++#$$$$$$$$$$$$$@+++++",
"+++$@@@@@@@@@@@@@@+++++",
"+++++++++++++++++++++++",
"+++++++++++++++++++++++",
"+++++++++++++++++++++++",
"#######################",
"+++++++++++++++++++++++"};
