/* XPM */
static char * x_xpm[] = {
"16 48 13 1",
"a	c #606060",
"b	c #898989",
"c	c #999999",
"d	c #D9D9D9",
"e	c #EDC4AB",
"y	c #C69B84",
"f	c #835540",
"g	c #AC806A",
"h	c #A57963",
"i	c #B38770",
"j	c #C79C85",
"k	c #E0B69D",
"l	c #EFC6AD",
"cccccccccccccccc",
"eeeeeeeeeeeeeeee",
"yyjjjjjjjjjjjjjj",
"yyjjjjjjjjjjjjjj",
"yyffffffffffffjj",
"yylllllllllllljj",
"yylklkkkkjkjfljj",
"yyklkkkkjkjifljj",
"yylkkkkjkjjifljj",
"yykkkkjkjjjifljj",
"yykkkjkjjjiifljj",
"yykkjkjjjijifljj",
"yykjkjjjijiifljj",
"yyjkjjjijiigfljj",
"yykjjjijiiigfljj",
"yyjiiiiiigggfljj",
"yyfffffffffffljj",
"yylllllllllllljj",
"yyjjjjjjjjjjjjjj",
"yyjjjjjjjjjjjjjj",
"dddddddddddddddd",
"dddddddddddddddd",
"bbbbbbbbbbbbbbbb",
"aaaaaaaaaaaaaaaa",
"cccccccccccccccc",
"eeeeeeeeeeeeeeee",
"yyjjjjjjjjjjjjjj",
"yyjjjjjjjjjjjjjj",
"yyffffffffffffjj",
"yyhhhhhhhhhhhljj",
"yygggiiiiijjhljj",
"yygiiijijjjkhljj",
"yygiijijjjkjhljj",
"yyiijijjjkjkhljj",
"yyijijjjkjkkhljj",
"yyiijjjkjkkkhljj",
"yyijjjkjkkkkhljj",
"yyijjkjkkkklhljj",
"yyijjjkkkklkhljj",
"yyijjkkkklklhljj",
"yyhhhhhhhhhhhljj",
"yylllllllllllljj",
"yyjjjjjjjjjjjjjj",
"yyjjjjjjjjjjjjjj",
"dddddddddddddddd",
"dddddddddddddddd",
"bbbbbbbbbbbbbbbb",
"aaaaaaaaaaaaaaaa"};
