/* XPM */
static char * dframeATL_xpm[] = {
"24 27 9 1",
" 	c None",
".	c #000000",
"+	c #FFFF52",
"@	c #C69B84",
"#	c #B17C00",
"$	c #D8D8D8",
"%	c #A2A2A2",
"&	c #DEDEDE",
"*	c #C0C0C0",
"                        ",
"                        ",
"                        ",
"                        ",
"  ......................",
"  .+++++++++++++++++++++",
"  .+@@@@@@@@@@@@@@@@@@@@",
"  .+@@@@@@@@@@@@@@@@@@@@",
"  .+@@@@@@@@@@@@@@@@@@@@",
"  .+@@@@@@@@@@@@@@@@@@@@",
"  .+@@@@@@@@@@@@@@@@@@@@",
"  .+@@@@@@@@@@@@@@@@@@@@",
"  .+@@@@@@@@@@@@@@@@@@@@",
"  .+@@@@@@@@@@@@@@@@@@@@",
"  .+@@@@@@@@@@@@@@@@@@@@",
"  .+@@@@@@@@@@@@@@@@@@@@",
"  .+@@@@@@@@@@@@@@@@@@@@",
"  .+@@@@@@@@@@@@@@@@@@@@",
"  .+@@@@@@@@@@@@@@@@@@@@",
"  .+@@@@@@@@@@@@@@@@@@@@",
"  .+@@@@@@@@@@@@@@@@@@@@",
"  .+@@@@@@@@@@@@@@@@@@@@",
"  .+@@@@@@@@@@@@@@@@@@@@",
"  .+####################",
"  ......................",
"  .$%%%%%%%%%%%%%%%%%%%%",
"  .&$*******************"};
