/* XPM */
static char * x_xpm[] = {
"24 28 9 1",
" 	c None",
"a	c #606060",
"b	c #898989",
"c	c #999999",
"d	c #D9D9D9",
"e	c #FFFFFF",
"f	c #D8D8D8",
"T	c #3F6E7E",
"H	c #F8FCF8",
"                        ",
"                        ",
"                        ",
"                        ",
"  cccccccccccccccccccccc",
"  ceeeeeeeeeeeeeeeeeeeee",
"  ceffffffffffffffffffff",
"  ceffffffffffffffffffff",
"  ceffffffffffffffffffff",
"  ceffffffffffffffffffff",
"  ceffffffffffffffffffff",
"  ceffffffffffffffffffff",
"  ceffffffffffffffffffff",
"  ceffffffffffffffffffff",
"  ceffffffffffffffffffff",
"  ceffffffffffffffffffff",
"  ceffffffffffffffffffff",
"  ceffffffffffffffffffff",
"  ceffffffffffffffffffff",
"  ceffffffffffffffffffff",
"  ceffffffffffffffffffff",
"  ceffffffffffffffffffff",
"  ceffffffffffffffffffff",
"  ceffffffffffffffffffff",
"  Hddddddddddddddddddddd",
"  Hddddddddddddddddddddd",
"  Hbbbbbbbbbbbbbbbbbbbbb",
"  Haaaaaaaaaaaaaaaaaaaaa"};
