/* XPM */
static char *dummy[]={
"30 30 6 1",
". c None",
"a c #606060",
"# c #888888",
"c c #7D7D7D",
"d c #C3C3C3",
"b c #EBEBEB",
"..............................",
"..............................",
"..............................",
"..............................",
"..............................",
"#####.........................",
"abbbb.........................",
"acddd.........................",
"acddd.........................",
"acddd.........................",
"acddd.........................",
"acddd.........................",
"acddd.........................",
"acddd.........................",
"acddd.........................",
"acddd.........................",
"acddd.........................",
"acddd.........................",
"acddd.........................",
"acddd.........................",
"acddd.........................",
"acddd.........................",
"acddd.........................",
"acddd.........................",
"acddd.........................",
"acddd.........................",
"acddd.........................",
"acddd.........................",
"acddd.........................",
"a####........................."};
