/* XPM */
static char * frameITR_xpm[] = {
"70 27 9 1",
" 	c None",
".	c #000000",
"+	c #BDBDBD",
"@	c #919191",
"#	c #9C9C9C",
"$	c #4A4A4A",
"%	c #A2A2A2",
"&	c #C0C0C0",
"*	c #9A9A9A",
"                                                                      ",
"                                                                      ",
"                                                                      ",
"                                                                      ",
"                                                                      ",
"                                                                      ",
"                                                                      ",
"                                                                      ",
"                                                                      ",
"                                                                      ",
"                                                                      ",
"                                                                      ",
"                                                                      ",
"                                                                      ",
"                                                                      ",
"                                                                      ",
"                                                                      ",
"                                                                      ",
"                                                                      ",
"....................................................................  ",
"++++++++++++++++++++++++++++++++++++++++++++++++++++++++++++++++++@.  ",
"##################################################################$.  ",
"##################################################################$.  ",
"$$$$$$$$$$$$$$$$$$$$$$$$$$$$$$$$$$$$$$$$$$$$$$$$$$$$$$$$$$$$$$$$$$$.  ",
"....................................................................  ",
"%%%%%%%%%%%%%%%%%%%%%%%%%%%%%%%%%%%%%%%%%%%%%%%%%%%%%%%%%%%%%%%%%%%.  ",
"&&&&&&&&&&&&&&&&&&&&&&&&&&&&&&&&&&&&&&&&&&&&&&&&&&&&&&&&&&&&&&&&&&*.  "};
