/* XPM */
static char *dummy[]={
"30 30 6 1",
". c None",
"b c #606060",
"# c #888888",
"d c #7D7D7D",
"c c #C3C3C3",
"a c #EBEBEB",
"..............................",
"..............................",
"..............................",
"..............................",
"..............................",
".........................#####",
".........................aaaab",
".........................cccdb",
".........................cccdb",
".........................cccdb",
".........................cccdb",
".........................cccdb",
".........................cccdb",
".........................cccdb",
".........................cccdb",
".........................cccdb",
".........................cccdb",
".........................cccdb",
".........................cccdb",
".........................cccdb",
".........................cccdb",
".........................cccdb",
".........................cccdb",
".........................cccdb",
".........................cccdb",
".........................cccdb",
".........................cccdb",
".........................cccdb",
".........................cccdb",
".........................####b"};
