/* XPM */
static char * x_xpm[] = {
"16 48 10 1",
"a	c #606060",
"b	c #898989",
"c	c #989898",
"d	c #999999",
"e	c #D9D9D9",
"f	c #FFFFFF",
"g	c #c8c8c8",
"h	c #d8d8d8",
"i	c #ffffff",
"K	c #000000",
"dddddddddddddddd",
"ffffffffffffffff",
"hhhhhhhhhhhhhhhh",
"hhhhhhhhhhhhhhhh",
"ccccccccchhhhhhh",
"ciiiiiiiihhhhhhh",
"ciiiihhcihhhhhhh",
"ciiihihciccccchh",
"ciihihgciiiiiihh",
"cihihhgciiiicihh",
"cihhgggciiigcihh",
"cicccccciihgcihh",
"ciiiiiiiihigcihh",
"hhhciiiihihgcihh",
"hhhciiihihhgcihh",
"hhhcihggggggcihh",
"hhhciccccccccihh",
"hhhciiiiiiiiiihh",
"hhhhhhhhhhhhhhhh",
"hhhhhhhhhhhhhhhh",
"eeeeeeeeeeeeeeee",
"eeeeeeeeeeeeeeee",
"bbbbbbbbbbbbbbbb",
"aaaaaaaaaaaaaaaa",
"dddddddddddddddd",
"ffffffffffffffff",
"hhhhhhhhhhhhhhhh",
"hhhhhhhhhhhhhhhh",
"ccccccccchhhhhhh",
"ciiiiiiiihhhhhhh",
"ciiiihhcihhhhhhh",
"ciiihihciccccchh",
"ciihihgciiiiiihh",
"cihihhgciiiicihh",
"cihhgggciiigcihh",
"cicccccciihgcihh",
"ciiiiiiiihigcihh",
"hhhciiiihihgcihh",
"hhhciiihihhgcihh",
"hhhcihggggggcihh",
"hhhciccccccccihh",
"hhhciiiiiiiiiihh",
"hhhhhhhhhhhhhhhh",
"hhhhhhhhhhhhhhhh",
"eeeeeeeeeeeeeeee",
"eeeeeeeeeeeeeeee",
"bbbbbbbbbbbbbbbb",
"aaaaaaaaaaaaaaaa"};
