/* XPM */
static char *dummy[]={
"16 50 12 1",
". c #888888",
"b c #82543F",
"g c #A47862",
"f c #B1866F",
"i c #BB9079",
"j c #C1967F",
"e c #D8AE95",
"c c #E4BBA2",
"a c #C59A83",
"d c #DEB49B",
"h c #EDC4AB",
"# c #EFC6AD",
"................",
"################",
"aaaaaaaaaaaaaaaa",
"aaaaaaaaaaaaaaaa",
"aaaaaaaaaaaaaaaa",
"bbbbbbbbbaaaaaaa",
"bccccccccaaaaaaa",
"bccddaabcaaaaaaa",
"bcddaeabcbbbbbaa",
"bcdaeafbccccccaa",
"bcaeaafbcdddbcaa",
"bcaafffbcddfbcaa",
"bcbbbbbbcdafbcaa",
"bccccccccadfbcaa",
"aaabcdddadafbcaa",
"aaabcddadaafbcaa",
"aaabcaffffffbcaa",
"aaabcbbbbbbbbcaa",
"aaabccccccccccaa",
"aaaaaaaaaaaaaaaa",
"aaaaaaaaaaaaaaaa",
"aaaaaaaaaaaaaaaa",
"aaaaaaaaaaaaaaaa",
"aaaaaaaaaaaaaaaa",
"................",
"................",
"################",
"aaaaaaaaaaaaaaaa",
"aaaaaaaaaaaaaaaa",
"aaaaaaaaaaaaaaaa",
"bbbbbbbbbaaaaaaa",
"bggggggghaaaaaaa",
"bgiiiiegcaaaaaaa",
"bgiieejgcbbbbbaa",
"bgieeahgcgggghaa",
"bgieahagcgiegcaa",
"bgeehahgcgiegcaa",
"bgggggggcgiegcaa",
"bhcccccccghjgcaa",
"aaabggggggjhgcaa",
"aaabgiiihjhagcaa",
"aaabgeeejhahgcaa",
"aaabgggggggggcaa",
"aaabhcccccccccaa",
"aaaaaaaaaaaaaaaa",
"aaaaaaaaaaaaaaaa",
"aaaaaaaaaaaaaaaa",
"aaaaaaaaaaaaaaaa",
"aaaaaaaaaaaaaaaa",
"................"};
