/* XPM */
static char *dummy[]={
"16 50 12 1",
". c #888888",
"b c #82543F",
"g c #A47862",
"f c #B1866F",
"i c #BB9079",
"j c #C1967F",
"e c #D8AE95",
"c c #E4BBA2",
"a c #C59A83",
"d c #DEB49B",
"h c #EDC4AB",
"# c #EFC6AD",
"................",
"################",
"aaaaaaaaaaaaaaaa",
"aaaaaaaaaaaaaaaa",
"aaaaaaaaaaaaaaaa",
"aaaaaaaaaaaaaaaa",
"aaaaaaaaaaaaaaaa",
"aaaaaaaaaaaaaaaa",
"aabbbbbbbbbaaaaa",
"aabccccccccaaaaa",
"aabccddaabcaaaaa",
"aabcddaeabcaaaaa",
"aabcdaeafbcaaaaa",
"aabcaeaafbcaaaaa",
"aabcaafffbcaaaaa",
"aabcbbbbbbcaaaaa",
"aabccccccccaaaaa",
"aaaaaaaaaaaaaaaa",
"aaaaaaaaaaaaaaaa",
"aaaaaaaaaaaaaaaa",
"aaaaaaaaaaaaaaaa",
"aaaaaaaaaaaaaaaa",
"aaaaaaaaaaaaaaaa",
"aaaaaaaaaaaaaaaa",
"................",
"................",
"################",
"aaaaaaaaaaaaaaaa",
"aaaaaaaaaaaaaaaa",
"aaaaaaaaaaaaaaaa",
"aaaaaaaaaaaaaaaa",
"aaaaaaaaaaaaaaaa",
"aaaaaaaaaaaaaaaa",
"aabbbbbbbbbaaaaa",
"aabggggggghaaaaa",
"aabgiiiiegcaaaaa",
"aabgiieejgcaaaaa",
"aabgieeahgcaaaaa",
"aabgieahagcaaaaa",
"aabgeehahgcaaaaa",
"aabgggggggcaaaaa",
"aabhcccccccaaaaa",
"aaaaaaaaaaaaaaaa",
"aaaaaaaaaaaaaaaa",
"aaaaaaaaaaaaaaaa",
"aaaaaaaaaaaaaaaa",
"aaaaaaaaaaaaaaaa",
"aaaaaaaaaaaaaaaa",
"aaaaaaaaaaaaaaaa",
"................"};
