/* XPM */
static char *frameIBL[]={
"23 23 3 1",
"a c None",
". c #777885",
"# c #aaabbb",
".####.aaaaaaaaaaaaaaaaa",
".####.aaaaaaaaaaaaaaaaa",
".####.aaaaaaaaaaaaaaaaa",
".####.aaaaaaaaaaaaaaaaa",
".####.aaaaaaaaaaaaaaaaa",
".####.aaaaaaaaaaaaaaaaa",
".####.aaaaaaaaaaaaaaaaa",
".####.aaaaaaaaaaaaaaaaa",
".####.aaaaaaaaaaaaaaaaa",
".####.aaaaaaaaaaaaaaaaa",
".####.aaaaaaaaaaaaaaaaa",
".####.aaaaaaaaaaaaaaaaa",
".####.aaaaaaaaaaaaaaaaa",
".####.aaaaaaaaaaaaaaaaa",
".####.aaaaaaaaaaaaaaaaa",
".####.aaaaaaaaaaaaaaaaa",
".####.aaaaaaaaaaaaaaaaa",
".####..................",
".######################",
".######################",
".######################",
".######################",
"......................."};
