/* XPM */
static char *frameABL[]={
"23 23 5 1",
"c c None",
". c #504e4b",
"b c #d5d1c9",
"a c #dcd8d2",
"# c #e1ded8",
".#aab.ccccccccccccccccc",
".#aab.ccccccccccccccccc",
".#aab.ccccccccccccccccc",
".#aab.ccccccccccccccccc",
".#aab.ccccccccccccccccc",
".#aab.ccccccccccccccccc",
".#aab.ccccccccccccccccc",
".#aab.ccccccccccccccccc",
".#aab.ccccccccccccccccc",
".#aab.ccccccccccccccccc",
".#aab.ccccccccccccccccc",
".#aab.ccccccccccccccccc",
".#aab.ccccccccccccccccc",
".#aab.ccccccccccccccccc",
".#aab.ccccccccccccccccc",
".#aab.ccccccccccccccccc",
".#aab.ccccccccccccccccc",
".#aab..................",
".#aaa##################",
".#aaaaaaaaaaaaaaaaaaaaa",
".#aaaaaaaaaaaaaaaaaaaaa",
".abbbbbbbbbbbbbbbbbbbbb",
"......................."};
