/* XPM */
static char *frameIBL[]={
"23 23 3 1",
"a c None",
". c #a3a09b",
"# c #dedad4",
".####.aaaaaaaaaaaaaaaaa",
".####.aaaaaaaaaaaaaaaaa",
".####.aaaaaaaaaaaaaaaaa",
".####.aaaaaaaaaaaaaaaaa",
".####.aaaaaaaaaaaaaaaaa",
".####.aaaaaaaaaaaaaaaaa",
".####.aaaaaaaaaaaaaaaaa",
".####.aaaaaaaaaaaaaaaaa",
".####.aaaaaaaaaaaaaaaaa",
".####.aaaaaaaaaaaaaaaaa",
".####.aaaaaaaaaaaaaaaaa",
".####.aaaaaaaaaaaaaaaaa",
".####.aaaaaaaaaaaaaaaaa",
".####.aaaaaaaaaaaaaaaaa",
".####.aaaaaaaaaaaaaaaaa",
".####.aaaaaaaaaaaaaaaaa",
".####.aaaaaaaaaaaaaaaaa",
".####..................",
".######################",
".######################",
".######################",
".######################",
"......................."};
