/* XPM */
static char *frameIBR[]={
"23 23 3 1",
". c None",
"# c #a3a09b",
"a c #dedad4",
".................#aaaa#",
".................#aaaa#",
".................#aaaa#",
".................#aaaa#",
".................#aaaa#",
".................#aaaa#",
".................#aaaa#",
".................#aaaa#",
".................#aaaa#",
".................#aaaa#",
".................#aaaa#",
".................#aaaa#",
".................#aaaa#",
".................#aaaa#",
".................#aaaa#",
".................#aaaa#",
".................#aaaa#",
"##################aaaa#",
"aaaaaaaaaaaaaaaaaaaaaa#",
"aaaaaaaaaaaaaaaaaaaaaa#",
"aaaaaaaaaaaaaaaaaaaaaa#",
"aaaaaaaaaaaaaaaaaaaaaa#",
"#######################"};
