/* XPM */
static char *rolldownA_xpm[] = {
"23 46 5 1",
". c #e1ded8",
"+ c #a69e8a",
"@ c #8a8782",
"# c #000000",
"$ c #d4d0c8",
".......................",
"+++++++++++++++++++++++",
"+++++++++++++++++++++++",
"+++..............@#++++",
"+++.$$$$$$$$$$$$$@#++++",
"+++.$$$$$$$$$$$$$@#++++",
"+++.$$$$$$$$$$$$$@#++++",
"+++.$$$$$$$$$$$$$@#++++",
"+++.$$$$$$$$$$$$$@#++++",
"+++.$$$$$$$$$$$$$@#++++",
"+++.$$$$$$$$$$$$$@#++++",
"+++.$$$$$$$$$$$$$@#++++",
"+++.$$$$$$$$$$$$$@#++++",
"+++.$$$$$$$$$$$$$@#++++",
"+++.$$$$$$$$$$$$$@#++++",
"+++.$$$$$$$$$$$$$@#++++",
"+++.$$$$$$$$$$$$$@#++++",
"+++$@@@@@@@@@@@@@@#++++",
"+++################++++",
"+++++++++++++++++++++++",
"+++++++++++++++++++++++",
"@@@@@@@@@@@@@@@@@@@@@@@",
"#######################",
".......................",
"+++++++++++++++++++++++",
"+++++++++++++++++++++++",
"+++@@@@@@@@@@@@@@.#++++",
"+++@$$$$$$$$$$$$$.#++++",
"+++@$$$$$$$$$$$$$.#++++",
"+++@$$$$$$$$$$$$$.#++++",
"+++@$$$$$$$$$$$$$.#++++",
"+++@$$$$$$$$$$$$$.#++++",
"+++@$$$$$$$$$$$$$.#++++",
"+++@$$$$$$$$$$$$$.#++++",
"+++@$$$$$$$$$$$$$.#++++",
"+++@$$$$$$$$$$$$$.#++++",
"+++@$$$$$$$$$$$$$.#++++",
"+++@$$$$$$$$$$$$$.#++++",
"+++@$$$$$$$$$$$$$.#++++",
"+++@$$$$$$$$$$$$$.#++++",
"+++$..............#++++",
"+++################++++",
"+++++++++++++++++++++++",
"+++++++++++++++++++++++",
"@@@@@@@@@@@@@@@@@@@@@@@",
"#######################"};
