/* XPM */
static char * minimizeA_xpm[] = {
"24 48 3 1",
" 	c #ddb1c5",
".	c #5e2940",
"+	c #b24d7a",
"                       .",
" ++++++++++++++++++++++.",
" ++++++++++++++++++++++.",
" ++++++++++++++++++++++.",
" ++++++++++++++++++++++.",
" ++++++++++++++++++++++.",
" ++++++++++++++++++++++.",
" ++++++++++++++++++++++.",
" ++++++++++++++++++++++.",
" ++++++++++++++++++++++.",
" +++++++++    .++++++++.",
" +++++++++ +++.++++++++.",
" +++++++++ +++.++++++++.",
" +++++++++ +++.++++++++.",
" +++++++++ ....++++++++.",
" ++++++++++++++++++++++.",
" ++++++++++++++++++++++.",
" ++++++++++++++++++++++.",
" ++++++++++++++++++++++.",
" ++++++++++++++++++++++.",
" ++++++++++++++++++++++.",
" ++++++++++++++++++++++.",
" ++++++++++++++++++++++.",
" .......................",
"....................... ",
".++++++++++++++++++++++ ",
".++++++++++++++++++++++ ",
".++++++++++++++++++++++ ",
".++++++++++++++++++++++ ",
".++++++++++++++++++++++ ",
".++++++++++++++++++++++ ",
".++++++++++++++++++++++ ",
".++++++++++++++++++++++ ",
".++++++++++++++++++++++ ",
".+++++++++    .++++++++ ",
".+++++++++ +++.++++++++ ",
".+++++++++ +++.++++++++ ",
".+++++++++ +++.++++++++ ",
".+++++++++ ....++++++++ ",
".++++++++++++++++++++++ ",
".++++++++++++++++++++++ ",
".++++++++++++++++++++++ ",
".++++++++++++++++++++++ ",
".++++++++++++++++++++++ ",
".++++++++++++++++++++++ ",
".++++++++++++++++++++++ ",
".++++++++++++++++++++++ ",
".                       "};
