/* XPM */
static char * rollupI_xpm[] = {
"24 48 5 1",
" 	c #ced0db",
".	c #595b63",
"+	c #aeb2c3",
"@	c #ffffff",
"#	c #6c6f79",
"                       .",
" ++++++++++++++++++++++.",
" ++++++++++++++++++++++.",
" ++++++++++++++++++++++.",
" ++++++++++++++++++++++.",
" ++++++++++++++++++++++.",
" +++++++++++@++++++++++.",
" ++++++++++@+.+++++++++.",
" ++++++++++@+.+++++++++.",
" ++++++++++@+.+++++++++.",
" +++++++++@+++..+++++++.",
" +++++++++@+++..+++++++.",
" +++++++@@++++++.++++++.",
" +++++++@@++++++.++++++.",
" ++++++@+++++++++.+++++.",
" ++++++@+++++++++.+++++.",
" ++++++@+++++++++.+++++.",
" +++++@+++++++++++.++++.",
" +++++@............++++.",
" ++++++++++++++++++++++.",
" ++++++++++++++++++++++.",
" ++++++++++++++++++++++.",
" ++++++++++++++++++++++.",
" .......................",
".......................+",
".+++++++++++++++++++++++",
".+++++++++++++++++++++++",
".+++++++++++++++++++++++",
".+++++++++++++++++++++++",
".+++++++++++++++++++++++",
".+++++++++++@+++++++++++",
".++++++++++@+#++++++++++",
".++++++++++@+#++++++++++",
".++++++++++@+#++++++++++",
".+++++++++@+++##++++++++",
".+++++++++@+++##++++++++",
".+++++++@@++++++#+++++++",
".+++++++@@++++++#+++++++",
".++++++@+++++++++#++++++",
".++++++@+++++++++#++++++",
".++++++@+++++++++#++++++",
".+++++@+++++++++++#+++++",
".+++++@############+++++",
".+++++++++++++++++++++++",
".+++++++++++++++++++++++",
".+++++++++++++++++++++++",
".+++++++++++++++++++++++",
".+++++++++++++++++++++++"};
