/* XPM */
static char *dframeIBL_xpm[] = {
"23 23 3 1",
"  c #6e6e6e",
". c #c4c4c4",
"+ c None",
" .... +++++++++++++++++",
" .... +++++++++++++++++",
" .... +++++++++++++++++",
" .... +++++++++++++++++",
" .... +++++++++++++++++",
" .... +++++++++++++++++",
" .... +++++++++++++++++",
" .... +++++++++++++++++",
" .... +++++++++++++++++",
" .... +++++++++++++++++",
" .... +++++++++++++++++",
" .... +++++++++++++++++",
" .... +++++++++++++++++",
" .... +++++++++++++++++",
" .... +++++++++++++++++",
" .... +++++++++++++++++",
" .... +++++++++++++++++",
" ....                  ",
" ......................",
" ......................",
" ......................",
" ......................",
"                       "};
