/* XPM */
static char * title_4_inactive_xpm[] = {
"32 46 4 1",
"a	c #000400",
"b	c #737573",
"c	c #ADB6B5",
"d	c #DEE7E7",
"aaaaaaaaaaaaaaaaaaaaaaaaaaaaaaaa",
"aaaaaaaaaaaaaaaaaaaaaaaaaaaaaaaa",
"dddddddddddddddddddddddddddddddd",
"dddddddddddddddddddddddddddddddd",
"dddddddddddddddddddddddddddddddd",
"dddddddddddddddddddddddddddddddd",
"bbbbbbbbbbbbbbbbbbbbbbbbbbbbbbbb",
"bbbbbbbbbbbbbbbbbbbbbbbbbbbbbbbb",
"aaaabbbbbbbbbbbbbbbbbbbbbbbbbbbb",
"aaaabbbbbbbbbbbbbbbbbbbbbbbbbbbb",
"ccddbbbbbbbbbbbbbbbbbbbbbbbbbbbb",
"ccddbbbbbbbbbbbbbbbbbbbbbbbbbbbb",
"ccddbbbbbbbbbbbbbbbbbbbbbbbbbbbb",
"ccddbbbbbbbbbbbbbbbbbbbbbbbbbbbb",
"ccddbbbbbbbbbbbbbbbbbbbbbbbbbbbb",
"ccddbbbbbbbbbbbbbbbbbbbbbbbbbbbb",
"ccddbbbbbbbbbbbbbbbbbbbbbbbbbbbb",
"ccddbbbbbbbbbbbbbbbbbbbbbbbbbbbb",
"ccddbbbbbbbbbbbbbbbbbbbbbbbbbbbb",
"ccddbbbbbbbbbbbbbbbbbbbbbbbbbbbb",
"ccddbbbbbbbbbbbbbbbbbbbbbbbbbbbb",
"ccddbbbbbbbbbbbbbbbbbbbbbbbbbbbb",
"ccddbbbbbbbbbbbbbbbbbbbbbbbbbbbb",
"ccddbbbbbbbbbbbbbbbbbbbbbbbbbbbb",
"ccddbbbbbbbbbbbbbbbbbbbbbbbbbbbb",
"ccddbbbbbbbbbbbbbbbbbbbbbbbbbbbb",
"ccddbbbbbbbbbbbbbbbbbbbbbbbbbbbb",
"ccddbbbbbbbbbbbbbbbbbbbbbbbbbbbb",
"ccddbbbbbbbbbbbbbbbbbbbbbbbbbbbb",
"ccddbbbbbbbbbbbbbbbbbbbbbbbbbbbb",
"ccddbbbbbbbbbbbbbbbbbbbbbbbbbbbb",
"ccddbbbbbbbbbbbbbbbbbbbbbbbbbbbb",
"ccddbbbbbbbbbbbbbbbbbbbbbbbbbbbb",
"ccddbbbbbbbbbbbbbbbbbbbbbbbbbbbb",
"ccddbbbbbbbbbbbbbbbbbbbbbbbbbbbb",
"ccddbbbbbbbbbbbbbbbbbbbbbbbbbbbb",
"ccddbbbbbbbbbbbbbbbbbbbbbbbbbbbb",
"ccddbbbbbbbbbbbbbbbbbbbbbbbbbbbb",
"ccddbbbbbbbbbbbbbbbbbbbbbbbbbbbb",
"ccddbbbbbbbbbbbbbbbbbbbbbbbbbbbb",
"ccccaaaaaaaaaaaaaaaaaaaaaaaaaaaa",
"ccccaaaaaaaaaaaaaaaaaaaaaaaaaaaa",
"aaaaaaaaaaaaaaaaaaaaaaaaaaaaaaaa",
"aaaaaaaaaaaaaaaaaaaaaaaaaaaaaaaa",
"bbbbbbbbbbbbbbbbbbbbbbbbbbbbbbbb",
"bbbbbbbbbbbbbbbbbbbbbbbbbbbbbbbb"};
