/* XPM */
static char * top_left_active_xpm[] = {
"6 52 4 1",
"a	c #000400",
"b	c #737573",
"c	c #ADB6B5",
"d	c #DEE7E7",
"aaaaaa",
"aaaaaa",
"aadddd",
"aadddd",
"aadddd",
"aadddd",
"aadddd",
"aadddd",
"aadddd",
"aadddd",
"aadddd",
"aadddd",
"aadddd",
"aadddd",
"aadddd",
"aadddd",
"aadddd",
"aadddd",
"aadddd",
"aadddd",
"aadddd",
"aadddd",
"aadddd",
"aadddd",
"aadddd",
"aadddd",
"aadddd",
"aadddd",
"aadddd",
"aadddd",
"aadddd",
"aadddd",
"aadddd",
"aadddd",
"aadddd",
"aadddd",
"aadddd",
"aadddd",
"aaddbb",
"aaddbb",
"aaaaaa",
"aaaaaa",
"aaccaa",
"aaccaa",
"aacccc",
"aacccc",
"aacccc",
"aacccc",
"aacccc",
"aacccc",
"aacccc",
"aacccc"};
