/* XPM */
static char *menuButtonI_xpm[] = {
"23 46 5 1",
". c #5b5b5b",
"+ c #454545",
"@ c #ffffff",
"# c #303030",
"$ c #000000",
".......................",
"+++++++++++++++++++++++",
"+++++++++++++++++++++++",
"+++@@@@@@@@@@@@@@#$++++",
"+++@+++++++++++++#$++++",
"+++@+++++++++++++#$++++",
"+++@+++++++++++++#$++++",
"+++@+++++++++++++#$++++",
"+++@+++++++++++++#$++++",
"+++@+++++++++++++#$++++",
"+++@+++++++++++++#$++++",
"+++@+++++++++++++#$++++",
"+++@+++++++++++++#$++++",
"+++@+++++++++++++#$++++",
"+++@+++++++++++++#$++++",
"+++@+++++++++++++#$++++",
"+++@+++++++++++++#$++++",
"++++##############$++++",
"+++$$$$$$$$$$$$$$$$++++",
"+++++++++++++++++++++++",
"+++++++++++++++++++++++",
"#######################",
"$$$$$$$$$$$$$$$$$$$$$$$",
".......................",
"+++++++++++++++++++++++",
"+++++++++++++++++++++++",
"+++##############@$++++",
"+++#+++++++++++++@$++++",
"+++#+++++++++++++@$++++",
"+++#+++++++++++++@$++++",
"+++#+++++++++++++@$++++",
"+++#+++++++++++++@$++++",
"+++#+++++++++++++@$++++",
"+++#+++++++++++++@$++++",
"+++#+++++++++++++@$++++",
"+++#+++++++++++++@$++++",
"+++#+++++++++++++@$++++",
"+++#+++++++++++++@$++++",
"+++#+++++++++++++@$++++",
"+++#+++++++++++++@$++++",
"++++@@@@@@@@@@@@@@$++++",
"+++$$$$$$$$$$$$$$$$++++",
"+++++++++++++++++++++++",
"+++++++++++++++++++++++",
"#######################",
"$$$$$$$$$$$$$$$$$$$$$$$"};
