/* XPM */
static char *closeA_xpm[] = {
"22 44 4 1",
". c #d8d8d8",
"+ c #000000",
"@ c #787878",
"# c #ffffff",
"......................",
"..+++++++++++++++++++@",
".++++++++++++++++++++@",
".++++++++++++++++++++@",
".++++++++++++++++++++@",
".++++++++++++++++++++@",
".++++++++++++++++++++@",
".++++++##+++##+++++++@",
".++++++###+###+++++++@",
".+++++++#####++++++++@",
".++++++++###+++++++++@",
".+++++++#####++++++++@",
".++++++###+###+++++++@",
".++++++##+++##+++++++@",
".++++++++++++++++++++@",
".++++++++++++++++++++@",
".++++++++++++++++++++@",
".++++++++++++++++++++@",
".+++++++++++++++++++@@",
"@@@@@@@@@@@@@@@@@@@@@@",
"@@@@@@@@@@@@@@@@@@@@@@",
"++++++++++++++++++++++",
"@@@@@@@@@@@@@@@@@@@@@@",
"@@+++++++++++++++++++.",
"@++++++++++++++++++++.",
"@++++++++++++++++++++.",
"@++++++++++++++++++++.",
"@++++++++++++++++++++.",
"@++++++++++++++++++++.",
"@++++++++++++++++++++.",
"@+++++++##+++##++++++.",
"@+++++++###+###++++++.",
"@++++++++#####+++++++.",
"@+++++++++###++++++++.",
"@++++++++#####+++++++.",
"@+++++++###+###++++++.",
"@+++++++##+++##++++++.",
"@++++++++++++++++++++.",
"@++++++++++++++++++++.",
"@++++++++++++++++++++.",
"@+++++++++++++++++++..",
"......................",
"......................",
"++++++++++++++++++++++"};
