/* XPM */
static char *closeI_xpm[] = {
"22 44 5 1",
". c #d8d8d8",
"+ c #a8a8a8",
"@ c #787878",
"# c #ffffff",
"$ c #000000",
"......................",
"+++++++++++++++++++++@",
"+++++++++++++++++++++@",
"++++##############@$+@",
"++++#+++++++++++++@$+@",
"++++#+$$+++++++$$+@$+@",
"++++#++$$+++++$$++@$+@",
"++++#+++$$+++$$+++@$+@",
"++++#++++$$+$$++++@$+@",
"++++#+++++$$$+++++@$+@",
"++++#++++++$++++++@$+@",
"++++#+++++$$$+++++@$+@",
"++++#++++$$+$$++++@$+@",
"++++#+++$$+++$$+++@$+@",
"++++#++$$+++++$$++@$+@",
"++++#+$$+++++++$$+@$+@",
"++++#+++++++++++++@$+@",
"+++++@@@@@@@@@@@@@@$+@",
"++++$$$$$$$$$$$$$$$$+@",
"+++++++++++++++++++++@",
"@@@@@@@@@@@@@@@@@@@@@@",
"$$$$$$$$$$$$$$$$$$$$$$",
"......................",
"+++++++++++++++++++++@",
"+++++++++++++++++++++@",
"++++@@@@@@@@@@@@@@#$+@",
"++++@+++++++++++++#$+@",
"++++@+++++++++++++#$+@",
"++++@++$$++++++$$+#$+@",
"++++@+++$$++++$$++#$+@",
"++++@++++$$++$$+++#$+@",
"++++@+++++$$$$++++#$+@",
"++++@++++++$$+++++#$+@",
"++++@++++++$$+++++#$+@",
"++++@+++++$$$$++++#$+@",
"++++@++++$$++$$+++#$+@",
"++++@+++$$++++$$++#$+@",
"++++@++$$++++++$$+#$+@",
"++++@+++++++++++++#$+@",
"+++++##############$+@",
"++++$$$$$$$$$$$$$$$$+@",
"+++++++++++++++++++++@",
"@@@@@@@@@@@@@@@@@@@@@@",
"$$$$$$$$$$$$$$$$$$$$$$"};
