/* XPM */
static char *maximizeI_xpm[] = {
"21 42 4 1",
". c #B6B6B6",
"+ c #a8a8a8",
"@ c #616161",
"# c #000000",
".....................",
".+++++++++++++++++++@",
".+++++++++++++++++++@",
".+++++++++++++++++++@",
".+++++++++++++++++++@",
".+++++++++++++++++++@",
".+++++++++++++++++++@",
".+++++++++#+++++++++@",
".++++++++###++++++++@",
".+++++++#####+++++++@",
".++++++###+###++++++@",
".++++++##+++##++++++@",
".+++++++++++++++++++@",
".+++++++++++++++++++@",
".+++++++++++++++++++@",
".+++++++++++++++++++@",
".+++++++++++++++++++@",
".+++++++++++++++++++@",
".+++++++++++++++++++@",
".+++++++++++++++++++@",
"@@@@@@@@@@@@@@@@@@@@@",
"@@@@@@@@@@@@@@@@@@@@@",
"@+++++++++++++++++++.",
"@+++++++++++++++++++.",
"@+++++++++++++++++++.",
"@+++++++++++++++++++.",
"@+++++++++++++++++++.",
"@+++++++++++++++++++.",
"@+++++++++++++++++++.",
"@++++++++++#++++++++.",
"@+++++++++###+++++++.",
"@++++++++#####++++++.",
"@+++++++###+###+++++.",
"@+++++++##+++##+++++.",
"@+++++++++++++++++++.",
"@+++++++++++++++++++.",
"@+++++++++++++++++++.",
"@+++++++++++++++++++.",
"@+++++++++++++++++++.",
"@+++++++++++++++++++.",
"@+++++++++++++++++++.",
"....................."};
