/* XPM */
static char *rollupA_xpm[] = {
"19 38 4 1",
". c #787878",
"+ c #d8d8d8",
"@ c #a8a8a8",
"# c #000000",
"...................",
".++++++++++++++++..",
".+@@@@@@@@@@@@@@@..",
".+@@@@@@@@@@@@@@@..",
".+@@@@@@@@@@@@@@@..",
".+@@@@@@@@@@@@@@@..",
".+@@@@#######@@@@..",
".+@@@@#@#@#@#@@@@..",
".+@@@@@@@#@@@@@@@..",
".+@@@@@@###@@@@@@..",
".+@@@@@#####@@@@@..",
".+@@@@###@###@@@@..",
".+@@@@##@@@##@@@@..",
".+@@@@@@@@@@@@@@@..",
".+@@@@@@@@@@@@@@@..",
".+@@@@@@@@@@@@@@@..",
".+@@@@@@@@@@@@@@@..",
".+.................",
"...................",
"...................",
".................+.",
"..@@@@@@@@@@@@@@@+.",
"..@@@@@@@@@@@@@@@+.",
"..@@@@@@@@@@@@@@@+.",
"..@@@@@@@@@@@@@@@+.",
"..@@@@@@@@@@@@@@@+.",
"..@@@@@#######@@@+.",
"..@@@@@#@#@#@#@@@+.",
"..@@@@@@@@#@@@@@@+.",
"..@@@@@@@###@@@@@+.",
"..@@@@@@#####@@@@+.",
"..@@@@@###@###@@@+.",
"..@@@@@##@@@##@@@+.",
"..@@@@@@@@@@@@@@@+.",
"..@@@@@@@@@@@@@@@+.",
"..@@@@@@@@@@@@@@@+.",
"..++++++++++++++++.",
"..................."};
