/* XPM */
static char * buttonI_xpm[] = {
"76 22 5 1",
" 	c #ffffff",
".	c #000000",
"+	c #c2bba7",
"@	c #dfdcd1",
"#	c #807c6f",
"                                                                          .+",
" @@@@@@@@@@@@@@@@@@@@@@@@@@@@@@@@@@@@@@@@@@@@@@@@@@@@@@@@@@@@@@@@@@@@@@@@#.+",
" @+++++++++++++++++++++++++++++++++++++++++++++++++++++++++++++++++++++++#.+",
" @+++++++++++++++++++++++++++++++++++++++++++++++++++++++++++++++++++++++#.+",
" @+++++++++++++++++++++++++++++++++++++++++++++++++++++++++++++++++++++++#.+",
" @+++++++++++++++++++++++++++++++++++++++++++++++++++++++++++++++++++++++#.+",
" @+++++++++++++++++++++++++++++++++++++++++++++++++++++++++++++++++++++++#.+",
" @+++++++++++++++++++++++++++++++++++++++++++++++++++++++++++++++++++++++#.+",
" @+++++++++++++++++++++++++++++++++++++++++++++++++++++++++++++++++++++++#.+",
" @+++++++++++++++++++++++++++++++++++++++++++++++++++++++++++++++++++++++#.+",
" @+++++++++++++++++++++++++++++++++++++++++++++++++++++++++++++++++++++++#.+",
" @+++++++++++++++++++++++++++++++++++++++++++++++++++++++++++++++++++++++#.+",
" @+++++++++++++++++++++++++++++++++++++++++++++++++++++++++++++++++++++++#.+",
" @+++++++++++++++++++++++++++++++++++++++++++++++++++++++++++++++++++++++#.+",
" @+++++++++++++++++++++++++++++++++++++++++++++++++++++++++++++++++++++++#.+",
" @+++++++++++++++++++++++++++++++++++++++++++++++++++++++++++++++++++++++#.+",
" @+++++++++++++++++++++++++++++++++++++++++++++++++++++++++++++++++++++++#.+",
" @+++++++++++++++++++++++++++++++++++++++++++++++++++++++++++++++++++++++#.+",
" @+++++++++++++++++++++++++++++++++++++++++++++++++++++++++++++++++++++++#.+",
" #########################################################################.+",
"...........................................................................+",
"++++++++++++++++++++++++++++++++++++++++++++++++++++++++++++++++++++++++++++"};
