/* XPM */
static char * buttonA_xpm[] = {
"76 22 3 1",
" 	c #000000",
".	c #f2dccb",
"+	c #e5b793",
"                                                                           .",
" +++++++++++++++++++++++++++++++++++++++++++++++++++++++++++++++++++++++++ .",
" +.......................................................................+ .",
" +.......................................................................+ .",
" +... . . . . . . . . . . . . . . . . . . . . . . . . . . . . . . . . ...+ .",
" +.. ................................................................. ..+ .",
" +.......................................................................+ .",
" +.. ................................................................. ..+ .",
" +.......................................................................+ .",
" +.. ................................................................. ..+ .",
" +.......................................................................+ .",
" +.. ................................................................. ..+ .",
" +.......................................................................+ .",
" +.. ................................................................. ..+ .",
" +.......................................................................+ .",
" +.. ................................................................. ..+ .",
" +... . . . . . . . . . . . . . . . . . . . . . . . . . . . . . . . . ...+ .",
" +.......................................................................+ .",
" +.......................................................................+ .",
" +++++++++++++++++++++++++++++++++++++++++++++++++++++++++++++++++++++++++ .",
"                                                                           .",
"............................................................................"};
