/* XPM */
static char *closeI_xpm[] = {
"19 38 4 1",
". c #454545",
"+ c #5b5b5b",
"@ c #303030",
"# c #000000",
"...................",
".++++++++++++++++@.",
".+...............@.",
".+...............@.",
".+...............@.",
".+...............@.",
".+....##...##....@.",
".+....###.###....@.",
".+.....#####.....@.",
".+......###......@.",
".+.....#####.....@.",
".+....###.###....@.",
".+....##...##....@.",
".+...............@.",
".+...............@.",
".+...............@.",
".+...............@.",
".+@@@@@@@@@@@@@@@@.",
"...................",
"...................",
".@@@@@@@@@@@@@@@@+.",
".@...............+.",
".@...............+.",
".@...............+.",
".@...............+.",
".@...............+.",
".@.....##...##...+.",
".@.....###.###...+.",
".@......#####....+.",
".@.......###.....+.",
".@......#####....+.",
".@.....###.###...+.",
".@.....##...##...+.",
".@...............+.",
".@...............+.",
".@...............+.",
".@++++++++++++++++.",
"..................."};
