/* XPM */
static char *frameITR[]={
"23 23 3 1",
"a c None",
". c #525252",
"# c #5b5b5b",
".......................",
"######################.",
"######################.",
"######################.",
"######################.",
"######################.",
"aaaaaaaaaaaaaaaaa#####.",
"aaaaaaaaaaaaaaaaa#####.",
"aaaaaaaaaaaaaaaaa#####.",
"aaaaaaaaaaaaaaaaa#####.",
"aaaaaaaaaaaaaaaaa#####.",
"aaaaaaaaaaaaaaaaa#####.",
"aaaaaaaaaaaaaaaaa#####.",
"aaaaaaaaaaaaaaaaa#####.",
"aaaaaaaaaaaaaaaaa#####.",
"aaaaaaaaaaaaaaaaa#####.",
"aaaaaaaaaaaaaaaaa#####.",
"aaaaaaaaaaaaaaaaa#####.",
"aaaaaaaaaaaaaaaaa#####.",
"aaaaaaaaaaaaaaaaa#####.",
"aaaaaaaaaaaaaaaaa#####.",
"aaaaaaaaaaaaaaaaa#####.",
"aaaaaaaaaaaaaaaaa#####."};
