/* XPM */
static char *frameABR[]={
"23 23 5 1",
". c None",
"# c #1a1a1a",
"c c #464646",
"b c #525252",
"a c #5b5b5b",
".................#abbc#",
".................#abbc#",
".................#abbc#",
".................#abbc#",
".................#abbc#",
".................#abbc#",
".................#abbc#",
".................#abbc#",
".................#abbc#",
".................#abbc#",
".................#abbc#",
".................#abbc#",
".................#abbc#",
".................#abbc#",
".................#abbc#",
".................#abbc#",
".................#abbc#",
"##################abbc#",
"aaaaaaaaaaaaaaaaaaabbc#",
"bbbbbbbbbbbbbbbbbbbbbc#",
"bbbbbbbbbbbbbbbbbbbbbc#",
"cccccccccccccccccccccc#",
"#######################"};
