/* XPM */
static char *closeI_xpm[] = {
"23 46 5 1",
". c #c4c4c4",
"+ c #aaaaaa",
"@ c #6e6e6e",
"# c #ffffff",
"$ c #000000",
".......................",
"++++++++++++++++++++++@",
"++++++++++++++++++++++@",
"++++##############@$++@",
"++++#+++++++++++++@$++@",
"++++#+$$+++++++$$+@$++@",
"++++#++$$+++++$$++@$++@",
"++++#+++$$+++$$+++@$++@",
"++++#++++$$+$$++++@$++@",
"++++#+++++$$$+++++@$++@",
"++++#++++++$++++++@$++@",
"++++#+++++$$$+++++@$++@",
"++++#++++$$+$$++++@$++@",
"++++#+++$$+++$$+++@$++@",
"++++#++$$+++++$$++@$++@",
"++++#+$$+++++++$$+@$++@",
"++++#+++++++++++++@$++@",
"+++++@@@@@@@@@@@@@@$++@",
"++++$$$$$$$$$$$$$$$$++@",
"++++++++++++++++++++++@",
"++++++++++++++++++++++@",
"@@@@@@@@@@@@@@@@@@@@@@@",
"$$$$$$$$$$$$$$$$$$$$$$$",
".......................",
"++++++++++++++++++++++@",
"++++++++++++++++++++++@",
"++++@@@@@@@@@@@@@@#$++@",
"++++@+++++++++++++#$++@",
"++++@+++++++++++++#$++@",
"++++@++$$++++++$$+#$++@",
"++++@+++$$++++$$++#$++@",
"++++@++++$$++$$+++#$++@",
"++++@+++++$$$$++++#$++@",
"++++@++++++$$+++++#$++@",
"++++@++++++$$+++++#$++@",
"++++@+++++$$$$++++#$++@",
"++++@++++$$++$$+++#$++@",
"++++@+++$$++++$$++#$++@",
"++++@++$$++++++$$+#$++@",
"++++@+++++++++++++#$++@",
"+++++##############$++@",
"++++$$$$$$$$$$$$$$$$++@",
"++++++++++++++++++++++@",
"++++++++++++++++++++++@",
"@@@@@@@@@@@@@@@@@@@@@@@",
"$$$$$$$$$$$$$$$$$$$$$$$"};
