/* XPM */
static char *rolldownA_xpm[] = {
"23 46 5 1",
". c #c4c4c4",
"+ c #000000",
"@ c #ffffff",
"# c #6e6e6e",
"$ c #aaaaaa",
".......................",
"+++++++++++++++++++++++",
"+++++++++++++++++++++++",
"+++@@@@@@@@@@@@@@#+++++",
"+++@$$$$$$$$$$$$$#+++++",
"+++@$$$$$$$$$$$$$#+++++",
"+++@$$$$$$$$$$$$$#+++++",
"+++@$$$$$$$$$$$$$#+++++",
"+++@$$$$$$$$$$$$$#+++++",
"+++@$$$$$$$$$$$$$#+++++",
"+++@$$$$$$$$$$$$$#+++++",
"+++@$$$$$$$$$$$$$#+++++",
"+++@$$$$$$$$$$$$$#+++++",
"+++@$$$$$$$$$$$$$#+++++",
"+++@$$$$$$$$$$$$$#+++++",
"+++@$$$$$$$$$$$$$#+++++",
"+++@$$$$$$$$$$$$$#+++++",
"+++$##############+++++",
"+++++++++++++++++++++++",
"+++++++++++++++++++++++",
"+++++++++++++++++++++++",
"#######################",
"+++++++++++++++++++++++",
".......................",
"+++++++++++++++++++++++",
"+++++++++++++++++++++++",
"+++##############@+++++",
"+++#$$$$$$$$$$$$$@+++++",
"+++#$$$$$$$$$$$$$@+++++",
"+++#$$$$$$$$$$$$$@+++++",
"+++#$$$$$$$$$$$$$@+++++",
"+++#$$$$$$$$$$$$$@+++++",
"+++#$$$$$$$$$$$$$@+++++",
"+++#$$$$$$$$$$$$$@+++++",
"+++#$$$$$$$$$$$$$@+++++",
"+++#$$$$$$$$$$$$$@+++++",
"+++#$$$$$$$$$$$$$@+++++",
"+++#$$$$$$$$$$$$$@+++++",
"+++#$$$$$$$$$$$$$@+++++",
"+++#$$$$$$$$$$$$$@+++++",
"+++$@@@@@@@@@@@@@@+++++",
"+++++++++++++++++++++++",
"+++++++++++++++++++++++",
"+++++++++++++++++++++++",
"#######################",
"+++++++++++++++++++++++"};
