/* XPM */
static char *minimizeA_xpm[] = {
"16 38 5 1",
". c #525963",
"+ c #353a40",
"@ c #000000",
"# c #ffffff",
"$ c #868b92",
"................",
"...++++++++++++.",
"...+@@@@@@@@@@@#",
"...+@#........@#",
"...+@........+@#",
"...+@........+@#",
"...+@@@@@@@@@@@#",
"...+@......$$+@#",
"...+@@@@@@@@@@@#",
"...+@....$$$$+@#",
"...+@...$$$$#+@#",
"...+@.++++++++@#",
"...+@@@@@@@@@@@#",
"....############",
"................",
"................",
"................",
"++++++++++++++++",
"@@@@@@@@@@@@@@@@",
"................",
"...++++++++++++.",
"...+@@@@@@@@@@@#",
"...+@+++++++++@#",
"...+@+#.......@#",
"...+@+........@#",
"...+@+........@#",
"...+@+@@@@@@@@@#",
"...+@+......$$@#",
"...+@+@@@@@@@@@#",
"...+@+....$$$$@#",
"...+@+...$$$$#@#",
"...+@@@@@@@@@@@#",
"....############",
"................",
"................",
"................",
"++++++++++++++++",
"@@@@@@@@@@@@@@@@"};
