/* XPM */
static const char *closeI[] = {
/* columns rows colors chars-per-pixel */
"24 48 3 1 ",
"  c #4E4E4E",
". c gray60",
"X c #D1D1D2",
/* pixels */
"XXXXXXXXXXXXXXXXXXXXXXX ",
"X...................... ",
"X...................... ",
"X...................... ",
"X...................... ",
"X....XXX.........XX ... ",
"X....X..XX......X.. ... ",
"X....X....X...XX... ... ",
"X..... ....X.X.... .... ",
"X..... ....X.X.... .... ",
"X...... ....X.... ..... ",
"X.......  ...... ...... ",
"X......... ...XX....... ",
"X.......XX......X...... ",
"X......X.... ....X..... ",
"X......X.... ....X..... ",
"X.....X.... . ....X.... ",
"X....X.... ...  ... ... ",
"X.... ..  ...... .. ... ",
"X....   .........   ... ",
"X...................... ",
"X...................... ",
"X...................... ",
"X                       ",
"                       X",
" ......................X",
" ......................X",
" ......................X",
" ......................X",
" ....XXX.........XX ...X",
" ....X..XX......X.. ...X",
" ....X....X...XX... ...X",
" ..... ....X.X.... ....X",
" ..... ....X.X.... ....X",
" ...... ....X.... .....X",
" .......  ...... ......X",
" ......... ...XX.......X",
" .......XX......X......X",
" ......X.... ....X.....X",
" ......X.... ....X.....X",
" .....X.... . ....X....X",
" ....X.... ...  ... ...X",
" .... ..  ...... .. ...X",
" ....   .........   ...X",
" ......................X",
" ......................X",
" ......................X",
" XXXXXXXXXXXXXXXXXXXXXXX"
};
