/* XPM */
static const char *dframeABL[] = {
/* columns rows colors chars-per-pixel */
"27 27 4 1 ",
"  c #604360",
". c #A385A3",
"X c #D2C6D2",
"o c #EFEFEF",
/* pixels */
"X     ooooooooooooooooooooo",
"XXXXX ooooooooooooooooooooo",
"XX... ooooooooooooooooooooo",
"XX... ooooooooooooooooooooo",
"XX... ooooooooooooooooooooo",
"XX... ooooooooooooooooooooo",
"XX... ooooooooooooooooooooo",
"XX... ooooooooooooooooooooo",
"XX... ooooooooooooooooooooo",
"XX... ooooooooooooooooooooo",
"XX... ooooooooooooooooooooo",
"XX... ooooooooooooooooooooo",
"XX... ooooooooooooooooooooo",
"XX... ooooooooooooooooooooo",
"XX... ooooooooooooooooooooo",
"XX... ooooooooooooooooooooo",
"XX... ooooooooooooooooooooo",
"XX... ooooooooooooooooooooo",
"XX... ooooooooooooooooooooo",
"XX... ooooooooooooooooooooo",
"XX... ooooooooooooooooooooo",
"XX... XXXXXXXXXXXXXXXXXXXXX",
"XX....................... X",
"XX....................... X",
"XX....................... X",
"XX                        X",
"X                          "
};
