/* XPM */
static const char *dframeIBL[] = {
/* columns rows colors chars-per-pixel */
"31 31 4 1 ",
"  c #4E4E4E",
". c gray60",
"X c #D1D1D2",
"o c #D5D5D6",
/* pixels */
"X      oooooooooooooooooooooooo",
"XXXXXX oooooooooooooooooooooooo",
"XX.... oooooooooooooooooooooooo",
"XX.... oooooooooooooooooooooooo",
"XX.... oooooooooooooooooooooooo",
"XX.... oooooooooooooooooooooooo",
"XX.... oooooooooooooooooooooooo",
"XX.... oooooooooooooooooooooooo",
"XX.... oooooooooooooooooooooooo",
"XX.... oooooooooooooooooooooooo",
"XX.... oooooooooooooooooooooooo",
"XX.... oooooooooooooooooooooooo",
"XX.... oooooooooooooooooooooooo",
"XX.... oooooooooooooooooooooooo",
"XX.... oooooooooooooooooooooooo",
"XX.... oooooooooooooooooooooooo",
"XX.... oooooooooooooooooooooooo",
"XX.... oooooooooooooooooooooooo",
"XX.... oooooooooooooooooooooooo",
"XX.... oooooooooooooooooooooooo",
"XX.... oooooooooooooooooooooooo",
"XX.... oooooooooooooooooooooooo",
"XX.... oooooooooooooooooooooooo",
"XX.... oooooooooooooooooooooooo",
"XX.... XXXXXXXXXXXXXXXXXXXXXXXX",
"XX........................... X",
"XX........................... X",
"XX........................... X",
"XX........................... X",
"XX                            X",
"X                              "
};
