/* XPM */
static const char *frameIBR[] = {
/* columns rows colors chars-per-pixel */
"31 31 17 1 ",
"  c black",
". c #4E4E4E",
"X c gray46",
"o c #8C8982",
"O c #939393",
"+ c #9E9A91",
"@ c #9A9A99",
"# c #9F9F9D",
"$ c #D4D3CF",
"% c #D1D1D2",
"& c #DCDAD5",
"* c #DFDDD8",
"= c #F1F0EE",
"- c #F4F4F2",
"; c #F7F7F6",
": c gray98",
"> c white",
/* pixels */
"%%%%%%o>&&&&&&&&&&&&&+ %%......",
"%%%%%%o>&&&&&&&&&&&&&+ %%%%%%%.",
"%%%%%%o>&&&&&&&&&&&&&+ %%@@@@..",
"%%%%%%o>&&&&&&&&&&&&&+ %%@@@@..",
"%%%%%%o>&&&&&&&&&&&&&+ %%@@@@..",
"%%%%%%o>++++++++++++++ %%@@@@..",
"%%%%%%o                %%@@@@..",
"%%%%%%o>>>>>>>>>>>>>>> %%@@@@..",
"%%%%%%o>&&&&&&&&&&&&&+ %%@@@@..",
"%%%%%%o>&&&&&&&&&&&&&+ %%@@@@..",
"%%%%%%o>&&&&&&&&&&&&&+ %%@@@@..",
"%%%%%%o>&&&&&&&&&&&&&+ %%@@@@..",
"%%%%%%o>&&&&&&&&&&&&&+ %%@@@@..",
"%%%%%%o>&&#XXXXXX#&&&+ %%@@@@..",
"%%%%%%o>&&&@@XXX#>==&+ %%@@@@..",
"%%%%%%o>&&&$$OXO:-&&&+ %%@@@@..",
"%%%%%%o>&&&&&$@-;&&&&+ %%@@@@..",
"%%%%%%o>&&&&&&&;*&&&&+ %%@@@@..",
"%%%%%%o>&&&&&&&&&&&&&+ %%@@@@..",
"%%%%%%o>&&&&&&&&&&&&&+ %%@@@@..",
"%%%%%%o>&&&&&&&&&&&&&+ %%@@@@..",
"%%%%%%o>++++++++++++++ %%@@@@..",
"%%%%%%o                %%@@@@..",
"%%%%%%%%%%%%%%%%%%%%%%%%%@@@@..",
"%%%%%%%%%%%%%%%%%%%%%%%%%@@@@..",
".%@@@@@@@@@@@@@@@@@@@@@@@@@@@..",
".%@@@@@@@@@@@@@@@@@@@@@@@@@@@..",
".%@@@@@@@@@@@@@@@@@@@@@@@@@@@..",
".%@@@@@@@@@@@@@@@@@@@@@@@@@@@..",
".%.............................",
"..............................."
};
