/* XPM */
static const char *frameATL[] = {
/* columns rows colors chars-per-pixel */
"31 32 4 1 ",
"  c #604360",
". c #A385A3",
"X c #D2C6D2",
"o c None",
/* pixels */
"XXXXXXXXXXXXXXXXXXXXXXXXXXXXXXX",
"XXXXXXXXXXXXXXXXXXXXXXXXXXXXX X",
"XX........................... X",
"XX........................... X",
"XX........................... X",
"XX...                          ",
"XX... ooooooooooooooooooooooooo",
"XX... ooooooooooooooooooooooooo",
"XX... ooooooooooooooooooooooooo",
"XX... ooooooooooooooooooooooooo",
"XX... ooooooooooooooooooooooooo",
"XX... ooooooooooooooooooooooooo",
"XX... ooooooooooooooooooooooooo",
"XX... ooooooooooooooooooooooooo",
"XX... ooooooooooooooooooooooooo",
"XX... ooooooooooooooooooooooooo",
"XX... ooooooooooooooooooooooooo",
"XX... ooooooooooooooooooooooooo",
"XX... ooooooooooooooooooooooooo",
"XX... ooooooooooooooooooooooooo",
"XX... ooooooooooooooooooooooooo",
"XX... ooooooooooooooooooooooooo",
"XX... ooooooooooooooooooooooooo",
"XX... ooooooooooooooooooooooooo",
"XX... ooooooooooooooooooooooooo",
"XX... ooooooooooooooooooooooooo",
"XX... ooooooooooooooooooooooooo",
"XX... ooooooooooooooooooooooooo",
"XX... ooooooooooooooooooooooooo",
"XX... ooooooooooooooooooooooooo",
"      ooooooooooooooooooooooooo",
"XXXXX ooooooooooooooooooooooooo"
};
