/* XPM */
static const char *minimizeI[] = {
/* columns rows colors chars-per-pixel */
"24 48 3 1 ",
"  c #4E4E4E",
". c gray60",
"X c #D1D1D2",
/* pixels */
"XXXXXXXXXXXXXXXXXXXXXXX ",
"X...................... ",
"X...................... ",
"X...................... ",
"X...................... ",
"X...................... ",
"X...................... ",
"X...................... ",
"X...................... ",
"X...................... ",
"X.........XXXX ........ ",
"X.........X... ........ ",
"X.........X... ........ ",
"X.........X... ........ ",
"X.........X    ........ ",
"X...................... ",
"X...................... ",
"X...................... ",
"X...................... ",
"X...................... ",
"X...................... ",
"X...................... ",
"X...................... ",
"X                       ",
"                       X",
" ......................X",
" ......................X",
" ......................X",
" ......................X",
" ......................X",
" ......................X",
" ......................X",
" ......................X",
" ......................X",
" .........XXXX ........X",
" .........X... ........X",
" .........X... ........X",
" .........X... ........X",
" .........X    ........X",
" ......................X",
" ......................X",
" ......................X",
" ......................X",
" ......................X",
" ......................X",
" ......................X",
" ......................X",
" XXXXXXXXXXXXXXXXXXXXXXX"
};
