/* XPM */
static char *closeA_xpm[] = {
"16 38 5 1",
". c #635f52",
"+ c #403e35",
"@ c #000000",
"# c #ffffff",
"$ c #928f86",
"................",
"++++++++++++....",
"+@@@@@@@@@@@#...",
"+@#........@#...",
"+@........+@#...",
"+@........+@#...",
"+@.......$+@#...",
"+@......$$+@#...",
"+@.....$$$+@#...",
"+@....$$$$+@#...",
"+@...$$$$#+@#...",
"+@.++++++++@#...",
"+@@@@@@@@@@@#...",
".############...",
"................",
"................",
"................",
"++++++++++++++++",
"@@@@@@@@@@@@@@@@",
"................",
"++++++++++++....",
"+@@@@@@@@@@@#...",
"+@+++++++++@#...",
"+@+#.......@#...",
"+@+........@#...",
"+@+........@#...",
"+@+.......$@#...",
"+@+......$$@#...",
"+@+.....$$$@#...",
"+@+....$$$$@#...",
"+@+...$$$$#@#...",
"+@@@@@@@@@@@#...",
".############...",
"................",
"................",
"................",
"++++++++++++++++",
"@@@@@@@@@@@@@@@@"};
