/* XPM */
static char *frameATR[]={
"23 23 5 1",
"c c None",
". c #4d4a40",
"b c #666255",
"a c #7f7c71",
"# c #928f86",
".......................",
"#####################a.",
"aaaaaaaaaaaaaaaaaaaaab.",
"aaaaaaaaaaaaaaaaaaaaab.",
"aaaaaaaaaaaaaaaaaaaaab.",
"aaaaaaaaaaaaaaaaaaaaab.",
"cccccccccccccccccaaaab.",
"cccccccccccccccccaaaab.",
"cccccccccccccccccaaaab.",
"cccccccccccccccccaaaab.",
"cccccccccccccccccaaaab.",
"cccccccccccccccccaaaab.",
"cccccccccccccccccaaaab.",
"cccccccccccccccccaaaab.",
"cccccccccccccccccaaaab.",
"cccccccccccccccccaaaab.",
"cccccccccccccccccaaaab.",
"cccccccccccccccccaaaab.",
"cccccccccccccccccaaaab.",
"cccccccccccccccccaaaab.",
"cccccccccccccccccaaaab.",
"cccccccccccccccccaaaab.",
"cccccccccccccccccaaaab."};
