/* XPM */
static char *frameATL[]={
"23 23 4 1",
"b c None",
". c #4d4a40",
"a c #7f7c71",
"# c #928f86",
".......................",
".######################",
".#aaaaaaaaaaaaaaaaaaaaa",
".#aaaaaaaaaaaaaaaaaaaaa",
".#aaaaaaaaaaaaaaaaaaaaa",
".#aaaaaaaaaaaaaaaaaaaaa",
".#aaaabbbbbbbbbbbbbbbbb",
".#aaaabbbbbbbbbbbbbbbbb",
".#aaaabbbbbbbbbbbbbbbbb",
".#aaaabbbbbbbbbbbbbbbbb",
".#aaaabbbbbbbbbbbbbbbbb",
".#aaaabbbbbbbbbbbbbbbbb",
".#aaaabbbbbbbbbbbbbbbbb",
".#aaaabbbbbbbbbbbbbbbbb",
".#aaaabbbbbbbbbbbbbbbbb",
".#aaaabbbbbbbbbbbbbbbbb",
".#aaaabbbbbbbbbbbbbbbbb",
".#aaaabbbbbbbbbbbbbbbbb",
".#aaaabbbbbbbbbbbbbbbbb",
".#aaaabbbbbbbbbbbbbbbbb",
".#aaaabbbbbbbbbbbbbbbbb",
".#aaaabbbbbbbbbbbbbbbbb",
".#aaaabbbbbbbbbbbbbbbbb"};
