/* XPM */
static char *frameABR[]={
"23 23 5 1",
". c None",
"# c #454239",
"c c #5b584d",
"b c #76746a",
"a c #8a8880",
".................#abbc#",
".................#abbc#",
".................#abbc#",
".................#abbc#",
".................#abbc#",
".................#abbc#",
".................#abbc#",
".................#abbc#",
".................#abbc#",
".................#abbc#",
".................#abbc#",
".................#abbc#",
".................#abbc#",
".................#abbc#",
".................#abbc#",
".................#abbc#",
".................#abbc#",
"##################abbc#",
"aaaaaaaaaaaaaaaaaaabbc#",
"bbbbbbbbbbbbbbbbbbbbbc#",
"bbbbbbbbbbbbbbbbbbbbbc#",
"cccccccccccccccccccccc#",
"#######################"};
