/* XPM */
static char *titleAL_xpm[] = {
"22 22 4 1",
". c #000000",
"+ c #B6B6B6",
"@ c #a8a8a8",
"# c #616161",
".+++++++++++++++++++++",
".+@@@@@@@@@@@@@@@@@@@@",
".+@@@@@@@@@@@@@@@@@@@@",
".+@@@@@@@@@@@@@@@@@@@@",
".+@@@@@@@@@@@@@@@@@@@@",
".+@@@@@@@@@@@@@@@@@@@@",
".+@@@@@@@@@@@@@@@@@@@@",
".+@@@@@@@@@@@@@@@@@@@@",
".+@@@@@@@@@@@@@@@@@@@@",
".+@@@@@@@@@@@@@@@@@@@@",
".+@@@@@@@@@@@@@@@@@@@@",
".+@@@@@@@@@@@@@@@@@@@@",
".+@@@@@@@@@@@@@@@@@@@@",
".+@@@@@@@@@@@@@@@@@@@@",
".+@@@@@@@@@@@@@@@@@@@@",
".+@@@@@@@@@@@@@@@@@@@@",
".+@@@@@@@@@@@@@@@@@@@@",
".+@@@@@@@@@@@@@@@@@@@@",
".+@@@@@@@@@@@@@@@@@@@@",
".+@@@@@@@@@@@@@@@@@@@@",
".+####################",
"......................"};
