/* XPM */
static char *frameITR[]={
"23 23 3 1",
"a c None",
". c #363c3f",
"# c #5e656a",
".......................",
"######################.",
"######################.",
"######################.",
"######################.",
"######################.",
"aaaaaaaaaaaaaaaaa#####.",
"aaaaaaaaaaaaaaaaa#####.",
"aaaaaaaaaaaaaaaaa#####.",
"aaaaaaaaaaaaaaaaa#####.",
"aaaaaaaaaaaaaaaaa#####.",
"aaaaaaaaaaaaaaaaa#####.",
"aaaaaaaaaaaaaaaaa#####.",
"aaaaaaaaaaaaaaaaa#####.",
"aaaaaaaaaaaaaaaaa#####.",
"aaaaaaaaaaaaaaaaa#####.",
"aaaaaaaaaaaaaaaaa#####.",
"aaaaaaaaaaaaaaaaa#####.",
"aaaaaaaaaaaaaaaaa#####.",
"aaaaaaaaaaaaaaaaa#####.",
"aaaaaaaaaaaaaaaaa#####.",
"aaaaaaaaaaaaaaaaa#####.",
"aaaaaaaaaaaaaaaaa#####."};
