/* XPM */
static char *frameITL[]={
"23 23 4 1",
"a c None",
". c #363c3f",
"b c #5a6165",
"# c #5e656a",
".......................",
".######################",
".######################",
".######################",
".######################",
".######################",
".#####aaaaaaaaaaaaaaaaa",
".#####aaaaaaaaaaaaaaaaa",
".#####aaaaaaaaaaaaaaaaa",
".#####aaaaaaaaaaaaaaaaa",
".#####aaaaaaaaaaaaaaaaa",
".#####aaaaaaaaaaaaaaaaa",
".#####aaaaaaaaaaaaaaaaa",
".#####aaaaaaaaaaaaaaaaa",
".#####aaaaaaaaaaaaaaaaa",
".#####aaaaaaaaaaaaaaaaa",
".#####aaaaaaaaaaaaaaaaa",
".#####aaaaaaaaaaaaaaaaa",
".#####aaaaaaaaaaaaaaaaa",
".#####aaaaaaaaaaaaaaaaa",
".#####aaaaaaaaaaaaaaaaa",
".#####aaaaaaaaaaaaaaaaa",
".b####aaaaaaaaaaaaaaaaa"};
