/* XPM */
static char *frameATR[]={
"23 23 5 1",
"c c None",
". c #121618",
"b c #353e43",
"a c #565d62",
"# c #6f7579",
".......................",
"#####################a.",
"aaaaaaaaaaaaaaaaaaaaab.",
"aaaaaaaaaaaaaaaaaaaaab.",
"aaaaaaaaaaaaaaaaaaaaab.",
"aaaaaaaaaaaaaaaaaaaaab.",
"cccccccccccccccccaaaab.",
"cccccccccccccccccaaaab.",
"cccccccccccccccccaaaab.",
"cccccccccccccccccaaaab.",
"cccccccccccccccccaaaab.",
"cccccccccccccccccaaaab.",
"cccccccccccccccccaaaab.",
"cccccccccccccccccaaaab.",
"cccccccccccccccccaaaab.",
"cccccccccccccccccaaaab.",
"cccccccccccccccccaaaab.",
"cccccccccccccccccaaaab.",
"cccccccccccccccccaaaab.",
"cccccccccccccccccaaaab.",
"cccccccccccccccccaaaab.",
"cccccccccccccccccaaaab.",
"cccccccccccccccccaaaab."};
