/* XPM */
static char *maximizeA_xpm[] = {
"23 46 6 1",
". c #6f7579",
"+ c #f0651f",
"@ c #ffffff",
"# c #202629",
"$ c #000000",
"% c #313a3f",
".......................",
".++++++++++++++++++++++",
".++++++++++++++++++++++",
".++@@@@@@@@@@@@@@#$++++",
".++@%%%%%%%%%%%%%#$++++",
".++@%$$$$$$$$$$$%#$++++",
".++@%$$$$$$$$$$$%#$++++",
".++@%$$$$$$$$$$$%#$++++",
".++@%$%%%%%%%%%$%#$++++",
".++@%$%%%%%%%%%$%#$++++",
".++@%$%%%%%%%%%$%#$++++",
".++@%$%%%%%%%%%$%#$++++",
".++@%$%%%%%%%%%$%#$++++",
".++@%$%%%%%%%%%$%#$++++",
".++@%$%%%%%%%%%$%#$++++",
".++@%$$$$$$$$$$$%#$++++",
".++@%%%%%%%%%%%%%#$++++",
".++%##############$++++",
".++$$$$$$$$$$$$$$$$++++",
".++++++++++++++++++++++",
".++++++++++++++++++++++",
"#######################",
"$$$$$$$$$$$$$$$$$$$$$$$",
".......................",
".++++++++++++++++++++++",
".++++++++++++++++++++++",
".++##############@$++++",
".++#%%%%%%%%%%%%%@$++++",
".++#%%%%%%%%%%%%%@$++++",
".++#%%$$$$$$$$$$%@$++++",
".++#%%$$$$$$$$$$%@$++++",
".++#%%$$$$$$$$$$%@$++++",
".++#%%$%%%%%%%%$%@$++++",
".++#%%$%%%%%%%%$%@$++++",
".++#%%$%%%%%%%%$%@$++++",
".++#%%$%%%%%%%%$%@$++++",
".++#%%$%%%%%%%%$%@$++++",
".++#%%$%%%%%%%%$%@$++++",
".++#%%$$$$$$$$$$%@$++++",
".++#%%%%%%%%%%%%%@$++++",
".++%@@@@@@@@@@@@@@$++++",
".++$$$$$$$$$$$$$$$$++++",
".++++++++++++++++++++++",
".++++++++++++++++++++++",
"#######################",
"$$$$$$$$$$$$$$$$$$$$$$$"};
