/* XPM */
static char *restoreA_xpm[] = {
"23 46 5 1",
". c #6f7579",
"+ c #f0651f",
"@ c #202629",
"# c #000000",
"$ c #313a3f",
".......................",
"+++++++++++++++++++++++",
"+++++++++++++++++++++++",
"+++..............@#++++",
"+++.$$$$$$$$$$$$$@#++++",
"+++.$$$$$$$$$$$$$@#++++",
"+++.$$$$$$$$$$$$$@#++++",
"+++.$$$$$$$$$$$$$@#++++",
"+++.$$$$$$$$$$$$$@#++++",
"+++.$$$$$$$$$$$$$@#++++",
"+++.$$$$$$$$$$$$$@#++++",
"+++.$$$$$$$$$$$$$@#++++",
"+++.$$$$$$$$$$$$$@#++++",
"+++.$$$$$$$$$$$$$@#++++",
"+++.$$$$$$$$$$$$$@#++++",
"+++.$$$$$$$$$$$$$@#++++",
"+++.$$$$$$$$$$$$$@#++++",
"+++$@@@@@@@@@@@@@@#++++",
"+++################++++",
"+++++++++++++++++++++++",
"+++++++++++++++++++++++",
"@@@@@@@@@@@@@@@@@@@@@@@",
"#######################",
".......................",
"+++++++++++++++++++++++",
"+++++++++++++++++++++++",
"+++@@@@@@@@@@@@@@.#++++",
"+++@$$$$$$$$$$$$$.#++++",
"+++@$$$$$$$$$$$$$.#++++",
"+++@$$$$$$$$$$$$$.#++++",
"+++@$$$$$$$$$$$$$.#++++",
"+++@$$$$$$$$$$$$$.#++++",
"+++@$$$$$$$$$$$$$.#++++",
"+++@$$$$$$$$$$$$$.#++++",
"+++@$$$$$$$$$$$$$.#++++",
"+++@$$$$$$$$$$$$$.#++++",
"+++@$$$$$$$$$$$$$.#++++",
"+++@$$$$$$$$$$$$$.#++++",
"+++@$$$$$$$$$$$$$.#++++",
"+++@$$$$$$$$$$$$$.#++++",
"+++$..............#++++",
"+++################++++",
"+++++++++++++++++++++++",
"+++++++++++++++++++++++",
"@@@@@@@@@@@@@@@@@@@@@@@",
"#######################"};
