/* XPM */
static char *closeI[] = {
/* columns rows colors chars-per-pixel */
"24 48 6 1 ",
"  c #1F4845",
". c #4E4E4E",
"X c #3F938D",
"o c gray60",
"O c #A7CDCB",
"+ c #D1D1D2",
/* pixels */
"+++++++++++++++++++++++.",
"+oooooooooooooooooooooo.",
"+oooooooooooooooooooooo.",
"+oooooooooooooooooooooo.",
"+oooooooooooooooooooooo.",
"+oooo+++ooooooooo++.ooo.",
"+oooo+oo++oooooo+oo.ooo.",
"+oooo+oooo+ooo++ooo.ooo.",
"+ooooo.oooo+o+oooo.oooo.",
"+ooooo.oooo+o+oooo.oooo.",
"+oooooo.oooo+oooo.ooooo.",
"+ooooooo..oooooo.oooooo.",
"+ooooooooo.ooo++ooooooo.",
"+ooooooo++oooooo+oooooo.",
"+oooooo+oooo.oooo+ooooo.",
"+oooooo+oooo.oooo+ooooo.",
"+ooooo+oooo.o.oooo+oooo.",
"+oooo+oooo.ooo..ooo.ooo.",
"+oooo.oo..oooooo.oo.ooo.",
"+oooo...ooooooooo...ooo.",
"+oooooooooooooooooooooo.",
"+oooooooooooooooooooooo.",
"+oooooooooooooooooooooo.",
"+.......................",
".......................+",
".XXXXXXXXXXXXXXXXXXXXXX+",
".XXXXXXXXXXXXXXXXXXXXXX+",
".XXXXXXXXXXXXXXXXXXXXXX+",
".XXXXXXXXXXXXXXXXXXXXXX+",
".XXXXOOOXXXXXXXXXOO XXX+",
".XXXXOXXOOXXXXXXOXX XXX+",
".XXXXOXXXXOXXXOOXXX XXX+",
".XXXXX XXXXOXOXXXX XXXX+",
".XXXXX XXXXOXOXXXX XXXX+",
".XXXXXX XXXXOXXXX XXXXX+",
".XXXXXXX  XXXXXX XXXXXX+",
".XXXXXXXXX XXXOOXXXXXXX+",
".XXXXXXXOOXXXXXXOXXXXXX+",
".XXXXXXOXXXX XXXXOXXXXX+",
".XXXXXXOXXXX XXXXOXXXXX+",
".XXXXXOXXXX X XXXXOXXXX+",
".XXXXOXXXX XXX  XXX XXX+",
".XXXX XX  XXXXXX XX XXX+",
".XXXX   XXXXXXXXX   XXX+",
".XXXXXXXXXXXXXXXXXXXXXX+",
".XXXXXXXXXXXXXXXXXXXXXX+",
".XXXXXXXXXXXXXXXXXXXXXX+",
".+++++++++++++++++++++++"
};
