/* XPM */
static char *dframeIBR[] = {
/* columns rows colors chars-per-pixel */
"31 31 22 1 ",
"  c black",
". c #1F4845",
"X c gray46",
"o c #3F938D",
"O c #8C8982",
"+ c #939393",
"@ c #9E9A91",
"# c #9A9A99",
"$ c #9F9F9D",
"% c #A7CDCB",
"& c #D4D3CF",
"* c #D8D6D1",
"= c #DBD9D4",
"- c #DCDAD5",
"; c #DFDDD8",
": c #EFEFEF",
"> c #F1F0EE",
", c #F5F5F3",
"< c #F4F4F4",
"1 c gray98",
"2 c white",
"3 c None",
/* pixels */
"::::::O2-------------@ 33%.....",
"::::::O2-------------@ 33%%%%%.",
"::::::O2-------------@ 33%ooo..",
"::::::O2-------------@ 33%ooo..",
"::::::O2-------------@ 33%ooo..",
"::::::O2@@@@@@@@@@@@@@ 33%ooo..",
"::::::O                33%ooo..",
"::::::O222222222222222 33%ooo..",
"::::::O2-------------@ 33%ooo..",
"::::::O2-------------@ 33%ooo..",
"::::::O2-------------@ 33%ooo..",
"::::::O2-------------@ 33%ooo..",
"::::::O2--------==---@ 33%ooo..",
"::::::O2--$XXXXXX$---@ 33%ooo..",
"::::::O2--=##XXX$2>>-@ 33%ooo..",
"::::::O2--=**+X+1,---@ 33%ooo..",
"::::::O2-----&#<<;---@ 33%ooo..",
"::::::O2------;,;----@ 33%ooo..",
"::::::O2-------------@ 33%ooo..",
"::::::O2-------------@ 33%ooo..",
"::::::O2-------------@ 33%ooo..",
"::::::O2@@@@@@@@@@@@@@ 33%ooo..",
"::::::O                33%ooo..",
"3333333333333333333333333%ooo..",
"3333333333333333333333333%ooo..",
"%%%%%%%%%%%%%%%%%%%%%%%%%%ooo..",
".%ooooooooooooooooooooooooooo..",
".%ooooooooooooooooooooooooooo..",
".%ooooooooooooooooooooooooooo..",
".%.............................",
"..............................."
};
