/* XPM */
static char *dframeITR[] = {
/* columns rows colors chars-per-pixel */
"31 32 5 1 ",
"  c #1F4845",
". c #4E4E4E",
"X c #3F938D",
"o c #A7CDCB",
"O c None",
/* pixels */
".ooooooooooooooooooooooooooooo ",
".oooooooooooooooooooooooooooo  ",
".oXXXXXXXXXXXXXXXXXXXXXXXXXXX  ",
".oXXXXXXXXXXXXXXXXXXXXXXXXXXX  ",
".oXXXXXXXXXXXXXXXXXXXXXXXXXXX  ",
".o                        XXX  ",
"OOOOOOOOOOOOOOOOOOOOOOOOOoXXX  ",
"OOOOOOOOOOOOOOOOOOOOOOOOOoXXX  ",
"OOOOOOOOOOOOOOOOOOOOOOOOOoXXX  ",
"OOOOOOOOOOOOOOOOOOOOOOOOOoXXX  ",
"OOOOOOOOOOOOOOOOOOOOOOOOOoXXX  ",
"OOOOOOOOOOOOOOOOOOOOOOOOOoXXX  ",
"OOOOOOOOOOOOOOOOOOOOOOOOOoXXX  ",
"OOOOOOOOOOOOOOOOOOOOOOOOOoXXX  ",
"OOOOOOOOOOOOOOOOOOOOOOOOOoXXX  ",
"OOOOOOOOOOOOOOOOOOOOOOOOOoXXX  ",
"OOOOOOOOOOOOOOOOOOOOOOOOOoXXX  ",
"OOOOOOOOOOOOOOOOOOOOOOOOOoXXX  ",
"OOOOOOOOOOOOOOOOOOOOOOOOOoXXX  ",
"OOOOOOOOOOOOOOOOOOOOOOOOOoXXX  ",
"OOOOOOOOOOOOOOOOOOOOOOOOOoXXX  ",
"OOOOOOOOOOOOOOOOOOOOOOOOOoXXX  ",
"OOOOOOOOOOOOOOOOOOOOOOOOOoXXX  ",
"OOOOOOOOOOOOOOOOOOOOOOOOOoXXX  ",
"OOOOOOOOOOOOOOOOOOOOOOOOOoXXX  ",
"OOOOOOOOOOOOOOOOOOOOOOOOOoXXX  ",
"OOOOOOOOOOOOOOOOOOOOOOOOOoXXX  ",
"OOOOOOOOOOOOOOOOOOOOOOOOOoXXX  ",
"OOOOOOOOOOOOOOOOOOOOOOOOOoXXX  ",
"OOOOOOOOOOOOOOOOOOOOOOOOOoXXX  ",
"OOOOOOOOOOOOOOOOOOOOOOOOOo     ",
"OOOOOOOOOOOOOOOOOOOOOOOOOooooo "
};
