/* XPM */
static char * dframeATR_xpm[] = {
"31 32 4 1",
" 	c None",
".	c #597D6C",
"+	c #D7F4E7",
"@	c #A2E5C6",
".+++++++++++++++++++++++++++++.",
".++++++++++++++++++++++++++++..",
".+@@@@@@@@@@@@@@@@@@@@@@@@@@@..",
".+@@@@@@@@@@@@@@@@@@@@@@@@@@@..",
".+@@@@@@@@@@@@@@@@@@@@@@@@@@@..",
".+........................@@@..",
"                         +@@@..",
"                         +@@@..",
"                         +@@@..",
"                         +@@@..",
"                         +@@@..",
"                         +@@@..",
"                         +@@@..",
"                         +@@@..",
"                         +@@@..",
"                         +@@@..",
"                         +@@@..",
"                         +@@@..",
"                         +@@@..",
"                         +@@@..",
"                         +@@@..",
"                         +@@@..",
"                         +@@@..",
"                         +@@@..",
"                         +@@@..",
"                         +@@@..",
"                         +@@@..",
"                         +@@@..",
"                         +@@@..",
"                         +@@@..",
"                         +.....",
"                         +++++."};
