/* XPM */
static char *dframeIBL[] = {
/* columns rows colors chars-per-pixel */
"27 27 4 1 ",
"  c #1F4845",
". c #3F938D",
"X c #A7CDCB",
"o c #EFEFEF",
/* pixels */
"X     ooooooooooooooooooooo",
"XXXXX ooooooooooooooooooooo",
"XX... ooooooooooooooooooooo",
"XX... ooooooooooooooooooooo",
"XX... ooooooooooooooooooooo",
"XX... ooooooooooooooooooooo",
"XX... ooooooooooooooooooooo",
"XX... ooooooooooooooooooooo",
"XX... ooooooooooooooooooooo",
"XX... ooooooooooooooooooooo",
"XX... ooooooooooooooooooooo",
"XX... ooooooooooooooooooooo",
"XX... ooooooooooooooooooooo",
"XX... ooooooooooooooooooooo",
"XX... ooooooooooooooooooooo",
"XX... ooooooooooooooooooooo",
"XX... ooooooooooooooooooooo",
"XX... ooooooooooooooooooooo",
"XX... ooooooooooooooooooooo",
"XX... ooooooooooooooooooooo",
"XX... ooooooooooooooooooooo",
"XX... XXXXXXXXXXXXXXXXXXXXX",
"XX....................... X",
"XX....................... X",
"XX....................... X",
"XX                        X",
"X                          "
};
