/* XPM */
static char *frameATL[] = {
/* columns rows colors chars-per-pixel */
"31 32 4 1 ",
"  c #597D6C",
". c #A2E5C6",
"X c #D7F4E7",
"o c None",
/* pixels */
"XXXXXXXXXXXXXXXXXXXXXXXXXXXXXXX",
"XXXXXXXXXXXXXXXXXXXXXXXXXXXXX X",
"XX........................... X",
"XX........................... X",
"XX........................... X",
"XX...                          ",
"XX... ooooooooooooooooooooooooo",
"XX... ooooooooooooooooooooooooo",
"XX... ooooooooooooooooooooooooo",
"XX... ooooooooooooooooooooooooo",
"XX... ooooooooooooooooooooooooo",
"XX... ooooooooooooooooooooooooo",
"XX... ooooooooooooooooooooooooo",
"XX... ooooooooooooooooooooooooo",
"XX... ooooooooooooooooooooooooo",
"XX... ooooooooooooooooooooooooo",
"XX... ooooooooooooooooooooooooo",
"XX... ooooooooooooooooooooooooo",
"XX... ooooooooooooooooooooooooo",
"XX... ooooooooooooooooooooooooo",
"XX... ooooooooooooooooooooooooo",
"XX... ooooooooooooooooooooooooo",
"XX... ooooooooooooooooooooooooo",
"XX... ooooooooooooooooooooooooo",
"XX... ooooooooooooooooooooooooo",
"XX... ooooooooooooooooooooooooo",
"XX... ooooooooooooooooooooooooo",
"XX... ooooooooooooooooooooooooo",
"XX... ooooooooooooooooooooooooo",
"XX... ooooooooooooooooooooooooo",
"      ooooooooooooooooooooooooo",
"XXXXX ooooooooooooooooooooooooo"
};
