/* XPM */
static char *restoreI[] = {
/* columns rows colors chars-per-pixel */
"24 48 3 1 ",
"  c #1F4845",
". c #3F938D",
"X c #A7CDCB",
/* pixels */
"XXXXXXXXXXXXXXXXXXXXXXX ",
"X...................... ",
"X...................... ",
"X...................... ",
"X...................... ",
"X...................... ",
"X.....             .... ",
"X..... ...........X.... ",
"X..... ...........X.... ",
"X..... ...........X.... ",
"X..... ...........X.... ",
"X..... ...........X.... ",
"X..... ...........X.... ",
"X..... ...........X.... ",
"X..... ...........X.... ",
"X..... ...........X.... ",
"X..... ...........X.... ",
"X..... ...........X.... ",
"X.....XXXXXXXXXXXXX.... ",
"X...................... ",
"X...................... ",
"X...................... ",
"X...................... ",
"X                       ",
"                       X",
" ......................X",
" ......................X",
" ......................X",
" ......................X",
" ......................X",
" .....             ....X",
" ..... ...........X....X",
" ..... ...........X....X",
" ..... ...........X....X",
" ..... ...........X....X",
" ..... ...........X....X",
" ..... ...........X....X",
" ..... ...........X....X",
" ..... ...........X....X",
" ..... ...........X....X",
" ..... ...........X....X",
" ..... ...........X....X",
" .....XXXXXXXXXXXXX....X",
" ......................X",
" ......................X",
" ......................X",
" ......................X",
" XXXXXXXXXXXXXXXXXXXXXXX"
};
