/* XPM */
static char *rolldownI[] = {
/* columns rows colors chars-per-pixel */
"24 48 3 1 ",
"  c #1F4845",
". c #3F938D",
"X c #A7CDCB",
/* pixels */
"XXXXXXXXXXXXXXXXXXXXXXX ",
"X...................... ",
"X...................... ",
"X...................... ",
"X...................... ",
"X...................... ",
"X...........X.......... ",
"X..........X. ......... ",
"X..........X. ......... ",
"X..........X. ......... ",
"X.........X...  ....... ",
"X.........X...  ....... ",
"X.......XX...... ...... ",
"X.......XX...... ...... ",
"X......X......... ..... ",
"X......X......... ..... ",
"X......X......... ..... ",
"X.....X........... .... ",
"X.....X            .... ",
"X...................... ",
"X...................... ",
"X...................... ",
"X...................... ",
"X                       ",
"                       X",
" ......................X",
" ......................X",
" ......................X",
" ......................X",
" ......................X",
" ...........X..........X",
" ..........X. .........X",
" ..........X. .........X",
" ..........X. .........X",
" .........X...  .......X",
" .........X...  .......X",
" .......XX...... ......X",
" .......XX...... ......X",
" ......X......... .....X",
" ......X......... .....X",
" ......X......... .....X",
" .....X........... ....X",
" .....X            ....X",
" ......................X",
" ......................X",
" ......................X",
" ......................X",
" XXXXXXXXXXXXXXXXXXXXXXX"
};
