/* XPM */
static char * rollupI_xpm[] = {
"24 48 3 1",
" 	c #A7CDCB",
".	c #1F4845",
"+	c #3F938D",
"                       .",
" ++++++++++++++++++++++.",
" ++++++++++++++++++++++.",
" ++++++++++++++++++++++.",
" ++++++++++++++++++++++.",
" ++++++++++++++++++++++.",
" +++++++++++ ++++++++++.",
" ++++++++++ +.+++++++++.",
" ++++++++++ +.+++++++++.",
" ++++++++++ +.+++++++++.",
" +++++++++ +++..+++++++.",
" +++++++++ +++..+++++++.",
" +++++++  ++++++.++++++.",
" +++++++  ++++++.++++++.",
" ++++++ +++++++++.+++++.",
" ++++++ +++++++++.+++++.",
" ++++++ +++++++++.+++++.",
" +++++ +++++++++++.++++.",
" +++++ ............++++.",
" ++++++++++++++++++++++.",
" ++++++++++++++++++++++.",
" ++++++++++++++++++++++.",
" ++++++++++++++++++++++.",
" .......................",
"....................... ",
".++++++++++++++++++++++ ",
".++++++++++++++++++++++ ",
".++++++++++++++++++++++ ",
".++++++++++++++++++++++ ",
".++++++++++++++++++++++ ",
".+++++++++++ ++++++++++ ",
".++++++++++ +.+++++++++ ",
".++++++++++ +.+++++++++ ",
".++++++++++ +.+++++++++ ",
".+++++++++ +++..+++++++ ",
".+++++++++ +++..+++++++ ",
".+++++++  ++++++.++++++ ",
".+++++++  ++++++.++++++ ",
".++++++ +++++++++.+++++ ",
".++++++ +++++++++.+++++ ",
".++++++ +++++++++.+++++ ",
".+++++ +++++++++++.++++ ",
".+++++ ............++++ ",
".++++++++++++++++++++++ ",
".++++++++++++++++++++++ ",
".++++++++++++++++++++++ ",
".++++++++++++++++++++++ ",
".                       "};
