/* XPM */
static char *icewm_button[] = {
"19 38 7 1",
" 	c None",
".	c #000000",
"+	c #ffffff",
"@	c #aaaaaa",
"#	c #aaaaaa",
"$	c #555555",
"%	c #000000",
"...................",
".++++++++++++++++@.",
".+###############$.",
".+###############$.",
".+###############$.",
".+###############$.",
".+####%%###%%####$.",
".+####%%%#%%%####$.",
".+#####%%%%%#####$.",
".+######%%%######$.",
".+#####%%%%%#####$.",
".+####%%%#%%%####$.",
".+####%%###%%####$.",
".+###############$.",
".+###############$.",
".+###############$.",
".+###############$.",
".@$$$$$$$$$$$$$$$$.",
"..................."};,
"...................",
".++++++++++++++++@.",
".+###############$.",
".+###############$.",
".+###############$.",
".+###############$.",
".+####%%###%%####$.",
".+####%%%#%%%####$.",
".+#####%%%%%#####$.",
".+######%%%######$.",
".+#####%%%%%#####$.",
".+####%%%#%%%####$.",
".+####%%###%%####$.",
".+###############$.",
".+###############$.",
".+###############$.",
".+###############$.",
".@$$$$$$$$$$$$$$$$.",
"..................."};};
