/* XPM */
static char *icewm_button[] = {
"19 38 4 1",
" 	c None",
".	c #000000",
"+	c #000000",
"@	c #ffffff",
"...................",
".+++++++++++++++++.",
".+++++++++++++++++.",
".+++++++++++++++++.",
".+++++++++++++++++.",
".+++++++++++++++++.",
".+++++++++++++++++.",
".++++++@@@@@@@++++.",
".++++++@+@+@+@++++.",
".+++++++++@+++++++.",
".++++++++@@@++++++.",
".+++++++@@@@@+++++.",
".++++++@@@+@@@++++.",
".++++++@@+++@@++++.",
".+++++++++++++++++.",
".+++++++++++++++++.",
".+++++++++++++++++.",
".+++++++++++++++++.",
"..................."};,
"...................",
".+++++++++++++++++.",
".+++++++++++++++++.",
".+++++++++++++++++.",
".+++++++++++++++++.",
".+++++++++++++++++.",
".+++++++++++++++++.",
".++++++@@@@@@@++++.",
".++++++@+@+@+@++++.",
".+++++++++@+++++++.",
".++++++++@@@++++++.",
".+++++++@@@@@+++++.",
".++++++@@@+@@@++++.",
".++++++@@+++@@++++.",
".+++++++++++++++++.",
".+++++++++++++++++.",
".+++++++++++++++++.",
".+++++++++++++++++.",
"..................."};};
