/* XPM */
static char *restoreA_xpm[] = {
"22 44 5 1",
". c #B6B6B6",
"+ c #000000",
"@ c #5c5c7f",
"# c #616161",
"$ c #ffffff",
".....................+",
".@@@@@@@@@@@@@@@@@@@#+",
".@@@@@@@@@@@@@@@@@@@#+",
".@@@@@@@@@@@@@@@@@@@#+",
".@@@@@@@@@@@@@@@@@@@#+",
".@@@@@@@@@$@@@@@@@@@#+",
".@@@@@@@@$$$@@@@@@@@#+",
".@@@@@@@$$$$$@@@@@@@#+",
".@@@@@@$$$@$$$@@@@@@#+",
".@@@@@$$$@@@$$$@@@@@#+",
".@@@@$$$@@@@@$$$@@@@#+",
".@@@@@$$$@@@$$$@@@@@#+",
".@@@@@@$$$@$$$@@@@@@#+",
".@@@@@@@$$$$$@@@@@@@#+",
".@@@@@@@@$$$@@@@@@@@#+",
".@@@@@@@@@$@@@@@@@@@#+",
".@@@@@@@@@@@@@@@@@@@#+",
".@@@@@@@@@@@@@@@@@@@#+",
".@@@@@@@@@@@@@@@@@@@#+",
".@@@@@@@@@@@@@@@@@@@#+",
"#####################+",
"++++++++++++++++++++++",
"#####################+",
"#@@@@@@@@@@@@@@@@@@@.+",
"#@@@@@@@@@@@@@@@@@@@.+",
"#@@@@@@@@@@@@@@@@@@@.+",
"#@@@@@@@@@@@@@@@@@@@.+",
"#@@@@@@@@@@@@@@@@@@@.+",
"#@@@@@@@@@@$@@@@@@@@.+",
"#@@@@@@@@@$$$@@@@@@@.+",
"#@@@@@@@@$$$$$@@@@@@.+",
"#@@@@@@@$$$@$$$@@@@@.+",
"#@@@@@@$$$@@@$$$@@@@.+",
"#@@@@@$$$@@@@@$$$@@@.+",
"#@@@@@@$$$@@@$$$@@@@.+",
"#@@@@@@@$$$@$$$@@@@@.+",
"#@@@@@@@@$$$$$@@@@@@.+",
"#@@@@@@@@@$$$@@@@@@@.+",
"#@@@@@@@@@@$@@@@@@@@.+",
"#@@@@@@@@@@@@@@@@@@@.+",
"#@@@@@@@@@@@@@@@@@@@.+",
"#@@@@@@@@@@@@@@@@@@@.+",
".....................+",
"++++++++++++++++++++++"};
