/* XPM */
static char * buttonI_xpm[] = {
"76 22 5 1",
" 	c #809481",
".	c #000000",
"+	c #687969",
"@	c #687969",
"#	c #343C34",
"                                                                          .+",
" @@@@@@@@@@@@@@@@@@@@@@@@@@@@@@@@@@@@@@@@@@@@@@@@@@@@@@@@@@@@@@@@@@@@@@@@#.+",
" @+++++++++++++++++++++++++++++++++++++++++++++++++++++++++++++++++++++++#.+",
" @+++++++++++++++++++++++++++++++++++++++++++++++++++++++++++++++++++++++#.+",
" @+++++++++++++++++++++++++++++++++++++++++++++++++++++++++++++++++++++++#.+",
" @+++++++++++++++++++++++++++++++++++++++++++++++++++++++++++++++++++++++#.+",
" @+++++++++++++++++++++++++++++++++++++++++++++++++++++++++++++++++++++++#.+",
" @+++++++++++++++++++++++++++++++++++++++++++++++++++++++++++++++++++++++#.+",
" @+++++++++++++++++++++++++++++++++++++++++++++++++++++++++++++++++++++++#.+",
" @+++++++++++++++++++++++++++++++++++++++++++++++++++++++++++++++++++++++#.+",
" @+++++++++++++++++++++++++++++++++++++++++++++++++++++++++++++++++++++++#.+",
" @+++++++++++++++++++++++++++++++++++++++++++++++++++++++++++++++++++++++#.+",
" @+++++++++++++++++++++++++++++++++++++++++++++++++++++++++++++++++++++++#.+",
" @+++++++++++++++++++++++++++++++++++++++++++++++++++++++++++++++++++++++#.+",
" @+++++++++++++++++++++++++++++++++++++++++++++++++++++++++++++++++++++++#.+",
" @+++++++++++++++++++++++++++++++++++++++++++++++++++++++++++++++++++++++#.+",
" @+++++++++++++++++++++++++++++++++++++++++++++++++++++++++++++++++++++++#.+",
" @+++++++++++++++++++++++++++++++++++++++++++++++++++++++++++++++++++++++#.+",
" @+++++++++++++++++++++++++++++++++++++++++++++++++++++++++++++++++++++++#.+",
" #########################################################################.+",
"...........................................................................+",
"++++++++++++++++++++++++++++++++++++++++++++++++++++++++++++++++++++++++++++"};
