/* XPM */
static char *dframeABL_xpm[] = {
"23 23 5 1",
"  c #000000",
". c #ffffff",
"+ c #517c5f",
"@ c #30573c",
"# c None",
" .++@ #################",
" .++@ #################",
" .++@ #################",
" .++@ #################",
" .++@ #################",
" .++@ #################",
" .++@ #################",
" .++@ #################",
" .++@ #################",
" .++@ #################",
" .++@ #################",
" .++@ #################",
" .++@ #################",
" .++@ #################",
" .++@ #################",
" .++@ #################",
" .++@ #################",
" .++@                  ",
" .+++..................",
" .+++++++++++++++++++++",
" .+++++++++++++++++++++",
" +@@@@@@@@@@@@@@@@@@@@@",
"                       "};
