/* XPM */
static char *rolldownA_xpm[] = {
"16 38 5 1",
". c #517c5f",
"+ c #30573c",
"@ c #000000",
"# c #ffffff",
"$ c #85a38f",
"................",
"++++++++++++....",
"+@@@@@@@@@@@#...",
"+@#........@#...",
"+@........+@#...",
"+@........+@#...",
"+@.......$+@#...",
"+@......$$+@#...",
"+@.....$$$+@#...",
"+@....$$$$+@#...",
"+@...$$$$#+@#...",
"+@.++++++++@#...",
"+@@@@@@@@@@@#...",
".############...",
"................",
"................",
"................",
"++++++++++++++++",
"@@@@@@@@@@@@@@@@",
"................",
"++++++++++++....",
"+@@@@@@@@@@@#...",
"+@+++++++++@#...",
"+@+#.......@#...",
"+@+........@#...",
"+@+........@#...",
"+@+.......$@#...",
"+@+......$$@#...",
"+@+.....$$$@#...",
"+@+....$$$$@#...",
"+@+...$$$$#@#...",
"+@@@@@@@@@@@#...",
".############...",
"................",
"................",
"................",
"++++++++++++++++",
"@@@@@@@@@@@@@@@@"};
