/* XPM */
static char * frameABR_xpm[] = {
"31 31 29 1",
" 	c None",
".	c #dce4df",
"+	c #6d7872",
"@	c #ffffff",
"#	c #aec0b6",
"$	c #7a8780",
"%	c #000000",
"&	c #b9c8c0",
"*	c #4c5450",
"=	c #90a097",
"-	c #7e8b84",
";	c #5d6661",
">	c #acbeb4",
",	c #7b8880",
"'	c #7e8b84",
")	c #fbfcfb",
"!	c #dee5e2",
"~	c #aabbb2",
"{	c #727e77",
"]	c #75817a",
"^	c #f4f6f5",
"/	c #e6ece9",
"(	c #a7b9af",
"_	c #7a8780",
":	c #e7ece9",
"<	c #edf1ef",
"[	c #b1c2b8",
"}	c #b5c5bc",
"|	c #e9edeb",
"......+@#############$%  &*****",
"......+@#############$%  &&&&&*",
"......+@#############$%  &===**",
"......+@#############$%  &===**",
"......+@#############$%  &===**",
"......+@$$$$$$$$$$$$$$%  &===**",
"......+%%%%%%%%%%%%%%%%  &===**",
"......+@@@@@@@@@@@@@@@%  &===**",
"......+@#############$%  &===**",
"......+@#############$%  &===**",
"......+@#############$%  &===**",
"......+@#############$%  &===**",
"......+@#############$%  &===**",
"......+@##-;;;;;;-###$%  &===**",
"......+@##>,,;;;')!!#$%  &===**",
"......+@###~~{;]^/###$%  &===**",
"......+@#####(_:<[###$%  &===**",
"......+@######}|}####$%  &===**",
"......+@#############$%  &===**",
"......+@#############$%  &===**",
"......+@#############$%  &===**",
"......+@$$$$$$$$$$$$$$%  &===**",
"......+%%%%%%%%%%%%%%%%  &===**",
"                         &===**",
"                         &===**",
"&&&&&&&&&&&&&&&&&&&&&&&&&&===**",
"*&===========================**",
"*&===========================**",
"*&===========================**",
"*&*****************************",
"*******************************"};
