/* XPM */
static char * restoreI_xpm[] = {
"24 48 3 1",
" 	c #a7b0ac",
".	c #38403c",
"+	c #6e7d76",
"                       .",
" ++++++++++++++++++++++.",
" ++++++++++++++++++++++.",
" ++++++++++++++++++++++.",
" ++++++++++++++++++++++.",
" ++++++++++++++++++++++.",
" +++++.............++++.",
" +++++.+++++++++++ ++++.",
" +++++.+++++++++++ ++++.",
" +++++.+++++++++++ ++++.",
" +++++.+++++++++++ ++++.",
" +++++.+++++++++++ ++++.",
" +++++.+++++++++++ ++++.",
" +++++.+++++++++++ ++++.",
" +++++.+++++++++++ ++++.",
" +++++.+++++++++++ ++++.",
" +++++.+++++++++++ ++++.",
" +++++.+++++++++++ ++++.",
" +++++             ++++.",
" ++++++++++++++++++++++.",
" ++++++++++++++++++++++.",
" ++++++++++++++++++++++.",
" ++++++++++++++++++++++.",
" .......................",
"....................... ",
".++++++++++++++++++++++ ",
".++++++++++++++++++++++ ",
".++++++++++++++++++++++ ",
".++++++++++++++++++++++ ",
".++++++++++++++++++++++ ",
".+++++.............++++ ",
".+++++.+++++++++++ ++++ ",
".+++++.+++++++++++ ++++ ",
".+++++.+++++++++++ ++++ ",
".+++++.+++++++++++ ++++ ",
".+++++.+++++++++++ ++++ ",
".+++++.+++++++++++ ++++ ",
".+++++.+++++++++++ ++++ ",
".+++++.+++++++++++ ++++ ",
".+++++.+++++++++++ ++++ ",
".+++++.+++++++++++ ++++ ",
".+++++.+++++++++++ ++++ ",
".+++++             ++++ ",
".++++++++++++++++++++++ ",
".++++++++++++++++++++++ ",
".++++++++++++++++++++++ ",
".++++++++++++++++++++++ ",
".                       "};
