/* XPM */
static char *minimizeI_xpm[] = {
"22 44 5 1",
". c #B6B6B6",
"+ c #000000",
"@ c #403f3e",
"# c #616161",
"$ c #ffffff",
".....................+",
".@@@@@@@@@@@@@@@@@@@#+",
".@@@@@@@@@@@@@@@@@@@#+",
".@@@@@@@@@@@@@@@@@@@#+",
".@@@@@@@@@@@@@@@@@@@#+",
".@@@@@@@@@@@@@@@@@@@#+",
".@@@@@@@@@@@@@@@@@@@#+",
".@@@@@@@@@@@@@@@@@@@#+",
".@@@@@$$@@@@@$$@@@@@#+",
".@@@@@$$$@@@$$$@@@@@#+",
".@@@@@@$$$@$$$@@@@@@#+",
".@@@@@@@$$$$$@@@@@@@#+",
".@@@@@@@@$$$@@@@@@@@#+",
".@@@@@@@@@$@@@@@@@@@#+",
".@@@@@@@@@@@@@@@@@@@#+",
".@@@@@@@@@@@@@@@@@@@#+",
".@@@@@@@@@@@@@@@@@@@#+",
".@@@@@@@@@@@@@@@@@@@#+",
".@@@@@@@@@@@@@@@@@@@#+",
".@@@@@@@@@@@@@@@@@@@#+",
"#####################+",
"++++++++++++++++++++++",
"#####################+",
"#@@@@@@@@@@@@@@@@@@@.+",
"#@@@@@@@@@@@@@@@@@@@.+",
"#@@@@@@@@@@@@@@@@@@@.+",
"#@@@@@@@@@@@@@@@@@@@.+",
"#@@@@@@@@@@@@@@@@@@@.+",
"#@@@@@@@@@@@@@@@@@@@.+",
"#@@@@@@@@@@@@@@@@@@@.+",
"#@@@@@@@@@@@@@@@@@@@.+",
"#@@@@@@$$@@@@@$$@@@@.+",
"#@@@@@@$$$@@@$$$@@@@.+",
"#@@@@@@@$$$@$$$@@@@@.+",
"#@@@@@@@@$$$$$@@@@@@.+",
"#@@@@@@@@@$$$@@@@@@@.+",
"#@@@@@@@@@@$@@@@@@@@.+",
"#@@@@@@@@@@@@@@@@@@@.+",
"#@@@@@@@@@@@@@@@@@@@.+",
"#@@@@@@@@@@@@@@@@@@@.+",
"#@@@@@@@@@@@@@@@@@@@.+",
"#@@@@@@@@@@@@@@@@@@@.+",
".....................+",
"++++++++++++++++++++++"};
