/* XPM */
static char * frameABR_xpm[] = {
"31 31 29 1",
" 	c None",
".	c #efd4bf",
"+	c #8a6142",
"@	c #ffffff",
"#	c #db9d6c",
"$	c #9b6d4a",
"%	c #000000",
"&	c #e0aa80",
"*	c #61442e",
"=	c #b78157",
"-	c #9f714c",
";	c #765338",
">	c #da9a68",
",	c #9c6e4a",
"'	c #a0714c",
")	c #fdfaf7",
"!	c #f0d7c4",
"~	c #d79867",
"{	c #916645",
"]	c #946846",
"^	c #faf2eb",
"/	c #f4e1d2",
"(	c #d49665",
"_	c #9b6d4a",
":	c #f4e2d3",
"<	c #f7e9df",
"[	c #dca070",
"}	c #dea578",
"|	c #f5e4d6",
"......+@#############$%  &*****",
"......+@#############$%  &&&&&*",
"......+@#############$%  &===**",
"......+@#############$%  &===**",
"......+@#############$%  &===**",
"......+@$$$$$$$$$$$$$$%  &===**",
"......+%%%%%%%%%%%%%%%%  &===**",
"......+@@@@@@@@@@@@@@@%  &===**",
"......+@#############$%  &===**",
"......+@#############$%  &===**",
"......+@#############$%  &===**",
"......+@#############$%  &===**",
"......+@#############$%  &===**",
"......+@##-;;;;;;-###$%  &===**",
"......+@##>,,;;;')!!#$%  &===**",
"......+@###~~{;]^/###$%  &===**",
"......+@#####(_:<[###$%  &===**",
"......+@######}|}####$%  &===**",
"......+@#############$%  &===**",
"......+@#############$%  &===**",
"......+@#############$%  &===**",
"......+@$$$$$$$$$$$$$$%  &===**",
"......+%%%%%%%%%%%%%%%%  &===**",
"                         &===**",
"                         &===**",
"&&&&&&&&&&&&&&&&&&&&&&&&&&===**",
"*&===========================**",
"*&===========================**",
"*&===========================**",
"*&*****************************",
"*******************************"};
