/* XPM */
static char * frameIBL_xpm[] = {
"31 31 6 1",
" 	c #b4aa94",
".	c #524d43",
"+	c #e5e1da",
"@	c #847c6c",
"#	c #ffffff",
"$	c #433f37",
" ......++++++++++++++++++++++++",
"      .++++++++++++++++++++++++",
"  @@@@.++++++++++++++++++++++++",
"  @@@@.++++++++++++++++++++++++",
"  @@@@.++++++++++++++++++++++++",
"  @@@@.++++++++++++++++++++++++",
"  @@@@.++++++++++++++++++++++++",
"  @@@@.++++++++++++++++++++++++",
"  @@@@.++++++++++++++++++++++++",
"  @@@@.++++++++++++++++++++++++",
"  @@@@.++++++++++++++++++++++++",
"  @@@@.++++++++++++++++++++++++",
"  @@@@.++++++++++++++++++++++++",
"  @@@@.++++++++++++++++++++++++",
"  @@@@.++++++++++++++++++++++++",
"  @@@@.++++++++++++++++++++++++",
"  @@@@.++++++++++++++++++++++++",
"  @@@@.++++++++++++++++++++++++",
"  @@@@.++++++++++++++++++++++++",
"  @@@@.++++++++++++++++++++++++",
"  @@@@.++++++++++++++++++++++++",
"  @@@@.++++++++++++++++++++++++",
"  @@@@.++++++++++++++++++++++++",
"  @@@@.++++++++++++++++++++++++",
"  @@@@.########################",
"  @@@@@@@@@@@@@@@@@@@@@@@@@@@$#",
"  @@@@@@@@@@@@@@@@@@@@@@@@@@@$#",
"  @@@@@@@@@@@@@@@@@@@@@@@@@@@$#",
"  @@@@@@@@@@@@@@@@@@@@@@@@@@@$#",
"  $$$$$$$$$$$$$$$$$$$$$$$$$$$$#",
" $$$$$$$$$$$$$$$$$$$$$$$$$$$$$$"};
