/* XPM */
static char * menuButtonI_xpm[] = {
"24 48 3 1",
" 	c #ddd9cf",
".	c #5c574b",
"+	c #b4aa94",
"                       .",
" ++++++++++++++++++++++.",
" ++++++++++++++++++++++.",
" ++++++++++++++++++++++.",
" ++++++++++++++++++++++.",
" ++++++++++++++++++++++.",
" ++++++++++++++++++++++.",
" ++++++++++++++++++++++.",
" ++++++++++++++++++++++.",
" ++++             .++++.",
" ++++ ++++++++++++.++++.",
" ++++ ++++++++++++.++++.",
" ++++ ++++++++++++.++++.",
" ++++ ++++++++++++.++++.",
" ++++ .............++++.",
" ++++++++++++++++++++++.",
" ++++++++++++++++++++++.",
" ++++++++++++++++++++++.",
" ++++++++++++++++++++++.",
" ++++++++++++++++++++++.",
" ++++++++++++++++++++++.",
" ++++++++++++++++++++++.",
" ++++++++++++++++++++++.",
" .......................",
"....................... ",
".++++++++++++++++++++++ ",
".++++++++++++++++++++++ ",
".++++++++++++++++++++++ ",
".++++++++++++++++++++++ ",
".++++++++++++++++++++++ ",
".++++++++++++++++++++++ ",
".++++++++++++++++++++++ ",
".++++++++++++++++++++++ ",
".++++             .++++ ",
".++++ ++++++++++++.++++ ",
".++++ ++++++++++++.++++ ",
".++++ ++++++++++++.++++ ",
".++++ ++++++++++++.++++ ",
".++++ .............++++ ",
".++++++++++++++++++++++ ",
".++++++++++++++++++++++ ",
".++++++++++++++++++++++ ",
".++++++++++++++++++++++ ",
".++++++++++++++++++++++ ",
".++++++++++++++++++++++ ",
".++++++++++++++++++++++ ",
".++++++++++++++++++++++ ",
".                       "};
