/* XPM */
static char * restoreA_xpm[] = {
"24 48 3 1",
" 	c #efd3bd",
".	c #735137",
"+	c #da9a68",
"                       .",
" ++++++++++++++++++++++.",
" ++++++++++++++++++++++.",
" ++++++++++++++++++++++.",
" ++++++++++++++++++++++.",
" ++++++++++++++++++++++.",
" +++++.............++++.",
" +++++.+++++++++++ ++++.",
" +++++.+++++++++++ ++++.",
" +++++.+++++++++++ ++++.",
" +++++.+++++++++++ ++++.",
" +++++.+++++++++++ ++++.",
" +++++.+++++++++++ ++++.",
" +++++.+++++++++++ ++++.",
" +++++.+++++++++++ ++++.",
" +++++.+++++++++++ ++++.",
" +++++.+++++++++++ ++++.",
" +++++.+++++++++++ ++++.",
" +++++             ++++.",
" ++++++++++++++++++++++.",
" ++++++++++++++++++++++.",
" ++++++++++++++++++++++.",
" ++++++++++++++++++++++.",
" .......................",
"....................... ",
".++++++++++++++++++++++ ",
".++++++++++++++++++++++ ",
".++++++++++++++++++++++ ",
".++++++++++++++++++++++ ",
".++++++++++++++++++++++ ",
".+++++.............++++ ",
".+++++.+++++++++++ ++++ ",
".+++++.+++++++++++ ++++ ",
".+++++.+++++++++++ ++++ ",
".+++++.+++++++++++ ++++ ",
".+++++.+++++++++++ ++++ ",
".+++++.+++++++++++ ++++ ",
".+++++.+++++++++++ ++++ ",
".+++++.+++++++++++ ++++ ",
".+++++.+++++++++++ ++++ ",
".+++++.+++++++++++ ++++ ",
".+++++.+++++++++++ ++++ ",
".+++++             ++++ ",
".++++++++++++++++++++++ ",
".++++++++++++++++++++++ ",
".++++++++++++++++++++++ ",
".++++++++++++++++++++++ ",
".                       "};
