/* XPM */
static char * dframeITR_xpm[] = {
"31 32 4 1",
" 	c None",
".	c #655959",
"+	c #e6dbdb",
"@	c #c7afaf",
".+++++++++++++++++++++++++++++.",
".++++++++++++++++++++++++++++..",
".+@@@@@@@@@@@@@@@@@@@@@@@@@@@..",
".+@@@@@@@@@@@@@@@@@@@@@@@@@@@..",
".+@@@@@@@@@@@@@@@@@@@@@@@@@@@..",
".+........................@@@..",
"                         +@@@..",
"                         +@@@..",
"                         +@@@..",
"                         +@@@..",
"                         +@@@..",
"                         +@@@..",
"                         +@@@..",
"                         +@@@..",
"                         +@@@..",
"                         +@@@..",
"                         +@@@..",
"                         +@@@..",
"                         +@@@..",
"                         +@@@..",
"                         +@@@..",
"                         +@@@..",
"                         +@@@..",
"                         +@@@..",
"                         +@@@..",
"                         +@@@..",
"                         +@@@..",
"                         +@@@..",
"                         +@@@..",
"                         +@@@..",
"                         +.....",
"                         +++++."};
