/* XPM */
static char * frameABL_xpm[] = {
"27 27 4 1",
" 	c #eabe93",
".	c #65523f",
"+	c #f4dec9",
"@	c #bf9b78",
" .....+++++++++++++++++++++",
"     .+++++++++++++++++++++",
"  @@@.+++++++++++++++++++++",
"  @@@.+++++++++++++++++++++",
"  @@@.+++++++++++++++++++++",
"  @@@.+++++++++++++++++++++",
"  @@@.+++++++++++++++++++++",
"  @@@.+++++++++++++++++++++",
"  @@@.+++++++++++++++++++++",
"  @@@.+++++++++++++++++++++",
"  @@@.+++++++++++++++++++++",
"  @@@.+++++++++++++++++++++",
"  @@@.+++++++++++++++++++++",
"  @@@.+++++++++++++++++++++",
"  @@@.+++++++++++++++++++++",
"  @@@.+++++++++++++++++++++",
"  @@@.+++++++++++++++++++++",
"  @@@.+++++++++++++++++++++",
"  @@@.+++++++++++++++++++++",
"  @@@.+++++++++++++++++++++",
"  @@@.+++++++++++++++++++++",
"  @@@.                     ",
"  @@@@@@@@@@@@@@@@@@@@@@@. ",
"  @@@@@@@@@@@@@@@@@@@@@@@. ",
"  @@@@@@@@@@@@@@@@@@@@@@@. ",
"  ........................ ",
" .........................."};
