/* XPM */
static char * rollupA_xpm[] = {
"24 48 3 1",
" 	c #f6e3d0",
".	c #7c644e",
"+	c #eabe93",
"                       .",
" ++++++++++++++++++++++.",
" ++++++++++++++++++++++.",
" ++++++++++++++++++++++.",
" ++++++++++++++++++++++.",
" ++++++++++++++++++++++.",
" +++++++++++ ++++++++++.",
" ++++++++++ +.+++++++++.",
" ++++++++++ +.+++++++++.",
" ++++++++++ +.+++++++++.",
" +++++++++ +++..+++++++.",
" +++++++++ +++..+++++++.",
" +++++++  ++++++.++++++.",
" +++++++  ++++++.++++++.",
" ++++++ +++++++++.+++++.",
" ++++++ +++++++++.+++++.",
" ++++++ +++++++++.+++++.",
" +++++ +++++++++++.++++.",
" +++++ ............++++.",
" ++++++++++++++++++++++.",
" ++++++++++++++++++++++.",
" ++++++++++++++++++++++.",
" ++++++++++++++++++++++.",
" .......................",
"....................... ",
".++++++++++++++++++++++ ",
".++++++++++++++++++++++ ",
".++++++++++++++++++++++ ",
".++++++++++++++++++++++ ",
".++++++++++++++++++++++ ",
".+++++++++++ ++++++++++ ",
".++++++++++ +.+++++++++ ",
".++++++++++ +.+++++++++ ",
".++++++++++ +.+++++++++ ",
".+++++++++ +++..+++++++ ",
".+++++++++ +++..+++++++ ",
".+++++++  ++++++.++++++ ",
".+++++++  ++++++.++++++ ",
".++++++ +++++++++.+++++ ",
".++++++ +++++++++.+++++ ",
".++++++ +++++++++.+++++ ",
".+++++ +++++++++++.++++ ",
".+++++ ............++++ ",
".++++++++++++++++++++++ ",
".++++++++++++++++++++++ ",
".++++++++++++++++++++++ ",
".++++++++++++++++++++++ ",
".                       "};
