/* XPM */
static char *rolldownI_xpm[] = {
"21 44 4 1",
". c #B6B6B6",
"+ c #f0f0f0",
"@ c #616161",
"# c #000000",
".....................",
".+++++++++++++++++++@",
".+++++++++++++++++++@",
".+++++++++++++++++++@",
".+++++++++++++++++++@",
".+++++++++++++++++++@",
".+++++++++++++++++++@",
".++++++#########++++@",
".++++++#+#+#+#+#++++@",
".++++++++++#++++++++@",
".+++++++++###+++++++@",
".++++++++#####++++++@",
".+++++++###+###+++++@",
".++++++###+++###++++@",
".++++++##+++++##++++@",
".+++++++++++++++++++@",
".+++++++++++++++++++@",
".+++++++++++++++++++@",
".+++++++++++++++++++@",
".+++++++++++++++++++@",
"@@@@@@@@@@@@@@@@@@@@@",
"#####################",
"@@@@@@@@@@@@@@@@@@@@@",
"@+++++++++++++++++++.",
"@+++++++++++++++++++.",
"@+++++++++++++++++++.",
"@+++++++++++++++++++.",
"@+++++++++++++++++++.",
"@+++++++++++++++++++.",
"@++++++#########++++.",
"@++++++#+#+#+#+#++++.",
"@++++++++++#++++++++.",
"@+++++++++###+++++++.",
"@++++++++#####++++++.",
"@+++++++###+###+++++.",
"@++++++###+++###++++.",
"@++++++##+++++##++++.",
"@+++++++++++++++++++.",
"@+++++++++++++++++++.",
"@+++++++++++++++++++.",
"@+++++++++++++++++++.",
"@+++++++++++++++++++.",
".....................",
"#####################"};
