/* XPM */
static char * frameIBL_xpm[] = {
"31 31 6 1",
" 	c #a86b79",
".	c #4c3137",
"+	c #e1cbd0",
"@	c #7b4e59",
"#	c #ffffff",
"$	c #3f282d",
" ......++++++++++++++++++++++++",
"      .++++++++++++++++++++++++",
"  @@@@.++++++++++++++++++++++++",
"  @@@@.++++++++++++++++++++++++",
"  @@@@.++++++++++++++++++++++++",
"  @@@@.++++++++++++++++++++++++",
"  @@@@.++++++++++++++++++++++++",
"  @@@@.++++++++++++++++++++++++",
"  @@@@.++++++++++++++++++++++++",
"  @@@@.++++++++++++++++++++++++",
"  @@@@.++++++++++++++++++++++++",
"  @@@@.++++++++++++++++++++++++",
"  @@@@.++++++++++++++++++++++++",
"  @@@@.++++++++++++++++++++++++",
"  @@@@.++++++++++++++++++++++++",
"  @@@@.++++++++++++++++++++++++",
"  @@@@.++++++++++++++++++++++++",
"  @@@@.++++++++++++++++++++++++",
"  @@@@.++++++++++++++++++++++++",
"  @@@@.++++++++++++++++++++++++",
"  @@@@.++++++++++++++++++++++++",
"  @@@@.++++++++++++++++++++++++",
"  @@@@.++++++++++++++++++++++++",
"  @@@@.++++++++++++++++++++++++",
"  @@@@.########################",
"  @@@@@@@@@@@@@@@@@@@@@@@@@@@$#",
"  @@@@@@@@@@@@@@@@@@@@@@@@@@@$#",
"  @@@@@@@@@@@@@@@@@@@@@@@@@@@$#",
"  @@@@@@@@@@@@@@@@@@@@@@@@@@@$#",
"  $$$$$$$$$$$$$$$$$$$$$$$$$$$$#",
" $$$$$$$$$$$$$$$$$$$$$$$$$$$$$$"};
