/* XPM */
static char * frameITR_xpm[] = {
"31 32 4 1",
" 	c None",
".	c #56373e",
"+	c #d8bcc3",
"@	c #a86b79",
".+++++++++++++++++++++++++++++.",
".++++++++++++++++++++++++++++..",
".+@@@@@@@@@@@@@@@@@@@@@@@@@@@..",
".+@@@@@@@@@@@@@@@@@@@@@@@@@@@..",
".+@@@@@@@@@@@@@@@@@@@@@@@@@@@..",
".+........................@@@..",
"                         +@@@..",
"                         +@@@..",
"                         +@@@..",
"                         +@@@..",
"                         +@@@..",
"                         +@@@..",
"                         +@@@..",
"                         +@@@..",
"                         +@@@..",
"                         +@@@..",
"                         +@@@..",
"                         +@@@..",
"                         +@@@..",
"                         +@@@..",
"                         +@@@..",
"                         +@@@..",
"                         +@@@..",
"                         +@@@..",
"                         +@@@..",
"                         +@@@..",
"                         +@@@..",
"                         +@@@..",
"                         +@@@..",
"                         +@@@..",
"                         +.....",
"                         +++++."};
