/* XPM */
static char * frameABR_xpm[] = {
"31 31 29 1",
" 	c None",
".	c #ffdcc6",
"+	c #a16c4c",
"@	c #ffffff",
"#	c #ffad7c",
"$	c #b57955",
"%	c #000000",
"&	c #ffb88e",
"*	c #714c35",
"=	c #d69065",
"-	c #bb7d58",
";	c #895c41",
">	c #ffab78",
",	c #b67a56",
"'	c #bb7d58",
")	c #fffbf8",
"!	c #ffdeca",
"~	c #fba976",
"{	c #a97150",
"]	c #ad7451",
"^	c #fff4ed",
"/	c #ffe6d7",
"(	c #f8a675",
"_	c #b57955",
":	c #ffe7d8",
"<	c #ffede2",
"[	c #ffb080",
"}	c #ffb486",
"|	c #ffe8db",
"......+@#############$%  &*****",
"......+@#############$%  &&&&&*",
"......+@#############$%  &===**",
"......+@#############$%  &===**",
"......+@#############$%  &===**",
"......+@$$$$$$$$$$$$$$%  &===**",
"......+%%%%%%%%%%%%%%%%  &===**",
"......+@@@@@@@@@@@@@@@%  &===**",
"......+@#############$%  &===**",
"......+@#############$%  &===**",
"......+@#############$%  &===**",
"......+@#############$%  &===**",
"......+@#############$%  &===**",
"......+@##-;;;;;;-###$%  &===**",
"......+@##>,,;;;')!!#$%  &===**",
"......+@###~~{;]^/###$%  &===**",
"......+@#####(_:<[###$%  &===**",
"......+@######}|}####$%  &===**",
"......+@#############$%  &===**",
"......+@#############$%  &===**",
"......+@#############$%  &===**",
"......+@$$$$$$$$$$$$$$%  &===**",
"......+%%%%%%%%%%%%%%%%  &===**",
"                         &===**",
"                         &===**",
"&&&&&&&&&&&&&&&&&&&&&&&&&&===**",
"*&===========================**",
"*&===========================**",
"*&===========================**",
"*&*****************************",
"*******************************"};
