/* XPM */
static char * rollupI_xpm[] = {
"24 48 5 1",
" 	c #caa5ae",
".	c #56373e",
"+	c #a86b79",
"@	c #ffffff",
"#	c #68424b",
"                       .",
" ++++++++++++++++++++++.",
" ++++++++++++++++++++++.",
" ++++++++++++++++++++++.",
" ++++++++++++++++++++++.",
" ++++++++++++++++++++++.",
" +++++++++++@++++++++++.",
" ++++++++++@+.+++++++++.",
" ++++++++++@+.+++++++++.",
" ++++++++++@+.+++++++++.",
" +++++++++@+++..+++++++.",
" +++++++++@+++..+++++++.",
" +++++++@@++++++.++++++.",
" +++++++@@++++++.++++++.",
" ++++++@+++++++++.+++++.",
" ++++++@+++++++++.+++++.",
" ++++++@+++++++++.+++++.",
" +++++@+++++++++++.++++.",
" +++++@............++++.",
" ++++++++++++++++++++++.",
" ++++++++++++++++++++++.",
" ++++++++++++++++++++++.",
" ++++++++++++++++++++++.",
" .......................",
".......................+",
".+++++++++++++++++++++++",
".+++++++++++++++++++++++",
".+++++++++++++++++++++++",
".+++++++++++++++++++++++",
".+++++++++++++++++++++++",
".+++++++++++@+++++++++++",
".++++++++++@+#++++++++++",
".++++++++++@+#++++++++++",
".++++++++++@+#++++++++++",
".+++++++++@+++##++++++++",
".+++++++++@+++##++++++++",
".+++++++@@++++++#+++++++",
".+++++++@@++++++#+++++++",
".++++++@+++++++++#++++++",
".++++++@+++++++++#++++++",
".++++++@+++++++++#++++++",
".+++++@+++++++++++#+++++",
".+++++@############+++++",
".+++++++++++++++++++++++",
".+++++++++++++++++++++++",
".+++++++++++++++++++++++",
".+++++++++++++++++++++++",
".+++++++++++++++++++++++"};
