/* XPM */
static char *closeI_xpm[] = {
"23 46 5 1",
". c #868b92",
"+ c #525963",
"@ c #353a40",
"# c #ffffff",
"$ c #000000",
".......................",
"++++++++++++++++++++++@",
"++++++++++++++++++++++@",
"++++##############@$++@",
"++++#+++++++++++++@$++@",
"++++#+$$+++++++$$+@$++@",
"++++#++$$+++++$$++@$++@",
"++++#+++$$+++$$+++@$++@",
"++++#++++$$+$$++++@$++@",
"++++#+++++$$$+++++@$++@",
"++++#++++++$++++++@$++@",
"++++#+++++$$$+++++@$++@",
"++++#++++$$+$$++++@$++@",
"++++#+++$$+++$$+++@$++@",
"++++#++$$+++++$$++@$++@",
"++++#+$$+++++++$$+@$++@",
"++++#+++++++++++++@$++@",
"+++++@@@@@@@@@@@@@@$++@",
"++++$$$$$$$$$$$$$$$$++@",
"++++++++++++++++++++++@",
"++++++++++++++++++++++@",
"@@@@@@@@@@@@@@@@@@@@@@@",
"$$$$$$$$$$$$$$$$$$$$$$$",
".......................",
"++++++++++++++++++++++@",
"++++++++++++++++++++++@",
"++++@@@@@@@@@@@@@@#$++@",
"++++@+++++++++++++#$++@",
"++++@+++++++++++++#$++@",
"++++@++$$++++++$$+#$++@",
"++++@+++$$++++$$++#$++@",
"++++@++++$$++$$+++#$++@",
"++++@+++++$$$$++++#$++@",
"++++@++++++$$+++++#$++@",
"++++@++++++$$+++++#$++@",
"++++@+++++$$$$++++#$++@",
"++++@++++$$++$$+++#$++@",
"++++@+++$$++++$$++#$++@",
"++++@++$$++++++$$+#$++@",
"++++@+++++++++++++#$++@",
"+++++##############$++@",
"++++$$$$$$$$$$$$$$$$++@",
"++++++++++++++++++++++@",
"++++++++++++++++++++++@",
"@@@@@@@@@@@@@@@@@@@@@@@",
"$$$$$$$$$$$$$$$$$$$$$$$"};
