/* XPM */
static char *closeA_xpm[] = {
"23 46 6 1",
". c #868b92",
"+ c #8a97a6",
"@ c #353a40",
"# c #000000",
"$ c #525963",
"% c #ffffff",
".......................",
"++++++++++++++++++++++@",
"++++++++++++++++++++++@",
"++++..............@#++@",
"++++.$$$$$$$$$$$$$@#++@",
"++++.$%%$$$$$$$%%$@#++@",
"++++.$$%%$$$$$%%$$@#++@",
"++++.$$$%%$$$%%$$$@#++@",
"++++.$$$$%%$%%$$$$@#++@",
"++++.$$$$$%%%$$$$$@#++@",
"++++.$$$$$$%$$$$$$@#++@",
"++++.$$$$$%%%$$$$$@#++@",
"++++.$$$$%%$%%$$$$@#++@",
"++++.$$$%%$$$%%$$$@#++@",
"++++.$$%%$$$$$%%$$@#++@",
"++++.$%%$$$$$$$%%$@#++@",
"++++.$$$$$$$$$$$$$@#++@",
"++++$@@@@@@@@@@@@@@#++@",
"++++################++@",
"++++++++++++++++++++++@",
"++++++++++++++++++++++@",
"@@@@@@@@@@@@@@@@@@@@@@@",
"#######################",
".......................",
"++++++++++++++++++++++@",
"++++++++++++++++++++++@",
"++++@@@@@@@@@@@@@@.#++@",
"++++@$$$$$$$$$$$$$.#++@",
"++++@$$$$$$$$$$$$$.#++@",
"++++@$$%%$$$$$$%%$.#++@",
"++++@$$$%%$$$$%%$$.#++@",
"++++@$$$$%%$$%%$$$.#++@",
"++++@$$$$$%%%%$$$$.#++@",
"++++@$$$$$$%%$$$$$.#++@",
"++++@$$$$$$%%$$$$$.#++@",
"++++@$$$$$%%%%$$$$.#++@",
"++++@$$$$%%$$%%$$$.#++@",
"++++@$$$%%$$$$%%$$.#++@",
"++++@$$%%$$$$$$%%$.#++@",
"++++@$$$$$$$$$$$$$.#++@",
"++++$..............#++@",
"++++################++@",
"++++++++++++++++++++++@",
"++++++++++++++++++++++@",
"@@@@@@@@@@@@@@@@@@@@@@@",
"#######################"};
