/* XPM */
static char *frameITL[]={
"23 23 4 1",
"a c None",
". c #4c5157",
"b c #747a82",
"# c #787e85",
".......................",
".######################",
".######################",
".######################",
".######################",
".######################",
".#####aaaaaaaaaaaaaaaaa",
".#####aaaaaaaaaaaaaaaaa",
".#####aaaaaaaaaaaaaaaaa",
".#####aaaaaaaaaaaaaaaaa",
".#####aaaaaaaaaaaaaaaaa",
".#####aaaaaaaaaaaaaaaaa",
".#####aaaaaaaaaaaaaaaaa",
".#####aaaaaaaaaaaaaaaaa",
".#####aaaaaaaaaaaaaaaaa",
".#####aaaaaaaaaaaaaaaaa",
".#####aaaaaaaaaaaaaaaaa",
".#####aaaaaaaaaaaaaaaaa",
".#####aaaaaaaaaaaaaaaaa",
".#####aaaaaaaaaaaaaaaaa",
".#####aaaaaaaaaaaaaaaaa",
".#####aaaaaaaaaaaaaaaaa",
".b####aaaaaaaaaaaaaaaaa"};
