/* XPM */
static char *menuButtonI_xpm[] = {
"23 46 4 1",
". c #868b92",
"+ c #525963",
"@ c #353a40",
"# c #000000",
".......................",
"+++++++++++++++++++++++",
"+++++++++++++++++++++++",
"+++..............@#++++",
"+++.+++++++++++++@#++++",
"+++.+++++++++++++@#++++",
"+++.+++++++++++++@#++++",
"+++.+++++++++++++@#++++",
"+++.+++++++++++++@#++++",
"+++.+++++++++++++@#++++",
"+++.+++++++++++++@#++++",
"+++.+++++++++++++@#++++",
"+++.+++++++++++++@#++++",
"+++.+++++++++++++@#++++",
"+++.+++++++++++++@#++++",
"+++.+++++++++++++@#++++",
"+++.+++++++++++++@#++++",
"++++@@@@@@@@@@@@@@#++++",
"+++################++++",
"+++++++++++++++++++++++",
"+++++++++++++++++++++++",
"@@@@@@@@@@@@@@@@@@@@@@@",
"#######################",
".......................",
"+++++++++++++++++++++++",
"+++++++++++++++++++++++",
"+++@@@@@@@@@@@@@@.#++++",
"+++@+++++++++++++.#++++",
"+++@+++++++++++++.#++++",
"+++@+++++++++++++.#++++",
"+++@+++++++++++++.#++++",
"+++@+++++++++++++.#++++",
"+++@+++++++++++++.#++++",
"+++@+++++++++++++.#++++",
"+++@+++++++++++++.#++++",
"+++@+++++++++++++.#++++",
"+++@+++++++++++++.#++++",
"+++@+++++++++++++.#++++",
"+++@+++++++++++++.#++++",
"+++@+++++++++++++.#++++",
"++++..............#++++",
"+++################++++",
"+++++++++++++++++++++++",
"+++++++++++++++++++++++",
"@@@@@@@@@@@@@@@@@@@@@@@",
"#######################"};
