/* XPM */
static char *frameATR[]={
"23 23 5 1",
"c c None",
". c #424042",
"b c #b0acb0",
"a c #bcbabc",
"# c #c6c4c6",
".......................",
"#####################a.",
"aaaaaaaaaaaaaaaaaaaaab.",
"aaaaaaaaaaaaaaaaaaaaab.",
"aaaaaaaaaaaaaaaaaaaaab.",
"aaaaaaaaaaaaaaaaaaaaab.",
"cccccccccccccccccaaaab.",
"cccccccccccccccccaaaab.",
"cccccccccccccccccaaaab.",
"cccccccccccccccccaaaab.",
"cccccccccccccccccaaaab.",
"cccccccccccccccccaaaab.",
"cccccccccccccccccaaaab.",
"cccccccccccccccccaaaab.",
"cccccccccccccccccaaaab.",
"cccccccccccccccccaaaab.",
"cccccccccccccccccaaaab.",
"cccccccccccccccccaaaab.",
"cccccccccccccccccaaaab.",
"cccccccccccccccccaaaab.",
"cccccccccccccccccaaaab.",
"cccccccccccccccccaaaab.",
"cccccccccccccccccaaaab."};
