/* XPM */
static char *frameIBR[]={
"23 23 3 1",
". c None",
"# c #b4b4b4",
"a c #eeeeee",
".................#aaaa#",
".................#aaaa#",
".................#aaaa#",
".................#aaaa#",
".................#aaaa#",
".................#aaaa#",
".................#aaaa#",
".................#aaaa#",
".................#aaaa#",
".................#aaaa#",
".................#aaaa#",
".................#aaaa#",
".................#aaaa#",
".................#aaaa#",
".................#aaaa#",
".................#aaaa#",
".................#aaaa#",
"##################aaaa#",
"aaaaaaaaaaaaaaaaaaaaaa#",
"aaaaaaaaaaaaaaaaaaaaaa#",
"aaaaaaaaaaaaaaaaaaaaaa#",
"aaaaaaaaaaaaaaaaaaaaaa#",
"#######################"};
