/* XPM */
static char *frameIBL[]={
"23 23 3 1",
"a c None",
". c #b4b4b4",
"# c #eeeeee",
".####.aaaaaaaaaaaaaaaaa",
".####.aaaaaaaaaaaaaaaaa",
".####.aaaaaaaaaaaaaaaaa",
".####.aaaaaaaaaaaaaaaaa",
".####.aaaaaaaaaaaaaaaaa",
".####.aaaaaaaaaaaaaaaaa",
".####.aaaaaaaaaaaaaaaaa",
".####.aaaaaaaaaaaaaaaaa",
".####.aaaaaaaaaaaaaaaaa",
".####.aaaaaaaaaaaaaaaaa",
".####.aaaaaaaaaaaaaaaaa",
".####.aaaaaaaaaaaaaaaaa",
".####.aaaaaaaaaaaaaaaaa",
".####.aaaaaaaaaaaaaaaaa",
".####.aaaaaaaaaaaaaaaaa",
".####.aaaaaaaaaaaaaaaaa",
".####.aaaaaaaaaaaaaaaaa",
".####..................",
".######################",
".######################",
".######################",
".######################",
"......................."};
