/* XPM */
static char *restoreA_xpm[] = {
"23 46 4 1",
". c #eeeeee",
"+ c #888888",
"@ c #666666",
"# c #000000",
".......................",
"+++++++++++++++++++++++",
"+++++++++++++++++++++++",
"+++..............@#++++",
"+++.+++++++++++++@#++++",
"+++.+++++++++++++@#++++",
"+++.+++++++++++++@#++++",
"+++.+++++++++++++@#++++",
"+++.+++++++++++++@#++++",
"+++.+++++++++++++@#++++",
"+++.+++++++++++++@#++++",
"+++.+++++++++++++@#++++",
"+++.+++++++++++++@#++++",
"+++.+++++++++++++@#++++",
"+++.+++++++++++++@#++++",
"+++.+++++++++++++@#++++",
"+++.+++++++++++++@#++++",
"++++@@@@@@@@@@@@@@#++++",
"+++################++++",
"+++++++++++++++++++++++",
"+++++++++++++++++++++++",
"@@@@@@@@@@@@@@@@@@@@@@@",
"#######################",
".......................",
"+++++++++++++++++++++++",
"+++++++++++++++++++++++",
"+++@@@@@@@@@@@@@@.#++++",
"+++@+++++++++++++.#++++",
"+++@+++++++++++++.#++++",
"+++@+++++++++++++.#++++",
"+++@+++++++++++++.#++++",
"+++@+++++++++++++.#++++",
"+++@+++++++++++++.#++++",
"+++@+++++++++++++.#++++",
"+++@+++++++++++++.#++++",
"+++@+++++++++++++.#++++",
"+++@+++++++++++++.#++++",
"+++@+++++++++++++.#++++",
"+++@+++++++++++++.#++++",
"+++@+++++++++++++.#++++",
"++++..............#++++",
"+++################++++",
"+++++++++++++++++++++++",
"+++++++++++++++++++++++",
"@@@@@@@@@@@@@@@@@@@@@@@",
"#######################"};
