/* XPM */
static char * start_xpm[] = {
"59 37 213 2",
"  	c #303D49",
". 	c #B7C9D3",
"+ 	c #60879E",
"@ 	c #000000",
"# 	c #353535",
"$ 	c #4C4C4C",
"% 	c #4A4A4A",
"& 	c #010101",
"* 	c #16241D",
"= 	c #2D4339",
"- 	c #272928",
"; 	c #333333",
"> 	c #4C5953",
", 	c #505D57",
"' 	c #454E49",
") 	c #4D5853",
"! 	c #3F4A44",
"~ 	c #363F3B",
"{ 	c #2B332F",
"] 	c #BDBDBD",
"^ 	c #FFFFFF",
"/ 	c #FCFCFC",
"( 	c #090909",
"_ 	c #020403",
": 	c #7FB49C",
"< 	c #A2E5C6",
"[ 	c #83BBA1",
"} 	c #8E8E8E",
"| 	c #CBCBCB",
"1 	c #9BDCBE",
"2 	c #96C3AD",
"3 	c #749786",
"4 	c #A4E5C7",
"5 	c #9EDEC0",
"6 	c #5C6962",
"7 	c #73A18B",
"8 	c #7EA794",
"9 	c #BCBCBC",
"0 	c #FBFBFB",
"a 	c #689580",
"b 	c #95D3B6",
"c 	c #25382F",
"d 	c #8D8D8D",
"e 	c #F7F7F7",
"f 	c #323232",
"g 	c #95C2AD",
"h 	c #050505",
"i 	c #8BB3A0",
"j 	c #9AD1B7",
"k 	c #202623",
"l 	c #72A18B",
"m 	c #9AD3B8",
"n 	c #050404",
"o 	c #1F3028",
"p 	c #9ADABD",
"q 	c #A0E2C3",
"r 	c #426153",
"s 	c #D8D8D8",
"t 	c #CDCDCD",
"u 	c #646464",
"v 	c #303030",
"w 	c #9DD2B9",
"x 	c #7DA190",
"y 	c #8CC0A8",
"z 	c #85BAA1",
"A 	c #85B9A1",
"B 	c #39443F",
"C 	c #6F9F89",
"D 	c #79AC94",
"E 	c #7E7E7E",
"F 	c #5F796C",
"G 	c #A3DDC2",
"H 	c #313835",
"I 	c #4C534F",
"J 	c #0C1612",
"K 	c #9BDBBE",
"L 	c #9CDCBF",
"M 	c #080708",
"N 	c #90C5AC",
"O 	c #779888",
"P 	c #4C5350",
"Q 	c #59816F",
"R 	c #7EB49B",
"S 	c #658274",
"T 	c #98CAB2",
"U 	c #030303",
"V 	c #7FB59C",
"W 	c #557B69",
"X 	c #232223",
"Y 	c #9FDBBF",
"Z 	c #A4E3C5",
"` 	c #3B3D3C",
" .	c #060305",
"..	c #92CFB2",
"+.	c #9EDFC1",
"@.	c #111D17",
"#.	c #91BEA9",
"$.	c #5E7A6D",
"%.	c #020000",
"&.	c #91CEB2",
"*.	c #7D7D7D",
"=.	c #7FA392",
"-.	c #789C8A",
";.	c #525754",
">.	c #191517",
",.	c #191518",
"'.	c #060505",
").	c #3C564A",
"!.	c #7FB49B",
"~.	c #F4F4F4",
"{.	c #999999",
"].	c #73A48D",
"^.	c #65917D",
"/.	c #678878",
"(.	c #7BA692",
"_.	c #9FDEC0",
":.	c #9DDDBF",
"<.	c #506B5E",
"[.	c #3F5B4E",
"}.	c #7DB199",
"|.	c #A0A0A0",
"1.	c #78AB94",
"2.	c #6A9883",
"3.	c #5B806F",
"4.	c #85AD9A",
"5.	c #537062",
"6.	c #EBEBEB",
"7.	c #E5E5E5",
"8.	c #8F8F8F",
"9.	c #6B9984",
"0.	c #91CDB1",
"a.	c #5E8875",
"b.	c #020202",
"c.	c #5F8272",
"d.	c #80AA96",
"e.	c #9FD7BD",
"f.	c #9CD5BA",
"g.	c #4F675C",
"h.	c #1D2A24",
"i.	c #9DDEC0",
"j.	c #88C2A7",
"k.	c #799789",
"l.	c #76A18D",
"m.	c #4E5552",
"n.	c #0D0D0D",
"o.	c #030000",
"p.	c #050B08",
"q.	c #83B09B",
"r.	c #738C80",
"s.	c #87C0A6",
"t.	c #A2E4C5",
"u.	c #324A3F",
"v.	c #99CFB5",
"w.	c #A3E4C6",
"x.	c #5C6561",
"y.	c #6C9B85",
"z.	c #45534C",
"A.	c #A1E3C5",
"B.	c #9FDABE",
"C.	c #0F1311",
"D.	c #3C584B",
"E.	c #8EC9AE",
"F.	c #7CA391",
"G.	c #90B8A5",
"H.	c #030705",
"I.	c #90CDB1",
"J.	c #A1E4C5",
"K.	c #4D6F5F",
"L.	c #272B29",
"M.	c #A3D9BF",
"N.	c #5F776B",
"O.	c #618B78",
"P.	c #8AC3A9",
"Q.	c #020302",
"R.	c #82A091",
"S.	c #96CEB4",
"T.	c #131414",
"U.	c #94D2B5",
"V.	c #638E7A",
"W.	c #4E4E4E",
"X.	c #43534B",
"Y.	c #A0DEC1",
"Z.	c #658576",
"`.	c #A7D2BD",
" +	c #A3CFBA",
".+	c #A3CDB9",
"++	c #527766",
"@+	c #9BDBBD",
"#+	c #31493E",
"$+	c #EEEEEE",
"%+	c #0C0C0C",
"&+	c #191B1A",
"*+	c #94C5AE",
"=+	c #97C4AF",
"-+	c #080808",
";+	c #9ED0B8",
">+	c #77AA92",
",+	c #A2E6C6",
"'+	c #90CCB0",
")+	c #8F9190",
"!+	c #C3C3C3",
"~+	c #8CAE9D",
"{+	c #A2D9BF",
"]+	c #3D4D45",
"^+	c #73A18C",
"/+	c #7CA18F",
"(+	c #060D0A",
"_+	c #2A4036",
":+	c #283730",
"<+	c #304138",
"[+	c #28332E",
"}+	c #1D2C25",
"|+	c #16221C",
"  . . . . . . . . . . . . . . . . . . . . . . . . . . . . . . . . . . . . . . . . . . . . . . . . . . . . . . . . . . ",
"  . . . . . . . . . . . . . . . . . . . . . . . . . . . . . . . . . . . . . . . . . . . . . . . . . . . . . . . .   . ",
"  . . + + @ @ @ @ @ @ @ @ @ @ @ @ @ @ @ @ @ @ @ @ @ @ @ @ @ @ @ @ @ @ @ @ @ @ @ @ @ @ @ @ @ @ @ @ @ @ @ @ @ + +     . ",
"  . . + + @ @ @ @ @ @ @ @ @ @ @ @ @ @ @ @ @ @ @ @ @ @ @ @ @ @ @ @ @ @ @ @ @ @ @ @ @ @ @ @ @ @ @ @ @ @ @ @ @ + +     . ",
"  . . + + @ @ @ @ @ @ @ @ @ @ @ @ @ @ @ @ @ @ @ @ @ @ @ @ @ @ @ @ @ @ @ @ @ @ @ @ @ @ @ @ @ @ @ @ @ @ @ @ @ + +     . ",
"  . . + + @ @ @ @ @ @ @ @ @ @ @ @ @ @ @ @ @ @ @ @ @ @ @ @ @ @ @ @ @ @ @ @ @ @ @ @ @ @ @ @ @ @ @ @ @ @ @ @ @ + +     . ",
"  . . + + @ @ @ @ # $ % & @ @ @ * = = = - $ $ $ $ ; @ @ @ @ @ @ @ > , ' ) , , ! @ @ @ @ ~ , , , , { @ @ @ @ + +     . ",
"  . . + + @ @ @ @ ] ^ / ( @ @ _ : < < [ } ^ ^ ^ ^ | @ @ @ @ @ @ @ 1 < 2 3 4 < 5 6 @ @ @ 7 < < < < 8 @ @ @ @ + +     . ",
"  . . + + @ @ @ @ 9 ^ 0 ( @ @ a < < b c d ^ ^ ^ ^ e f @ @ @ @ @ @ 1 < g h i < < j k @ @ l < < < < m n @ @ @ + +     . ",
"  . . + + @ @ @ @ 9 ^ 0 ( @ o p < q r @ d ^ ^ s t t u @ @ @ @ @ @ 1 < g @ v w < < x @ @ l < < y z A B @ @ @ + +     . ",
"  . . + + @ @ @ @ 9 ^ 0 ( @ C < < D @ @ d ^ ^ E @ @ @ @ @ @ @ @ @ 1 < g @ @ F < < G H @ l < < I @ @ @ @ @ @ + +     . ",
"  . . + + @ @ @ @ 9 ^ 0 ( J K < L c @ @ d ^ ^ E @ @ @ @ @ @ @ @ @ 1 < g @ @ M N < < O @ l < < P @ @ @ @ @ @ + +     . ",
"  . . + + @ @ @ @ 9 ^ 0 ( Q < < R @ @ @ d ^ ^ E @ @ @ @ @ @ @ @ @ 1 < g @ @ @ S < < T U l < < P @ @ @ @ @ @ + +     . ",
"  . . + + @ @ @ @ 9 ^ 0 ( V < < W @ @ @ d ^ ^ E @ @ @ @ @ @ @ @ @ 1 < g @ @ @ X Y < Z ` l < < P @ @ @ @ @ @ + +     . ",
"  . . + + @ @ @ @ 9 ^ 0  ...< +.@.@ @ @ d ^ ^ E @ @ @ @ @ @ @ @ @ 1 < g @ @ @ @ #.< < $.l < < P @ @ @ @ @ @ + +     . ",
"  . . + + @ @ @ @ 9 ^ 0 %.1 < &.@ @ @ @ d ^ ^ *.@ @ @ @ @ @ @ @ @ 1 < g @ @ @ @ =.< < -.l < < ;.>.,.'.@ @ @ + +     . ",
"  . . + + @ @ @ @ 9 ^ 0 ).< < !.@ @ @ @ d ^ ^ e ~.~.{.].K K ^.@ @ 1 < g @ @ @ @ /.< < (.l < < _.:.:.<.@ @ @ + +     . ",
"  . . + + @ @ @ @ 9 ^ 0 [.< < }.@ @ @ @ d ^ ^ ^ ^ ^ |.1.< < 2.@ @ 1 < g @ @ @ @ 3.< < 4.l < < < < < 5.@ @ @ + +     . ",
"  . . + + @ @ @ @ 9 ^ 0 [.< < }.@ @ @ @ d ^ ^ 6.7.7.8.9.0.0.a.b.@ 1 < g @ @ @ @ c.< < d.l < < e.f.f.g.@ @ @ + +     . ",
"  . . + + @ @ @ @ 9 ^ 0 h.i.< j.@ @ @ @ d ^ ^ E @ @ @ @ @ @ @ @ @ 1 < g @ @ @ @ k.< < l.l < < m.n.n.U @ @ @ + +     . ",
"  . . + + @ @ @ @ 9 ^ 0 o.1 < b p.@ @ @ d ^ ^ E @ @ @ @ @ @ @ @ @ 1 < g @ @ @ @ q.< < r.l < < P @ @ @ @ @ @ + +     . ",
"  . . + + @ @ @ @ 9 ^ 0 ( s.< t.u.@ @ @ d ^ ^ E @ @ @ @ @ @ @ @ @ 1 < g @ @ @ @ v.< w.x.l < < P @ @ @ @ @ @ + +     . ",
"  . . + + @ @ @ @ 9 ^ 0 ( y.< < a @ @ @ d ^ ^ E @ @ @ @ @ @ @ @ @ 1 < g @ @ @ z.A.< B.C.l < < P @ @ @ @ @ @ + +     . ",
"  . . + + @ @ @ @ 9 ^ 0 ( D.< < E.@ @ @ d ^ ^ E @ @ @ @ @ @ @ @ @ 1 < g @ @ @ F.< < G.@ l < < P @ @ @ @ @ @ + +     . ",
"  . . + + @ @ @ @ 9 ^ 0 ( H.I.< J.K.@ @ d ^ ^ E @ @ @ @ @ @ @ @ @ 1 < g @ @ L.M.< < N.@ l < < P @ @ @ @ @ @ + +     . ",
"  . . + + @ @ @ @ 9 ^ 0 ( @ O.< < P.Q.@ d ^ ^ E @ @ @ @ @ @ @ @ @ 1 < g @ @ R.< < S.T.@ l < < I @ @ @ @ @ @ + +     . ",
"  . . + + @ @ @ @ 9 ^ 0 ( @ @.U.< < V.@ d ^ ^ s t t W.@ @ @ @ @ @ 1 < g @ X.Y.< < Z.@ @ l < < `. +.+% @ @ @ + +     . ",
"  . . + + @ @ @ @ 9 ^ 0 ( @ @ ++J.< @+#+d ^ ^ ^ ^ $+%+@ @ @ @ @ @ 1 < g &+*+< < =+-+@ @ l < < < < ;+& @ @ @ + +     . ",
"  . . + + @ @ @ @ ] ^ / ( @ @ @ >+,+< '+)+^ ^ ^ ^ !+@ @ @ @ @ @ @ 1 < 2 ~+,+< {+]+@ @ @ ^+< < < < /+@ @ @ @ + +     . ",
"  . . + + @ @ @ @ # $ % & @ @ @ (+= = = - $ $ $ $ ; @ @ @ @ @ @ @ _+= :+<+= = [+@ @ @ @ }+= = = = |+@ @ @ @ + +     . ",
"  . . + + @ @ @ @ @ @ @ @ @ @ @ @ @ @ @ @ @ @ @ @ @ @ @ @ @ @ @ @ @ @ @ @ @ @ @ @ @ @ @ @ @ @ @ @ @ @ @ @ @ + +     . ",
"  . . + + @ @ @ @ @ @ @ @ @ @ @ @ @ @ @ @ @ @ @ @ @ @ @ @ @ @ @ @ @ @ @ @ @ @ @ @ @ @ @ @ @ @ @ @ @ @ @ @ @ + +     . ",
"  . . + + @ @ @ @ @ @ @ @ @ @ @ @ @ @ @ @ @ @ @ @ @ @ @ @ @ @ @ @ @ @ @ @ @ @ @ @ @ @ @ @ @ @ @ @ @ @ @ @ @ + +     . ",
"  . . + + @ @ @ @ @ @ @ @ @ @ @ @ @ @ @ @ @ @ @ @ @ @ @ @ @ @ @ @ @ @ @ @ @ @ @ @ @ @ @ @ @ @ @ @ @ @ @ @ @ + +     . ",
"  . .                                                                                                               . ",
"  .                                                                                                                 . ",
"  . . . . . . . . . . . . . . . . . . . . . . . . . . . . . . . . . . . . . . . . . . . . . . . . . . . . . . . . . . "};
