/* XPM */
static char * frameABR_xpm[] = {
"31 31 29 1",
" 	c None",
".	c #eae5e2",
"+	c #827b76",
"@	c #ffffff",
"#	c #cfc4bd",
"$	c #928a85",
"%	c #000000",
"&	c #d6ccc6",
"*	c #5b5653",
"=	c #ada39d",
"-	c #978e89",
";	c #6f6965",
">	c #cec2bb",
",	c #938a85",
"'	c #978e89",
")	c #fcfcfb",
"!	c #ece7e4",
"~	c #cbbfb8",
"{	c #89817c",
"]	c #8c837f",
"^	c #f9f7f6",
"/	c #f1edeb",
"(	c #c8bcb6",
"_	c #928a85",
":	c #f1edeb",
"<	c #f5f2f0",
"[	c #d1c5bf",
"}	c #d3c8c2",
"|	c #f2efed",
"......+@#############$%  &*****",
"......+@#############$%  &&&&&*",
"......+@#############$%  &===**",
"......+@#############$%  &===**",
"......+@#############$%  &===**",
"......+@$$$$$$$$$$$$$$%  &===**",
"......+%%%%%%%%%%%%%%%%  &===**",
"......+@@@@@@@@@@@@@@@%  &===**",
"......+@#############$%  &===**",
"......+@#############$%  &===**",
"......+@#############$%  &===**",
"......+@#############$%  &===**",
"......+@#############$%  &===**",
"......+@##-;;;;;;-###$%  &===**",
"......+@##>,,;;;')!!#$%  &===**",
"......+@###~~{;]^/###$%  &===**",
"......+@#####(_:<[###$%  &===**",
"......+@######}|}####$%  &===**",
"......+@#############$%  &===**",
"......+@#############$%  &===**",
"......+@#############$%  &===**",
"......+@$$$$$$$$$$$$$$%  &===**",
"......+%%%%%%%%%%%%%%%%  &===**",
"                         &===**",
"                         &===**",
"&&&&&&&&&&&&&&&&&&&&&&&&&&===**",
"*&===========================**",
"*&===========================**",
"*&===========================**",
"*&*****************************",
"*******************************"};
