/* XPM */
static char *closeI_xpm[] = {
"21 44 4 1",
". c #B6B6B6",
"+ c #9A9ABC",
"@ c #616161",
"# c #000000",
".....................",
".+++++++++++++++++++@",
".+++++++++++++++++++@",
".+++++++++++++++++++@",
".+++++++++++++++++++@",
".+++++++++++++++++++@",
".+++++##+++++##+++++@",
".+++++###+++###+++++@",
".++++++###+###++++++@",
".+++++++#####+++++++@",
".++++++++###++++++++@",
".+++++++#####+++++++@",
".++++++###+###++++++@",
".+++++###+++###+++++@",
".+++++##+++++##+++++@",
".+++++++++++++++++++@",
".+++++++++++++++++++@",
".+++++++++++++++++++@",
".+++++++++++++++++++@",
".+++++++++++++++++++@",
"@@@@@@@@@@@@@@@@@@@@@",
"#####################",
"@@@@@@@@@@@@@@@@@@@@@",
"@+++++++++++++++++++.",
"@+++++++++++++++++++.",
"@+++++++++++++++++++.",
"@+++++++++++++++++++.",
"@+++++++++++++++++++.",
"@+++++++++++++++++++.",
"@++++++##+++++##++++.",
"@++++++###+++###++++.",
"@+++++++###+###+++++.",
"@++++++++#####++++++.",
"@+++++++++###+++++++.",
"@++++++++#####++++++.",
"@+++++++###+###+++++.",
"@++++++###+++###++++.",
"@++++++##+++++##++++.",
"@+++++++++++++++++++.",
"@+++++++++++++++++++.",
"@+++++++++++++++++++.",
"@+++++++++++++++++++.",
".....................",
"#####################"};
