/* XPM */
static char * taskbuttonbg_xpm[] = {
"59 28 5 1",
" 	c #E7D8DC",
".	c #CFAFB7",
"+	c #000000",
"@	c #CFAFB7",
"#	c #9F6070",
"                                                           ",
"...........................................................",
"...........................................................",
"..                                                       +.",
".. @@@@@@@@@@@@@@@@@@@@@@@@@@@@@@@@@@@@@@@@@@@@@@@@@@@@@#+.",
".. @....................................................#+.",
".. @....................................................#+.",
".. @....................................................#+.",
".. @....................................................#+.",
".. @....................................................#+.",
".. @....................................................#+.",
".. @....................................................#+.",
".. @....................................................#+.",
".. @....................................................#+.",
".. @....................................................#+.",
".. @....................................................#+.",
".. @....................................................#+.",
".. @....................................................#+.",
".. @....................................................#+.",
".. @....................................................#+.",
".. @....................................................#+.",
".. @....................................................#+.",
".. @....................................................#+.",
".. ######################################################+.",
"..++++++++++++++++++++++++++++++++++++++++++++++++++++++++.",
"...........................................................",
"...........................................................",
"..........................................................."};
