/* XPM */
static char *closeA_xpm[] = {
"15 30 4 1",
". c #d8d8d8",
"+ c #787878",
"@ c #000000",
"# c #ffffff",
".............+@",
".@@@@@@@@@@@@+@",
".@@@@@@@@@@@@+@",
".@@@@@@@@@@@@+@",
".@@@#@@@@@#@@+@",
".@@@@#@@@#@@@+@",
".@@@@@#@#@@@@+@",
".@@@@@@#@@@@@+@",
".@@@@@#@#@@@@+@",
".@@@@#@@@#@@@+@",
".@@@#@@@@@#@@+@",
".@@@@@@@@@@@@+@",
".@@@@@@@@@@@@+@",
"@+++++++++++++@",
"@@@@@@@@@@@@@@@",
".............+@",
".@@@@@@@@@@@@+@",
".@@@@@@@@@@@@+@",
".@@@@@@@@@@@@+@",
".@@@@@@@@@@@@+@",
".@@@@#@@@@@#@+@",
".@@@@@#@@@#@@+@",
".@@@@@@#@#@@@+@",
".@@@@@@@#@@@@+@",
".@@@@@@#@#@@@+@",
".@@@@@#@@@#@@+@",
".@@@@#@@@@@#@+@",
".@@@@@@@@@@@@+@",
"@+++++++++++++@",
"@@@@@@@@@@@@@@@"};
