/* XPM */
static char *maximizeA_xpm[] = {
"22 44 4 1",
". c #000000",
"+ c #ffffff",
"@ c #787878",
"# c #a8a8a8",
"......................",
"......................",
"......................",
"...++++++++++++++@....",
"...+#############@....",
"...+#...........#@....",
"...+#...........#@....",
"...+#...........#@....",
"...+#.#########.#@....",
"...+#.#########.#@....",
"...+#.#########.#@....",
"...+#.#########.#@....",
"...+#.#########.#@....",
"...+#.#########.#@....",
"...+#.#########.#@....",
"...+#...........#@....",
"...+#############@....",
"...#@@@@@@@@@@@@@@....",
"......................",
"......................",
"......................",
"......................",
"......................",
"......................",
"......................",
"...++++++++++++++@....",
"...+#############@....",
"...+#############@....",
"...+##..........#@....",
"...+##..........#@....",
"...+##..........#@....",
"...+##.########.#@....",
"...+##.########.#@....",
"...+##.########.#@....",
"...+##.########.#@....",
"...+##.########.#@....",
"...+##.########.#@....",
"...+##..........#@....",
"...+#############@....",
"...#@@@@@@@@@@@@@@....",
"......................",
"......................",
"......................",
"......................"};
