/* XPM */
static char *menuButtonA_xpm[] = {
"19 38 4 1",
". c #000000",
"+ c #d8d8d8",
"@ c #787878",
"# c #a8a8a8",
"...................",
"...................",
"..+++++++++++++@...",
"..+############@...",
"..+############@...",
"..+############@...",
"..+############@...",
"..+############@...",
"..+############@...",
"..+############@...",
"..+############@...",
"..+############@...",
"..+############@...",
"..+############@...",
"..+############@...",
"..#@@@@@@@@@@@@@...",
"...................",
"...................",
"...................",
"...................",
"...................",
"..+++++++++++++@...",
"..+############@...",
"..+############@...",
"..+############@...",
"..+############@...",
"..+############@...",
"..+############@...",
"..+############@...",
"..+############@...",
"..+############@...",
"..+############@...",
"..+############@...",
"..+############@...",
"..#@@@@@@@@@@@@@...",
"...................",
"...................",
"..................."};
