/* XPM */
static char *minimizeI_xpm[] = {
"15 30 3 1",
". c #d8d8d8",
"+ c #787878",
"@ c #000000",
".............+@",
".@@@@@@@@@@@@+@",
".@@@@@@@@@@@@+@",
".@@@@@@@@@@@@+@",
".@@@@@@@@@@@@+@",
".@@@@@@@@@@@@+@",
".@@@@@@@@@@@@+@",
".@@@@@@@@@@@@+@",
".@@@@@@@@@@@@+@",
".@@@@@@@@@@@@+@",
".@@@@@@@@@@@@+@",
".@@@@@@@@@@@@+@",
".@@@@@@@@@@@@+@",
"@+++++++++++++@",
"@@@@@@@@@@@@@@@",
".............+@",
".@@@@@@@@@@@@+@",
".@@@@@@@@@@@@+@",
".@@@@@@@@@@@@+@",
".@@@@@@@@@@@@+@",
".@@@@@@@@@@@@+@",
".@@@@@@@@@@@@+@",
".@@@@@@@@@@@@+@",
".@@@@@@@@@@@@+@",
".@@@@@@@@@@@@+@",
".@@@@@@@@@@@@+@",
".@@@@@@@@@@@@+@",
".@@@@@@@@@@@@+@",
"@+++++++++++++@",
"@@@@@@@@@@@@@@@"};
