/* XPM */
static char *restoreA_xpm[] = {
"23 46 4 1",
". c #d8d8d8",
"+ c #000000",
"@ c #ffffff",
"# c #787878",
".......................",
"+++++++++++++++++++++++",
"+++++++++++++++++++++++",
"+++@@@@@@@@@@@@@@#+++++",
"+++@+++++++++++++#+++++",
"+++@+++++++++++++#+++++",
"+++@+++++++++++++#+++++",
"+++@+++++++++++++#+++++",
"+++@+++++++++++++#+++++",
"+++@+++++++++++++#+++++",
"+++@+++++++++++++#+++++",
"+++@+++++++++++++#+++++",
"+++@+++++++++++++#+++++",
"+++@+++++++++++++#+++++",
"+++@+++++++++++++#+++++",
"+++@+++++++++++++#+++++",
"+++@+++++++++++++#+++++",
"++++##############+++++",
"+++++++++++++++++++++++",
"+++++++++++++++++++++++",
"+++++++++++++++++++++++",
"#######################",
"+++++++++++++++++++++++",
".......................",
"+++++++++++++++++++++++",
"+++++++++++++++++++++++",
"+++##############@+++++",
"+++#+++++++++++++@+++++",
"+++#+++++++++++++@+++++",
"+++#+++++++++++++@+++++",
"+++#+++++++++++++@+++++",
"+++#+++++++++++++@+++++",
"+++#+++++++++++++@+++++",
"+++#+++++++++++++@+++++",
"+++#+++++++++++++@+++++",
"+++#+++++++++++++@+++++",
"+++#+++++++++++++@+++++",
"+++#+++++++++++++@+++++",
"+++#+++++++++++++@+++++",
"+++#+++++++++++++@+++++",
"++++@@@@@@@@@@@@@@+++++",
"+++++++++++++++++++++++",
"+++++++++++++++++++++++",
"+++++++++++++++++++++++",
"#######################",
"+++++++++++++++++++++++"};
