/* XPM */
static char *rolldownI_xpm[] = {
"19 38 3 1",
". c #000000",
"+ c #787878",
"@ c #ffffff",
"...................",
".+++++++++++++++++.",
".+++++++++++++++++.",
".+++++++++++++++++.",
".+++++++++++++++++.",
".+++++++++++++++++.",
".+++++++++++++++++.",
".++++++.......++++.",
".++++++.+.+.+.++++.",
".+++++++++.+++++++.",
".++++++++...++++++.",
".+++++++.....+++++.",
".++++++...+...++++.",
".++++++..+++..++++.",
".+++++++++++++++++.",
".+++++++++++++++++.",
".+++++++++++++++++.",
".+++++++++++++++++.",
"...................",
"...................",
".+++++++++++++++++.",
".+++++++++++++++++.",
".+++++++++++++++++.",
".+++++++++++++++++.",
".+++++++++++++++++.",
".+++++++++++++++++.",
".++++++@@@@@@@++++.",
".++++++@+@+@+@++++.",
".+++++++++@+++++++.",
".++++++++@@@++++++.",
".+++++++@@@@@+++++.",
".++++++@@@+@@@++++.",
".++++++@@+++@@++++.",
".+++++++++++++++++.",
".+++++++++++++++++.",
".+++++++++++++++++.",
".+++++++++++++++++.",
"..................."};
