/* XPM */
static char *titleIB_xpm[] = {
"23 22 4 1",
". c #a8a8a8",
"+ c #d8d8d8",
"@ c #787878",
"# c #000000",
".......................",
".......................",
".......................",
".......................",
".......................",
".......................",
".......................",
".......................",
".......................",
".......................",
".......................",
".......................",
".......................",
".......................",
".......................",
".......................",
".......................",
".......................",
".......................",
"+++++++++++++++++++++++",
"@@@@@@@@@@@@@@@@@@@@@@@",
"#######################"};
