/* XPM */
static char *titleAS_xpm[] = {
"23 22 3 1",
". c #000000",
"+ c #d8d8d8",
"@ c #787878",
".......................",
".......................",
".......................",
".......................",
".......................",
".......................",
".......................",
".......................",
".......................",
".......................",
".......................",
".......................",
".......................",
".......................",
".......................",
".......................",
".......................",
".......................",
".......................",
"+++++++++++++++++++++++",
"@@@@@@@@@@@@@@@@@@@@@@@",
"......................."};
