/* XPM */
static char *dframeABR_xpm[] = {
"23 23 5 1",
"  c None",
". c #000000",
"+ c #ffffff",
"@ c #d4d0c8",
"# c #8a8782",
"                 .+@@#.",
"                 .+@@#.",
"                 .+@@#.",
"                 .+@@#.",
"                 .+@@#.",
"                 .+@@#.",
"                 .+@@#.",
"                 .+@@#.",
"                 .+@@#.",
"                 .+@@#.",
"                 .+@@#.",
"                 .+@@#.",
"                 .+@@#.",
"                 .+@@#.",
"                 .+@@#.",
"                 .+@@#.",
"                 .+@@#.",
"..................+@@#.",
"+++++++++++++++++++@@#.",
"@@@@@@@@@@@@@@@@@@@@@#.",
"@@@@@@@@@@@@@@@@@@@@@#.",
"######################.",
"......................."};
