/* XPM */
static char *dframeABL_xpm[] = {
"23 23 5 1",
"  c #000000",
". c #ffffff",
"+ c #d4d0c8",
"@ c #8a8782",
"# c None",
" .++@ #################",
" .++@ #################",
" .++@ #################",
" .++@ #################",
" .++@ #################",
" .++@ #################",
" .++@ #################",
" .++@ #################",
" .++@ #################",
" .++@ #################",
" .++@ #################",
" .++@ #################",
" .++@ #################",
" .++@ #################",
" .++@ #################",
" .++@ #################",
" .++@ #################",
" .++@                  ",
" .+++..................",
" .+++++++++++++++++++++",
" .+++++++++++++++++++++",
" +@@@@@@@@@@@@@@@@@@@@@",
"                       "};
