/* XPM */
static char *dframeABR_xpm[] = {
"23 23 5 1",
"  c None",
". c #000000",
"+ c #ffffff",
"@ c #888888",
"# c #666666",
"                 .+@@#.",
"                 .+@@#.",
"                 .+@@#.",
"                 .+@@#.",
"                 .+@@#.",
"                 .+@@#.",
"                 .+@@#.",
"                 .+@@#.",
"                 .+@@#.",
"                 .+@@#.",
"                 .+@@#.",
"                 .+@@#.",
"                 .+@@#.",
"                 .+@@#.",
"                 .+@@#.",
"                 .+@@#.",
"                 .+@@#.",
"..................+@@#.",
"+++++++++++++++++++@@#.",
"@@@@@@@@@@@@@@@@@@@@@#.",
"@@@@@@@@@@@@@@@@@@@@@#.",
"######################.",
"......................."};
