/* XPM */
static char *frameATR_xpm[] = {
"23 23 5 1",
"  c #000000",
". c #ffffff",
"+ c #d3d3d3",
"@ c #898989",
"# c None",
"                       ",
".....................+ ",
"+++++++++++++++++++++@ ",
"+++++++++++++++++++++@ ",
"+++++++++++++++++++++@ ",
"+++++++++++++++++++++@ ",
"#################++++@ ",
"#################++++@ ",
"#################++++@ ",
"#################++++@ ",
"#################++++@ ",
"#################++++@ ",
"#################++++@ ",
"#################++++@ ",
"#################++++@ ",
"#################++++@ ",
"#################++++@ ",
"#################++++@ ",
"#################++++@ ",
"#################++++@ ",
"#################++++@ ",
"#################++++@ ",
"#################++++@ "};
