/* XPM */
static char *maximizeA_xpm[] = {
"16 38 5 1",
". c #d3d3d3",
"+ c #898989",
"@ c #000000",
"# c #ffffff",
"$ c #e0e0e0",
"................",
"...++++++++++++.",
"...+@@@@@@@@@@@#",
"...+@#....@...@#",
"...+@.....@..+@#",
"...+@.....@..+@#",
"...+@.....@.$+@#",
"...+@.....@$$+@#",
"...+@@@@@@@$$+@#",
"...+@....$$$$+@#",
"...+@...$$$$#+@#",
"...+@.++++++++@#",
"...+@@@@@@@@@@@#",
"....############",
"................",
"................",
"................",
"++++++++++++++++",
"@@@@@@@@@@@@@@@@",
"................",
"...++++++++++++.",
"...+@@@@@@@@@@@#",
"...+@+++++++++@#",
"...+@+#....@..@#",
"...+@+.....@..@#",
"...+@+.....@..@#",
"...+@+.....@.$@#",
"...+@+.....@$$@#",
"...+@+@@@@@@$$@#",
"...+@+....$$$$@#",
"...+@+...$$$$#@#",
"...+@@@@@@@@@@@#",
"....############",
"................",
"................",
"................",
"++++++++++++++++",
"@@@@@@@@@@@@@@@@"};
