/* XPM */
static char * taskbuttonbg_xpm[] = {
"59 28 5 1",
" 	c #646774",
".	c #303446",
"+	c #000000",
"@	c #303446",
"#	c #181A23",
"                                                           ",
"...........................................................",
"...........................................................",
"..                                                       +.",
".. @@@@@@@@@@@@@@@@@@@@@@@@@@@@@@@@@@@@@@@@@@@@@@@@@@@@@#+.",
".. @....................................................#+.",
".. @....................................................#+.",
".. @....................................................#+.",
".. @....................................................#+.",
".. @....................................................#+.",
".. @....................................................#+.",
".. @....................................................#+.",
".. @....................................................#+.",
".. @....................................................#+.",
".. @....................................................#+.",
".. @....................................................#+.",
".. @....................................................#+.",
".. @....................................................#+.",
".. @....................................................#+.",
".. @....................................................#+.",
".. @....................................................#+.",
".. @....................................................#+.",
".. @....................................................#+.",
".. ######################################################+.",
"..++++++++++++++++++++++++++++++++++++++++++++++++++++++++.",
"...........................................................",
"...........................................................",
"..........................................................."};
