/* XPM */
static char *dframeIBR_xpm[] = {
"23 23 3 1",
"  c None",
". c #39372f",
"+ c #8a8880",
"                 .++++.",
"                 .++++.",
"                 .++++.",
"                 .++++.",
"                 .++++.",
"                 .++++.",
"                 .++++.",
"                 .++++.",
"                 .++++.",
"                 .++++.",
"                 .++++.",
"                 .++++.",
"                 .++++.",
"                 .++++.",
"                 .++++.",
"                 .++++.",
"                 .++++.",
"..................++++.",
"++++++++++++++++++++++.",
"++++++++++++++++++++++.",
"++++++++++++++++++++++.",
"++++++++++++++++++++++.",
"......................."};
