/* XPM */
static char * dframeABR_xpm[] = {
"31 31 29 1",
" 	c #dbe9f0",
".	c #6b808a",
"+	c #ffffff",
"@	c #acccdc",
"#	c #79909c",
"$	c #000000",
"%	c #f6f9fb",
"&	c #b8d3e1",
"*	c #4b5a61",
"=	c #8faab8",
"-	c #7c95a0",
";	c #5c6d76",
">	c #aacbdb",
",	c #79919c",
"'	c #7d95a0",
")	c #fbfcfd",
"!	c #deebf1",
"~	c #a8c8d8",
"{	c #718791",
"]	c #738994",
"^	c #f4f8fa",
"/	c #e6f0f4",
"(	c #a5c5d5",
"_	c #79909b",
":	c #e6f0f5",
"<	c #edf4f7",
"[	c #afcedd",
"}	c #b3d0df",
"|	c #e8f1f5",
"      .+@@@@@@@@@@@@@#$%&******",
"      .+@@@@@@@@@@@@@#$%&&&&&&*",
"      .+@@@@@@@@@@@@@#$%&====**",
"      .+@@@@@@@@@@@@@#$%&====**",
"      .+@@@@@@@@@@@@@#$%&====**",
"      .+##############$%&====**",
"      .$$$$$$$$$$$$$$$$%&====**",
"      .+++++++++++++++$%&====**",
"      .+@@@@@@@@@@@@@#$%&====**",
"      .+@@@@@@@@@@@@@#$%&====**",
"      .+@@@@@@@@@@@@@#$%&====**",
"      .+@@@@@@@@@@@@@#$%&====**",
"      .+@@@@@@@@@@@@@#$%&====**",
"      .+@@-;;;;;;-@@@#$%&====**",
"      .+@@>,,;;;')!!@#$%&====**",
"      .+@@@~~{;]^/@@@#$%&====**",
"      .+@@@@@(_:<[@@@#$%&====**",
"      .+@@@@@@}|}@@@@#$%&====**",
"      .+@@@@@@@@@@@@@#$%&====**",
"      .+@@@@@@@@@@@@@#$%&====**",
"      .+@@@@@@@@@@@@@#$%&====**",
"      .+##############$%&====**",
"      .$$$$$$$$$$$$$$$$%&====**",
"      %%%%%%%%%%%%%%%%%%&====**",
"&&&&&&&&&&&&&&&&&&&&&&&&&====**",
"*&===========================**",
"*&===========================**",
"*&===========================**",
"*&===========================**",
"*&*****************************",
"*******************************"};
