/* XPM */
static char * frameIBR_xpm[] = {
"31 31 18 1",
" 	c #a7a8a7",
".	c #6d6e6d",
"+	c #ffffff",
"@	c #b8b9b8",
"#	c #7b7c7b",
"$	c #000000",
"%	c #3e3f3e",
"&	c #7a7b7a",
"*	c #7f807f",
"=	c #5d5e5d",
"-	c #7b7c7b",
";	c #e2e3e2",
">	c #aaabaa",
",	c #757675",
"'	c #f5f6f5",
")	c #e9eae9",
"!	c #eff0ef",
"~	c #bebfbe",
"      .+@@@@@@@@@@@@@#$  %%%%%%",
"      .+@@@@@@@@@@@@@#$       %",
"      .+@@@@@@@@@@@@@#$  &&&&%%",
"      .+@@@@@@@@@@@@@#$  &&&&%%",
"      .+@@@@@@@@@@@@@#$  &&&&%%",
"      .+##############$  &&&&%%",
"      .$$$$$$$$$$$$$$$$  &&&&%%",
"      .+++++++++++++++$  &&&&%%",
"      .+@@@@@@@@@@@@@#$  &&&&%%",
"      .+@@@@@@@@@@@@@#$  &&&&%%",
"      .+@@@@@@@@@@@@@#$  &&&&%%",
"      .+@@@@@@@@@@@@@#$  &&&&%%",
"      .+@@@@@@@@@@@@@#$  &&&&%%",
"      .+@@*======*@@@#$  &&&&%%",
"      .+@@@--===*+;;@#$  &&&&%%",
"      .+@@@>>,=,')@@@#$  &&&&%%",
"      .+@@@@@>-)!@@@@#$  &&&&%%",
"      .+@@@@@@@!~@@@@#$  &&&&%%",
"      .+@@@@@@@@@@@@@#$  &&&&%%",
"      .+@@@@@@@@@@@@@#$  &&&&%%",
"      .+@@@@@@@@@@@@@#$  &&&&%%",
"      .+##############$  &&&&%%",
"      .$$$$$$$$$$$$$$$$  &&&&%%",
"                         &&&&%%",
"                         &&&&%%",
"% &&&&&&&&&&&&&&&&&&&&&&&&&&&%%",
"% &&&&&&&&&&&&&&&&&&&&&&&&&&&%%",
"% &&&&&&&&&&&&&&&&&&&&&&&&&&&%%",
"% &&&&&&&&&&&&&&&&&&&&&&&&&&&%%",
"% %%%%%%%%%%%%%%%%%%%%%%%%%%%%%",
"%%%%%%%%%%%%%%%%%%%%%%%%%%%%%%%"};
