/* XPM */
static char * maximizeA_xpm[] = {
"24 48 3 1",
" 	c #dae8ef",
".	c #5a6b74",
"+	c #aacbdb",
"                       .",
" ++++++++++++++++++++++.",
" ++++++++++++++++++++++.",
" ++++++++++++++++++++++.",
" ++++++++++++++++++++++.",
" ++++++++++++++++++++++.",
" ++++++           +++++.",
" ++++++ +++++++++.+++++.",
" ++++++ +++++++++.+++++.",
" ++++++ +++++++++.+++++.",
" ++++++ +++++++++.+++++.",
" ++++++ +++++++++.+++++.",
" ++++++ +++++++++.+++++.",
" ++++++ +++++++++.+++++.",
" ++++++ +++++++++.+++++.",
" ++++++ +++++++++.+++++.",
" ++++++ +++++++++.+++++.",
" ++++++ +++++++++.+++++.",
" ++++++...........+++++.",
" ++++++++++++++++++++++.",
" ++++++++++++++++++++++.",
" ++++++++++++++++++++++.",
" ++++++++++++++++++++++.",
" .......................",
"....................... ",
".++++++++++++++++++++++ ",
".++++++++++++++++++++++ ",
".++++++++++++++++++++++ ",
".++++++++++++++++++++++ ",
".++++++++++++++++++++++ ",
".++++++           +++++ ",
".++++++ +++++++++.+++++ ",
".++++++ +++++++++.+++++ ",
".++++++ +++++++++.+++++ ",
".++++++ +++++++++.+++++ ",
".++++++ +++++++++.+++++ ",
".++++++ +++++++++.+++++ ",
".++++++ +++++++++.+++++ ",
".++++++ +++++++++.+++++ ",
".++++++ +++++++++.+++++ ",
".++++++ +++++++++.+++++ ",
".++++++ +++++++++.+++++ ",
".++++++...........+++++ ",
".++++++++++++++++++++++ ",
".++++++++++++++++++++++ ",
".++++++++++++++++++++++ ",
".++++++++++++++++++++++ ",
".                       "};
