/* XPM */
static char *dummy[]={
"16 50 43 1",
". c #989898",
"d c #b38f00",
"O c #d0d0d0",
"N c #e0e0e0",
"G c #ffcb00",
"M c #ffcc07",
"F c #ffcd0b",
"L c #ffce0e",
"K c #ffcf15",
"D c #ffd018",
"J c #ffd11c",
"I c #ffd223",
"B c #ffd225",
"H c #ffd32b",
"z c #ffd532",
"E c #ffd639",
"x c #ffd73e",
"C c #ffd840",
"A c #ffd947",
"v c #ffda4b",
"y c #ffdb4e",
"w c #ffdc55",
"t c #ffdd58",
"u c #ffdd5c",
"s c #ffdf63",
"r c #ffdf65",
"q c #ffe06a",
"e c #ffe271",
"p c #ffe272",
"c c #ffe379",
"o c #ffe47e",
"b c #ffe480",
"a c #ffe687",
"n c #ffe78b",
"m c #ffea98",
"l c #ffeca5",
"k c #ffefb2",
"j c #fff1be",
"i c #fff4cb",
"# c #fff4cd",
"h c #fff7d8",
"g c #fff9e5",
"f c #fffcf2",
"................",
"################",
"aaaaaaaaaaaaaaaa",
"bbbbbbbbbbbbbbbb",
"cccccccccccccccc",
"dddddddddddddeee",
"dfghijklmnopdqqq",
"dghijklmnoprdsss",
"dhijklmnoprtduuu",
"dijklmnoprtvdwww",
"djklmnoprtvxdyyy",
"dklmnoprtvxzdAAA",
"dlmnoprtvxzBdCCC",
"dmnoprtvxzBDdEEE",
"dnoprtvxzBDFdzzz",
"doprtvxzBDFGdHHH",
"dprtvxzBDFGGdIII",
"dddddddddddddJJJ",
"KKKKKKKKKKKKKKKK",
"LLLLLLLLLLLLLLLL",
"MMMMMMMMMMMMMMMM",
"GGGGGGGGGGGGGGGG",
"NNNNNNNNNNNNNNNN",
"NNNNNNNNNNNNNNNN",
"OOOOOOOOOOOOOOOO",
"................",
"################",
"aaaaaaaaaaaaaaaa",
"bbbbbbbbbbbbbbbb",
"cccccccccccccccc",
"dddddddddddddeee",
"dGGFDBzxvtrpdqqq",
"dGFDBzxvtrpodsss",
"dFDBzxvtrponduuu",
"dDBzxvtrponmdwww",
"dBzxvtrponmldyyy",
"dzxvtrponmlkdAAA",
"dxvtrponmlkjdCCC",
"dvtrponmlkjidEEE",
"dtrponmlkjihdzzz",
"drponmlkjihgdHHH",
"dponmlkjihgfdIII",
"dddddddddddddJJJ",
"KKKKKKKKKKKKKKKK",
"LLLLLLLLLLLLLLLL",
"MMMMMMMMMMMMMMMM",
"GGGGGGGGGGGGGGGG",
"NNNNNNNNNNNNNNNN",
"NNNNNNNNNNNNNNNN",
"OOOOOOOOOOOOOOOO"};
