/* XPM */
static char *dummy[]={
"16 50 23 1",
". c #989898",
"c c #a3a3a3",
"u c #e8e8e8",
"t c #e9e9e9",
"s c #eaeaea",
"r c #ebebeb",
"q c #ececec",
"p c #ededed",
"o c #eeeeee",
"m c #efefef",
"n c #f0f0f0",
"l c #f1f1f1",
"d c #f2f2f2",
"b c #f3f3f3",
"a c #f4f4f4",
"k c #f5f5f5",
"j c #f6f6f6",
"i c #f8f8f8",
"h c #f9f9f9",
"# c #fafafa",
"g c #fbfbfb",
"f c #fcfcfc",
"e c #fdfdfd",
"................",
"################",
"aaaaaaaaaaaaaaaa",
"bbbbbbbbbbbbbbbb",
"bbbbbbbbbbbbbbbb",
"cccccccccccccddd",
"cefg#hijkabdcddd",
"cfg#hijkabdlclll",
"cg#hijkabdlmcnnn",
"c#hijkabdlmocnnn",
"chijkabdlmopcmmm",
"cijkabdlmopqcooo",
"cjkabdlmopqrcooo",
"ckabdlmopqrscppp",
"cabdlmopqrstcqqq",
"cbdlmopqrstucqqq",
"cdlmopqrstuucrrr",
"cccccccccccccrrr",
"ssssssssssssssss",
"tttttttttttttttt",
"tttttttttttttttt",
"uuuuuuuuuuuuuuuu",
"uuuuuuuuuuuuuuuu",
"uuuuuuuuuuuuuuuu",
"uuuuuuuuuuuuuuuu",
"................",
"################",
"aaaaaaaaaaaaaaaa",
"bbbbbbbbbbbbbbbb",
"bbbbbbbbbbbbbbbb",
"cccccccccccccddd",
"cuutsrqpomldcddd",
"cutsrqpomldbclll",
"ctsrqpomldbacnnn",
"csrqpomldbakcnnn",
"crqpomldbakjcmmm",
"cqpomldbakjicooo",
"cpomldbakjihcooo",
"comldbakjih#cppp",
"cmldbakjih#gcqqq",
"cldbakjih#gfcqqq",
"cdbakjih#gfecrrr",
"cccccccccccccrrr",
"ssssssssssssssss",
"tttttttttttttttt",
"tttttttttttttttt",
"uuuuuuuuuuuuuuuu",
"uuuuuuuuuuuuuuuu",
"uuuuuuuuuuuuuuuu",
"uuuuuuuuuuuuuuuu"};
