/* XPM */
static char *dummy[]={
"30 30 26 1",
". c None",
"# c #989898",
"x c #d0d0d0",
"v c #e0e0e0",
"w c #f0f0f0",
"u c #ffcb00",
"t c #ffcc07",
"s c #ffce0e",
"r c #ffcf15",
"q c #ffd11c",
"p c #ffd223",
"o c #ffd32b",
"n c #ffd532",
"m c #ffd639",
"l c #ffd840",
"k c #ffd947",
"j c #ffdb4e",
"i c #ffdc55",
"h c #ffdd5c",
"g c #ffdf63",
"f c #ffe06a",
"e c #ffe271",
"d c #ffe379",
"c c #ffe480",
"b c #ffe687",
"a c #fff4cd",
"..............................",
"..............................",
"..............................",
"..............................",
"..............................",
".........................#####",
".........................aaaa#",
".........................bbba#",
".........................ccca#",
".........................ddda#",
".........................eeea#",
".........................fffa#",
".........................ggga#",
".........................hhha#",
".........................iiia#",
".........................jjja#",
".........................kkka#",
".........................llla#",
".........................mmma#",
".........................nnna#",
".........................oooa#",
".........................pppa#",
".........................qqqa#",
".........................rrra#",
".........................sssa#",
".........................ttta#",
".........................uuua#",
".........................vvvw#",
".........................vvvw#",
".........................xxvw#"};
