/* XPM */
static char *dummy[]={
"30 30 6 1",
". c None",
"d c #6c6c6c",
"# c #989898",
"a c #d0d0d0",
"b c #e0e0e0",
"c c #f0f0f0",
".........................#abc#",
".........................#abc#",
".........................#abc#",
".........................#abc#",
".........................#abc#",
".........................#abc#",
".........................#abc#",
".........................#abc#",
".........................#abc#",
".........................#abc#",
".........................#abc#",
".........................#abc#",
".........................#abc#",
".........................#abc#",
".........................#abc#",
".........................#abc#",
".........................#abc#",
".........................#abc#",
".........................#abc#",
".........................#abc#",
".........................#abc#",
".........................#abc#",
".........................#abc#",
".........................#abc#",
".........................#abc#",
"##########################abc#",
"cccccccccccccccccccccccccccbc#",
"bbbbbbbbbbbbbbbbbbbbbbbbbbbbc#",
"aaaaaaaaaaaaaaaaaaaaaaaaaaaaa#",
"dddddddddddddddddddddddddddddd"};
