/* XPM */
static char *dummy[]={
"16 50 40 1",
". c #989898",
"d c #b38f00",
"L c #d0d0d0",
"K c #e0e0e0",
"p c #ffcb00",
"J c #ffcc07",
"I c #ffce0e",
"E c #ffce11",
"H c #ffcf15",
"G c #ffd11c",
"n c #ffd11e",
"C c #ffd223",
"F c #ffd32b",
"D c #ffd532",
"A c #ffd535",
"B c #ffd639",
"l c #ffd73e",
"z c #ffd840",
"y c #ffd947",
"x c #ffd948",
"w c #ffdb4e",
"u c #ffdc55",
"v c #ffdd5a",
"o c #ffdd5c",
"j c #ffde5e",
"m c #ffdf63",
"k c #ffe06a",
"t c #ffe16c",
"e c #ffe271",
"c c #ffe379",
"i c #ffe47e",
"b c #ffe480",
"a c #ffe687",
"s c #ffe891",
"h c #ffeb9e",
"r c #ffeca3",
"q c #ffefb5",
"g c #fff1be",
"# c #fff4cd",
"f c #fff8de",
"................",
"################",
"aaaaaaaaaaaaaaaa",
"bbbbbbbbbbbbbbbb",
"cccccccccccccccc",
"dddddddeeeeeeeee",
"dfghijdkkkkkkkkk",
"dghijldmmmmmmmmm",
"dhijlndddddddooo",
"dijlnpdqrsitduuu",
"djlnppdrsitvdwww",
"dddddddsitvxdyyy",
"zzzdqrsitvxAdzzz",
"BBBdrsitvxACdBBB",
"DDDdsitvxACEdDDD",
"FFFditvxACEpdFFF",
"CCCdtvxACEppdCCC",
"GGGddddddddddGGG",
"HHHHHHHHHHHHHHHH",
"IIIIIIIIIIIIIIII",
"JJJJJJJJJJJJJJJJ",
"pppppppppppppppp",
"KKKKKKKKKKKKKKKK",
"KKKKKKKKKKKKKKKK",
"LLLLLLLLLLLLLLLL",
"................",
"################",
"aaaaaaaaaaaaaaaa",
"bbbbbbbbbbbbbbbb",
"cccccccccccccccc",
"dddddddeeeeeeeee",
"dppnljdkkkkkkkkk",
"dpnljidmmmmmmmmm",
"dnljihdddddddooo",
"dljihgdACEppduuu",
"djihgfdxACEpdwww",
"dddddddvxACEdyyy",
"zzzdxvttvxACdzzz",
"BBBdvtiitvxAdBBB",
"DDDdtissitvxdDDD",
"FFFdisrrsitvdFFF",
"CCCdsrqqrsitdCCC",
"GGGddddddddddGGG",
"HHHHHHHHHHHHHHHH",
"IIIIIIIIIIIIIIII",
"JJJJJJJJJJJJJJJJ",
"pppppppppppppppp",
"KKKKKKKKKKKKKKKK",
"KKKKKKKKKKKKKKKK",
"LLLLLLLLLLLLLLLL"};
