/* XPM */
static char *dummy[]={
"16 50 38 1",
"s c #8a8a8a",
". c #989898",
"i c #a3a3a3",
"J c #d0d0d0",
"I c #d1d1d1",
"H c #d2d2d2",
"G c #d3d3d3",
"F c #d4d4d4",
"E c #d5d5d5",
"D c #d6d6d6",
"C c #d7d7d7",
"B c #d8d8d8",
"A c #d9d9d9",
"z c #dadada",
"y c #dbdbdb",
"x c #dddddd",
"w c #dedede",
"v c #dfdfdf",
"u c #e0e0e0",
"t c #e1e1e1",
"r c #e8e8e8",
"q c #e9e9e9",
"p c #eaeaea",
"o c #ebebeb",
"j c #ececec",
"h c #ededed",
"g c #eeeeee",
"f c #efefef",
"e c #f0f0f0",
"d c #f1f1f1",
"c c #f2f2f2",
"b c #f3f3f3",
"a c #f4f4f4",
"n c #f6f6f6",
"m c #f7f7f7",
"l c #f8f8f8",
"k c #f9f9f9",
"# c #fafafa",
"................",
"################",
"aaaaaaaaaaaaaaaa",
"bbbbbbbbbbbbbbbb",
"bbbbbbbbbbbbbbbb",
"cccccccccccccccc",
"cccccccccccccccc",
"dddddddddddddddd",
"eeeeeeeeeeeeeeee",
"eeeeeeeeeeeeeeee",
"ffffffffffffffff",
"gggggggggggggggg",
"gggggggggggggggg",
"hhhhhhhhhhhhhhhh",
"iiiiiiiiiiiiijjj",
"i#klmnabcdefijjj",
"iabcefghjopqiooo",
"iiiiiiiiiiiiiooo",
"pppppppppppppppp",
"qqqqqqqqqqqqqqqq",
"qqqqqqqqqqqqqqqq",
"rrrrrrrrrrrrrrrr",
"rrrrrrrrrrrrrrrr",
"rrrrrrrrrrrrrrrr",
"rrrrrrrrrrrrrrrr",
"................",
"################",
"aaaaaaaaaaaaaaaa",
"bbbbbbbbbbbbbbbb",
"bbbbbbbbbbbbbbbb",
"cccccccccccccccc",
"cccccccccccccccc",
"dddddddddddddddd",
"eeeeeeeeeeeeeeee",
"eeeeeeeeeeeeeeee",
"ffffffffffffffff",
"gggggggggggggggg",
"gggggggggggggggg",
"hhhhhhhhhhhhhhhh",
"sssssssssssssjjj",
"stuvwxyzABCDsjjj",
"syzACDEFGHIJsooo",
"sssssssssssssooo",
"pppppppppppppppp",
"qqqqqqqqqqqqqqqq",
"qqqqqqqqqqqqqqqq",
"rrrrrrrrrrrrrrrr",
"rrrrrrrrrrrrrrrr",
"rrrrrrrrrrrrrrrr",
"rrrrrrrrrrrrrrrr"};
