/* XPM */
static char *dummy[]={
"16 25 24 1",
". c #989898",
"v c #d0d0d0",
"u c #e0e0e0",
"t c #ffcb00",
"s c #ffcc07",
"r c #ffce0e",
"q c #ffcf15",
"p c #ffd11c",
"o c #ffd223",
"n c #ffd32b",
"m c #ffd532",
"l c #ffd639",
"k c #ffd840",
"j c #ffd947",
"i c #ffdb4e",
"h c #ffdc55",
"g c #ffdd5c",
"f c #ffdf63",
"e c #ffe06a",
"d c #ffe271",
"c c #ffe379",
"b c #ffe480",
"a c #ffe687",
"# c #fff4cd",
"................",
"################",
"aaaaaaaaaaaaaaaa",
"bbbbbbbbbbbbbbbb",
"cccccccccccccccc",
"dddddddddddddddd",
"eeeeeeeeeeeeeeee",
"ffffffffffffffff",
"gggggggggggggggg",
"hhhhhhhhhhhhhhhh",
"iiiiiiiiiiiiiiii",
"jjjjjjjjjjjjjjjj",
"kkkkkkkkkkkkkkkk",
"llllllllllllllll",
"mmmmmmmmmmmmmmmm",
"nnnnnnnnnnnnnnnn",
"oooooooooooooooo",
"pppppppppppppppp",
"qqqqqqqqqqqqqqqq",
"rrrrrrrrrrrrrrrr",
"ssssssssssssssss",
"tttttttttttttttt",
"uuuuuuuuuuuuuuuu",
"uuuuuuuuuuuuuuuu",
"vvvvvvvvvvvvvvvv"};
