/* XPM */
static char *closeI_xpm[] = {
"22 44 5 1",
". c #5b5b5b",
"+ c #454545",
"@ c #303030",
"# c #ffffff",
"$ c #000000",
"......................",
"..+++++++++++++++++++@",
".++++++++++++++++++++@",
".++++++++++++++++++++@",
".++++++++++++++++++++@",
".++++++++++++++++++++@",
".++++++++++++++++++++@",
".++++++##+++##+++++++@",
".++++++###+###+++++++@",
".+++++++#####++++++++@",
".++++++++###+++++++++@",
".+++++++#####++++++++@",
".++++++###+###+++++++@",
".++++++##+++##+++++++@",
".++++++++++++++++++++@",
".++++++++++++++++++++@",
".++++++++++++++++++++@",
".++++++++++++++++++++@",
".+++++++++++++++++++@@",
"@@@@@@@@@@@@@@@@@@@@@@",
"@@@@@@@@@@@@@@@@@@@@@@",
"$$$$$$$$$$$$$$$$$$$$$$",
"@@@@@@@@@@@@@@@@@@@@@@",
"@@+++++++++++++++++++.",
"@++++++++++++++++++++.",
"@++++++++++++++++++++.",
"@++++++++++++++++++++.",
"@++++++++++++++++++++.",
"@++++++++++++++++++++.",
"@++++++++++++++++++++.",
"@+++++++##+++##++++++.",
"@+++++++###+###++++++.",
"@++++++++#####+++++++.",
"@+++++++++###++++++++.",
"@++++++++#####+++++++.",
"@+++++++###+###++++++.",
"@+++++++##+++##++++++.",
"@++++++++++++++++++++.",
"@++++++++++++++++++++.",
"@++++++++++++++++++++.",
"@+++++++++++++++++++..",
"......................",
"......................",
"$$$$$$$$$$$$$$$$$$$$$$"};
