/* XPM */
static char *maximizeA_xpm[] = {
"19 38 4 1",
". c #303030",
"+ c #5b5b5b",
"@ c #454545",
"# c #000000",
"...................",
".++++++++++++++++..",
".+@@@@@@@@@@@@@@@..",
".+@@@@@@@@@@@@@@@..",
".+@@@@@@@@@@@@@@@..",
".+@@@@@@@@@@@@@@@..",
".+@@@@@@@#@@@@@@@..",
".+@@@@@@###@@@@@@..",
".+@@@@@#####@@@@@..",
".+@@@@###@###@@@@..",
".+@@@@##@@@##@@@@..",
".+@@@@@@@@@@@@@@@..",
".+@@@@@@@@@@@@@@@..",
".+@@@@@@@@@@@@@@@..",
".+@@@@@@@@@@@@@@@..",
".+@@@@@@@@@@@@@@@..",
".+@@@@@@@@@@@@@@@..",
".+.................",
"...................",
"...................",
".................+.",
"..@@@@@@@@@@@@@@@+.",
"..@@@@@@@@@@@@@@@+.",
"..@@@@@@@@@@@@@@@+.",
"..@@@@@@@@@@@@@@@+.",
"..@@@@@@@@@@@@@@@+.",
"..@@@@@@@@#@@@@@@+.",
"..@@@@@@@###@@@@@+.",
"..@@@@@@#####@@@@+.",
"..@@@@@###@###@@@+.",
"..@@@@@##@@@##@@@+.",
"..@@@@@@@@@@@@@@@+.",
"..@@@@@@@@@@@@@@@+.",
"..@@@@@@@@@@@@@@@+.",
"..@@@@@@@@@@@@@@@+.",
"..@@@@@@@@@@@@@@@+.",
"..++++++++++++++++.",
"..................."};
