/* XPM */
static char *menuButtonA_xpm[] = {
"22 44 4 1",
". c #5b5b5b",
"+ c #000000",
"@ c #303030",
"# c #ffffff",
"......................",
"..+++++++++++++++++++@",
".++++++++++++++++++++@",
".++++++++++++++++++++@",
".++++++++++++++++++++@",
".++++++++++++++++++++@",
".++++++++++++++++++++@",
".++++++#######+++++++@",
".++++++#+#+#+#+++++++@",
".+++++++#+#+#++++++++@",
".++++++#######+++++++@",
".++++++#+#+#+#+++++++@",
".+++++++#+#+#++++++++@",
".++++++#######+++++++@",
".++++++++++++++++++++@",
".++++++++++++++++++++@",
".++++++++++++++++++++@",
".++++++++++++++++++++@",
".+++++++++++++++++++@@",
"@@@@@@@@@@@@@@@@@@@@@@",
"@@@@@@@@@@@@@@@@@@@@@@",
"++++++++++++++++++++++",
"@@@@@@@@@@@@@@@@@@@@@@",
"@@+++++++++++++++++++.",
"@++++++++++++++++++++.",
"@++++++++++++++++++++.",
"@++++++++++++++++++++.",
"@++++++++++++++++++++.",
"@++++++++++++++++++++.",
"@++++++++++++++++++++.",
"@+++++++#######++++++.",
"@+++++++#+#+#+#++++++.",
"@++++++++#+#+#+++++++.",
"@+++++++#######++++++.",
"@+++++++#+#+#+#++++++.",
"@++++++++#+#+#+++++++.",
"@+++++++#######++++++.",
"@++++++++++++++++++++.",
"@++++++++++++++++++++.",
"@++++++++++++++++++++.",
"@+++++++++++++++++++..",
"......................",
"......................",
"++++++++++++++++++++++"};
