/* XPM */
static char *minimizeI_xpm[] = {
"21 44 5 1",
". c #B6B6B6",
"+ c #000000",
"@ c #454545",
"# c #ffffff",
"$ c #616161",
"....................+",
".@@@@@@@@@@@@@@@@@@@+",
".@@@@@@@@@@@@@@@@@@@+",
".@@@@@@@@@@@@@@@@@@@+",
".@@@@@@@@@@@@@@@@@@@+",
".@@@@@@@@@@@@@@@@@@@+",
".@@@@@@@@@@@@@@@@@@@+",
".@@@@@@@@@@@@@@@@@@@+",
".@@@@@@@@@@@@@@@@@@@+",
".@@@@@@##@@@##@@@@@@+",
".@@@@@@###@###@@@@@@+",
".@@@@@@@#####@@@@@@@+",
".@@@@@@@@###@@@@@@@@+",
".@@@@@@@@@#@@@@@@@@@+",
".@@@@@@@@@@@@@@@@@@@+",
".@@@@@@@@@@@@@@@@@@@+",
".@@@@@@@@@@@@@@@@@@@+",
".@@@@@@@@@@@@@@@@@@@+",
".@@@@@@@@@@@@@@@@@@@+",
".@@@@@@@@@@@@@@@@@@@+",
"$$$$$$$$$$$$$$$$$$$$+",
"+++++++++++++++++++++",
"$$$$$$$$$$$$$$$$$$$$+",
"$@@@@@@@@@@@@@@@@@@@+",
"$@@@@@@@@@@@@@@@@@@@+",
"$@@@@@@@@@@@@@@@@@@@+",
"$@@@@@@@@@@@@@@@@@@@+",
"$@@@@@@@@@@@@@@@@@@@+",
"$@@@@@@@@@@@@@@@@@@@+",
"$@@@@@@@@@@@@@@@@@@@+",
"$@@@@@@@@@@@@@@@@@@@+",
"$@@@@@@@@@@@@@@@@@@@+",
"$@@@@@@@##@@@##@@@@@+",
"$@@@@@@@###@###@@@@@+",
"$@@@@@@@@#####@@@@@@+",
"$@@@@@@@@@###@@@@@@@+",
"$@@@@@@@@@@#@@@@@@@@+",
"$@@@@@@@@@@@@@@@@@@@+",
"$@@@@@@@@@@@@@@@@@@@+",
"$@@@@@@@@@@@@@@@@@@@+",
"$@@@@@@@@@@@@@@@@@@@+",
"$@@@@@@@@@@@@@@@@@@@+",
"....................+",
"+++++++++++++++++++++"};
