/* XPM */
static char *restoreA_xpm[] = {
"22 44 4 1",
". c #787878",
"+ c #D8D8D8",
"@ c #000000",
"# c #ffffff",
"......................",
".++++++++++++++++++++.",
".+@@@@@@@@@@@@@@@@@@..",
".+@@@@@@@@@@@@@@@@@@..",
".+@@@@@@@@@@@@@@@@@@..",
".+@@@@@@@@@@@@@@@@@@..",
".+@@@@@@@@#@@@@@@@@@..",
".+@@@@@@@###@@@@@@@@..",
".+@@@@@@#####@@@@@@@..",
".+@@@@@###@###@@@@@@..",
".+@@@@###@@@###@@@@@..",
".+@@@@@###@###@@@@@@..",
".+@@@@@@#####@@@@@@@..",
".+@@@@@@@###@@@@@@@@..",
".+@@@@@@@@#@@@@@@@@@..",
".+@@@@@@@@@@@@@@@@@@..",
".+@@@@@@@@@@@@@@@@@@..",
".+@@@@@@@@@@@@@@@@@@..",
".+@@@@@@@@@@@@@@@@@@..",
"......................",
"......................",
"@@@@@@@@@@@@@@@@@@@@@@",
"......................",
"......................",
"..@@@@@@@@@@@@@@@@@@+.",
"..@@@@@@@@@@@@@@@@@@+.",
"..@@@@@@@@@@@@@@@@@@+.",
"..@@@@@@@@@@@@@@@@@@+.",
"..@@@@@@@@@@@@@@@@@@+.",
"..@@@@@@@@@#@@@@@@@@+.",
"..@@@@@@@@###@@@@@@@+.",
"..@@@@@@@#####@@@@@@+.",
"..@@@@@@###@###@@@@@+.",
"..@@@@@###@@@###@@@@+.",
"..@@@@@@###@###@@@@@+.",
"..@@@@@@@#####@@@@@@+.",
"..@@@@@@@@###@@@@@@@+.",
"..@@@@@@@@@#@@@@@@@@+.",
"..@@@@@@@@@@@@@@@@@@+.",
"..@@@@@@@@@@@@@@@@@@+.",
"..@@@@@@@@@@@@@@@@@@+.",
".++++++++++++++++++++.",
"......................",
"@@@@@@@@@@@@@@@@@@@@@@"};
