/* XPM */
static char *titleAR_xpm[] = {
"22 22 3 1",
". c #5b5b5b",
"+ c #000000",
"@ c #303030",
"......................",
"++++++++++++++++++++.@",
"++++++++++++++++++++.@",
"++++++++++++++++++++.@",
"++++++++++++++++++++.@",
"++++++++++++++++++++.@",
"++++++++++++++++++++.@",
"++++++++++++++++++++.@",
"++++++++++++++++++++.@",
"++++++++++++++++++++.@",
"++++++++++++++++++++.@",
"++++++++++++++++++++.@",
"++++++++++++++++++++.@",
"++++++++++++++++++++.@",
"++++++++++++++++++++.@",
"++++++++++++++++++++.@",
"++++++++++++++++++++.@",
"++++++++++++++++++++.@",
"++++++++++++++++++++.@",
"++++++++++++++++++++.@",
"++++++++++++++++++++.@",
"++++++++++++++++++++++"};
