/* XPM */
static char *menuButtonA_xpm[] = {
"23 46 5 1",
". c #c4c4c4",
"+ c #81818f",
"@ c #6e6e6e",
"# c #000000",
"$ c #aaaaaa",
".......................",
"+++++++++++++++++++++++",
"+++++++++++++++++++++++",
"+++..............@#++++",
"+++.$$$$$$$$$$$$$@#++++",
"+++.$$$$$$$$$$$$$@#++++",
"+++.$$$$$$$$$$$$$@#++++",
"+++.$$$$$$$$$$$$$@#++++",
"+++.$$$$$$$$$$$$$@#++++",
"+++.$$$$$$$$$$$$$@#++++",
"+++.$$$$$$$$$$$$$@#++++",
"+++.$$$$$$$$$$$$$@#++++",
"+++.$$$$$$$$$$$$$@#++++",
"+++.$$$$$$$$$$$$$@#++++",
"+++.$$$$$$$$$$$$$@#++++",
"+++.$$$$$$$$$$$$$@#++++",
"+++.$$$$$$$$$$$$$@#++++",
"+++$@@@@@@@@@@@@@@#++++",
"+++################++++",
"+++++++++++++++++++++++",
"+++++++++++++++++++++++",
"@@@@@@@@@@@@@@@@@@@@@@@",
"#######################",
".......................",
"+++++++++++++++++++++++",
"+++++++++++++++++++++++",
"+++@@@@@@@@@@@@@@.#++++",
"+++@$$$$$$$$$$$$$.#++++",
"+++@$$$$$$$$$$$$$.#++++",
"+++@$$$$$$$$$$$$$.#++++",
"+++@$$$$$$$$$$$$$.#++++",
"+++@$$$$$$$$$$$$$.#++++",
"+++@$$$$$$$$$$$$$.#++++",
"+++@$$$$$$$$$$$$$.#++++",
"+++@$$$$$$$$$$$$$.#++++",
"+++@$$$$$$$$$$$$$.#++++",
"+++@$$$$$$$$$$$$$.#++++",
"+++@$$$$$$$$$$$$$.#++++",
"+++@$$$$$$$$$$$$$.#++++",
"+++@$$$$$$$$$$$$$.#++++",
"+++$..............#++++",
"+++################++++",
"+++++++++++++++++++++++",
"+++++++++++++++++++++++",
"@@@@@@@@@@@@@@@@@@@@@@@",
"#######################"};
