/* XPM */
static char *restoreI_xpm[] = {
"23 46 4 1",
". c #c4c4c4",
"+ c #aaaaaa",
"@ c #6e6e6e",
"# c #000000",
".......................",
"+++++++++++++++++++++++",
"+++++++++++++++++++++++",
"+++..............@#++++",
"+++.+++++++++++++@#++++",
"+++.+++++++++++++@#++++",
"+++.+++++++++++++@#++++",
"+++.+++++++++++++@#++++",
"+++.+++++++++++++@#++++",
"+++.+++++++++++++@#++++",
"+++.+++++++++++++@#++++",
"+++.+++++++++++++@#++++",
"+++.+++++++++++++@#++++",
"+++.+++++++++++++@#++++",
"+++.+++++++++++++@#++++",
"+++.+++++++++++++@#++++",
"+++.+++++++++++++@#++++",
"++++@@@@@@@@@@@@@@#++++",
"+++################++++",
"+++++++++++++++++++++++",
"+++++++++++++++++++++++",
"@@@@@@@@@@@@@@@@@@@@@@@",
"#######################",
".......................",
"+++++++++++++++++++++++",
"+++++++++++++++++++++++",
"+++@@@@@@@@@@@@@@.#++++",
"+++@+++++++++++++.#++++",
"+++@+++++++++++++.#++++",
"+++@+++++++++++++.#++++",
"+++@+++++++++++++.#++++",
"+++@+++++++++++++.#++++",
"+++@+++++++++++++.#++++",
"+++@+++++++++++++.#++++",
"+++@+++++++++++++.#++++",
"+++@+++++++++++++.#++++",
"+++@+++++++++++++.#++++",
"+++@+++++++++++++.#++++",
"+++@+++++++++++++.#++++",
"+++@+++++++++++++.#++++",
"++++..............#++++",
"+++################++++",
"+++++++++++++++++++++++",
"+++++++++++++++++++++++",
"@@@@@@@@@@@@@@@@@@@@@@@",
"#######################"};
