/* XPM */
static char *rollupA_xpm[] = {
"23 46 6 1",
". c #c4c4c4",
"+ c #81818f",
"@ c #ffffff",
"# c #6e6e6e",
"$ c #000000",
"% c #aaaaaa",
".......................",
"+++++++++++++++++++++++",
"+++++++++++++++++++++++",
"+++@@@@@@@@@@@@@@#$++++",
"+++@%%%%%%%%%%%%%#$++++",
"+++@%%%%%%%%%%%%%#$++++",
"+++@%%%%%%%%%%%%%#$++++",
"+++@%%%%%%%%%%%%%#$++++",
"+++@%%%%%%%%%%%%%#$++++",
"+++@%%%%%%%%%%%%%#$++++",
"+++@%%%%%%%%%%%%%#$++++",
"+++@%%%%%%%%%%%%%#$++++",
"+++@%%%%%%%%%%%%%#$++++",
"+++@%%%%%%%%%%%%%#$++++",
"+++@%%%%%%%%%%%%%#$++++",
"+++@%%%%%%%%%%%%%#$++++",
"+++@%%%%%%%%%%%%%#$++++",
"+++%##############$++++",
"+++$$$$$$$$$$$$$$$$++++",
"+++++++++++++++++++++++",
"+++++++++++++++++++++++",
"#######################",
"$$$$$$$$$$$$$$$$$$$$$$$",
".......................",
"+++++++++++++++++++++++",
"+++++++++++++++++++++++",
"+++##############@$++++",
"+++#%%%%%%%%%%%%%@$++++",
"+++#%%%%%%%%%%%%%@$++++",
"+++#%%%%%%%%%%%%%@$++++",
"+++#%%%%%%%%%%%%%@$++++",
"+++#%%%%%%%%%%%%%@$++++",
"+++#%%%%%%%%%%%%%@$++++",
"+++#%%%%%%%%%%%%%@$++++",
"+++#%%%%%%%%%%%%%@$++++",
"+++#%%%%%%%%%%%%%@$++++",
"+++#%%%%%%%%%%%%%@$++++",
"+++#%%%%%%%%%%%%%@$++++",
"+++#%%%%%%%%%%%%%@$++++",
"+++#%%%%%%%%%%%%%@$++++",
"+++%@@@@@@@@@@@@@@$++++",
"+++$$$$$$$$$$$$$$$$++++",
"+++++++++++++++++++++++",
"+++++++++++++++++++++++",
"#######################",
"$$$$$$$$$$$$$$$$$$$$$$$"};
