/* XPM */
static char *frameABL[]={
"23 23 5 1",
"c c None",
". c #383838",
"b c #464646",
"a c #525252",
"# c #5b5b5b",
".#aab.ccccccccccccccccc",
".#aab.ccccccccccccccccc",
".#aab.ccccccccccccccccc",
".#aab.ccccccccccccccccc",
".#aab.ccccccccccccccccc",
".#aab.ccccccccccccccccc",
".#aab.ccccccccccccccccc",
".#aab.ccccccccccccccccc",
".#aab.ccccccccccccccccc",
".#aab.ccccccccccccccccc",
".#aab.ccccccccccccccccc",
".#aab.ccccccccccccccccc",
".#aab.ccccccccccccccccc",
".#aab.ccccccccccccccccc",
".#aab.ccccccccccccccccc",
".#aab.ccccccccccccccccc",
".#aab.ccccccccccccccccc",
".#aab..................",
".#aaa##################",
".#aaaaaaaaaaaaaaaaaaaaa",
".#aaaaaaaaaaaaaaaaaaaaa",
".abbbbbbbbbbbbbbbbbbbbb",
"......................."};
