/* XPM */
static char * frameABR_xpm[] = {
"31 31 29 1",
" 	c None",
".	c #eabfc2",
"+	c #814246",
"@	c #ffffff",
"#	c #cd6c73",
"$	c #914a4f",
"%	c #000000",
"&	c #d48086",
"*	c #5b2e31",
"=	c #ab575d",
"-	c #954c51",
";	c #6e383c",
">	c #cc686f",
",	c #924a4f",
"'	c #954c51",
")	c #fcf7f7",
"!	c #ebc4c6",
"~	c #c9676d",
"{	c #87454a",
"]	c #8a464b",
"^	c #f8ebec",
"/	c #f0d2d4",
"(	c #c6656c",
"_	c #914a4f",
":	c #f0d3d5",
"<	c #f4dfe0",
"[	c #cf7077",
"}	c #d1787e",
"|	c #f1d6d8",
"......+@#############$%  &*****",
"......+@#############$%  &&&&&*",
"......+@#############$%  &===**",
"......+@#############$%  &===**",
"......+@#############$%  &===**",
"......+@$$$$$$$$$$$$$$%  &===**",
"......+%%%%%%%%%%%%%%%%  &===**",
"......+@@@@@@@@@@@@@@@%  &===**",
"......+@#############$%  &===**",
"......+@#############$%  &===**",
"......+@#############$%  &===**",
"......+@#############$%  &===**",
"......+@#############$%  &===**",
"......+@##-;;;;;;-###$%  &===**",
"......+@##>,,;;;')!!#$%  &===**",
"......+@###~~{;]^/###$%  &===**",
"......+@#####(_:<[###$%  &===**",
"......+@######}|}####$%  &===**",
"......+@#############$%  &===**",
"......+@#############$%  &===**",
"......+@#############$%  &===**",
"......+@$$$$$$$$$$$$$$%  &===**",
"......+%%%%%%%%%%%%%%%%  &===**",
"                         &===**",
"                         &===**",
"&&&&&&&&&&&&&&&&&&&&&&&&&&===**",
"*&===========================**",
"*&===========================**",
"*&===========================**",
"*&*****************************",
"*******************************"};
