/* XPM */
static char * menuButtonA_xpm[] = {
"24 48 4 1",
" 	c #e9bdc0",
".	c #6c373b",
"+	c #cc686f",
"@	c #4b2629",
"                       .",
" ++++++++++++++++++++++.",
" ++++++++++++++++++++++.",
" ++++++++++++++++++++++.",
" ++++++++++++++++++++++.",
" ++++++++++++++++++++++.",
" ++++++++++++++++++++++.",
" ++++++++++++++++++++++.",
" ++++++++++++++++++++++.",
" ++++             @++++.",
" ++++ ++++++++++++@++++.",
" ++++ ++++++++++++@++++.",
" ++++ ++++++++++++@++++.",
" ++++ ++++++++++++@++++.",
" ++++ @@@@@@@@@@@@@++++.",
" ++++++++++++++++++++++.",
" ++++++++++++++++++++++.",
" ++++++++++++++++++++++.",
" ++++++++++++++++++++++.",
" ++++++++++++++++++++++.",
" ++++++++++++++++++++++.",
" ++++++++++++++++++++++.",
" ++++++++++++++++++++++.",
" .......................",
"....................... ",
".++++++++++++++++++++++ ",
".++++++++++++++++++++++ ",
".++++++++++++++++++++++ ",
".++++++++++++++++++++++ ",
".++++++++++++++++++++++ ",
".++++++++++++++++++++++ ",
".++++++++++++++++++++++ ",
".++++++++++++++++++++++ ",
".++++             @++++ ",
".++++ ++++++++++++@++++ ",
".++++ ++++++++++++@++++ ",
".++++ ++++++++++++@++++ ",
".++++ ++++++++++++@++++ ",
".++++ @@@@@@@@@@@@@++++ ",
".++++++++++++++++++++++ ",
".++++++++++++++++++++++ ",
".++++++++++++++++++++++ ",
".++++++++++++++++++++++ ",
".++++++++++++++++++++++ ",
".++++++++++++++++++++++ ",
".++++++++++++++++++++++ ",
".++++++++++++++++++++++ ",
".                       "};
