/* XPM */
static char *closeA_xpm[] = {
"23 46 5 1",
". c #c8c8c8",
"+ c #000000",
"@ c #686868",
"# c #ffffff",
"$ c #888888",
".......................",
"++++++++++++++++++++++@",
"++++++++++++++++++++++@",
"++++##############@+++@",
"++++#$$$$$$$$$$$$$@+++@",
"++++#$++$$$$$$$++$@+++@",
"++++#$$++$$$$$++$$@+++@",
"++++#$$$++$$$++$$$@+++@",
"++++#$$$$++$++$$$$@+++@",
"++++#$$$$$+++$$$$$@+++@",
"++++#$$$$$$+$$$$$$@+++@",
"++++#$$$$$+++$$$$$@+++@",
"++++#$$$$++$++$$$$@+++@",
"++++#$$$++$$$++$$$@+++@",
"++++#$$++$$$$$++$$@+++@",
"++++#$++$$$$$$$++$@+++@",
"++++#$$$$$$$$$$$$$@+++@",
"++++$@@@@@@@@@@@@@@+++@",
"++++++++++++++++++++++@",
"++++++++++++++++++++++@",
"++++++++++++++++++++++@",
"@@@@@@@@@@@@@@@@@@@@@@@",
"+++++++++++++++++++++++",
".......................",
"++++++++++++++++++++++@",
"++++++++++++++++++++++@",
"++++@@@@@@@@@@@@@@#+++@",
"++++@$$$$$$$$$$$$$#+++@",
"++++@$$$$$$$$$$$$$#+++@",
"++++@$$++$$$$$$++$#+++@",
"++++@$$$++$$$$++$$#+++@",
"++++@$$$$++$$++$$$#+++@",
"++++@$$$$$++++$$$$#+++@",
"++++@$$$$$$++$$$$$#+++@",
"++++@$$$$$$++$$$$$#+++@",
"++++@$$$$$++++$$$$#+++@",
"++++@$$$$++$$++$$$#+++@",
"++++@$$$++$$$$++$$#+++@",
"++++@$$++$$$$$$++$#+++@",
"++++@$$$$$$$$$$$$$#+++@",
"++++$##############+++@",
"++++++++++++++++++++++@",
"++++++++++++++++++++++@",
"++++++++++++++++++++++@",
"@@@@@@@@@@@@@@@@@@@@@@@",
"+++++++++++++++++++++++"};
