/* XPM */
static char *frameATR[]={
"23 23 5 1",
"c c None",
". c #333333",
"b c #8c8c8c",
"a c #aeaeae",
"# c #c8c8c8",
".......................",
"#####################a.",
"aaaaaaaaaaaaaaaaaaaaab.",
"aaaaaaaaaaaaaaaaaaaaab.",
"aaaaaaaaaaaaaaaaaaaaab.",
"aaaaaaaaaaaaaaaaaaaaab.",
"cccccccccccccccccaaaab.",
"cccccccccccccccccaaaab.",
"cccccccccccccccccaaaab.",
"cccccccccccccccccaaaab.",
"cccccccccccccccccaaaab.",
"cccccccccccccccccaaaab.",
"cccccccccccccccccaaaab.",
"cccccccccccccccccaaaab.",
"cccccccccccccccccaaaab.",
"cccccccccccccccccaaaab.",
"cccccccccccccccccaaaab.",
"cccccccccccccccccaaaab.",
"cccccccccccccccccaaaab.",
"cccccccccccccccccaaaab.",
"cccccccccccccccccaaaab.",
"cccccccccccccccccaaaab.",
"cccccccccccccccccaaaab."};
