/* XPM */
static char *frameIBL[]={
"23 23 3 1",
"a c None",
". c #9b9b9b",
"# c #c8c8c8",
".####.aaaaaaaaaaaaaaaaa",
".####.aaaaaaaaaaaaaaaaa",
".####.aaaaaaaaaaaaaaaaa",
".####.aaaaaaaaaaaaaaaaa",
".####.aaaaaaaaaaaaaaaaa",
".####.aaaaaaaaaaaaaaaaa",
".####.aaaaaaaaaaaaaaaaa",
".####.aaaaaaaaaaaaaaaaa",
".####.aaaaaaaaaaaaaaaaa",
".####.aaaaaaaaaaaaaaaaa",
".####.aaaaaaaaaaaaaaaaa",
".####.aaaaaaaaaaaaaaaaa",
".####.aaaaaaaaaaaaaaaaa",
".####.aaaaaaaaaaaaaaaaa",
".####.aaaaaaaaaaaaaaaaa",
".####.aaaaaaaaaaaaaaaaa",
".####.aaaaaaaaaaaaaaaaa",
".####..................",
".######################",
".######################",
".######################",
".######################",
"......................."};
