/* XPM */
static char *frameABR[]={
"23 23 5 1",
". c None",
"# c #333333",
"c c #8c8c8c",
"b c #aeaeae",
"a c #c8c8c8",
".................#abbc#",
".................#abbc#",
".................#abbc#",
".................#abbc#",
".................#abbc#",
".................#abbc#",
".................#abbc#",
".................#abbc#",
".................#abbc#",
".................#abbc#",
".................#abbc#",
".................#abbc#",
".................#abbc#",
".................#abbc#",
".................#abbc#",
".................#abbc#",
".................#abbc#",
"##################abbc#",
"aaaaaaaaaaaaaaaaaaabbc#",
"bbbbbbbbbbbbbbbbbbbbbc#",
"bbbbbbbbbbbbbbbbbbbbbc#",
"cccccccccccccccccccccc#",
"#######################"};
