/* XPM */
static char *frameABL[]={
"23 23 5 1",
"c c None",
". c #333333",
"b c #8c8c8c",
"a c #aeaeae",
"# c #c8c8c8",
".#aab.ccccccccccccccccc",
".#aab.ccccccccccccccccc",
".#aab.ccccccccccccccccc",
".#aab.ccccccccccccccccc",
".#aab.ccccccccccccccccc",
".#aab.ccccccccccccccccc",
".#aab.ccccccccccccccccc",
".#aab.ccccccccccccccccc",
".#aab.ccccccccccccccccc",
".#aab.ccccccccccccccccc",
".#aab.ccccccccccccccccc",
".#aab.ccccccccccccccccc",
".#aab.ccccccccccccccccc",
".#aab.ccccccccccccccccc",
".#aab.ccccccccccccccccc",
".#aab.ccccccccccccccccc",
".#aab.ccccccccccccccccc",
".#aab..................",
".#aaa##################",
".#aaaaaaaaaaaaaaaaaaaaa",
".#aaaaaaaaaaaaaaaaaaaaa",
".abbbbbbbbbbbbbbbbbbbbb",
"......................."};
