/* XPM */
static char *restoreI_xpm[] = {
"23 46 5 1",
". c #c8c8c8",
"+ c #888888",
"@ c #ffffff",
"# c #686868",
"$ c #000000",
".......................",
"+++++++++++++++++++++++",
"+++++++++++++++++++++++",
"+++@@@@@@@@@@@@@@#$++++",
"+++@+++++++++++++#$++++",
"+++@+++++++++++++#$++++",
"+++@+++++++++++++#$++++",
"+++@+++++++++++++#$++++",
"+++@+++++++++++++#$++++",
"+++@+++++++++++++#$++++",
"+++@+++++++++++++#$++++",
"+++@+++++++++++++#$++++",
"+++@+++++++++++++#$++++",
"+++@+++++++++++++#$++++",
"+++@+++++++++++++#$++++",
"+++@+++++++++++++#$++++",
"+++@+++++++++++++#$++++",
"++++##############$++++",
"+++$$$$$$$$$$$$$$$$++++",
"+++++++++++++++++++++++",
"+++++++++++++++++++++++",
"#######################",
"$$$$$$$$$$$$$$$$$$$$$$$",
".......................",
"+++++++++++++++++++++++",
"+++++++++++++++++++++++",
"+++##############@$++++",
"+++#+++++++++++++@$++++",
"+++#+++++++++++++@$++++",
"+++#+++++++++++++@$++++",
"+++#+++++++++++++@$++++",
"+++#+++++++++++++@$++++",
"+++#+++++++++++++@$++++",
"+++#+++++++++++++@$++++",
"+++#+++++++++++++@$++++",
"+++#+++++++++++++@$++++",
"+++#+++++++++++++@$++++",
"+++#+++++++++++++@$++++",
"+++#+++++++++++++@$++++",
"+++#+++++++++++++@$++++",
"++++@@@@@@@@@@@@@@$++++",
"+++$$$$$$$$$$$$$$$$++++",
"+++++++++++++++++++++++",
"+++++++++++++++++++++++",
"#######################",
"$$$$$$$$$$$$$$$$$$$$$$$"};
