/* XPM */
static char * DtMail_32x32_xpm[] = {
"32 32 11 1",
" 	c None",
".	c #BDBDBD",
"+	c #DEDEDE",
"@	c #737373",
"#	c #ADADAD",
"$	c #636363",
"%	c #FFFFFF",
"&	c #949494",
"*	c #FF0000",
"=	c #00FF00",
"-	c #424242",
"                                ",
"                                ",
"                                ",
"                                ",
"    .+++++++++++.+.+.......@    ",
"    +##########@#@@@@@@$@$@$    ",
"   ++++++++++++.+.+.........@   ",
"   +#########@#@@@@@@@$@$@$@$   ",
"  #%%%%%%%%%%%%%%%%%%%%%%%%%%$  ",
"  #%&&+&&++++++++++&*&+*++=.+$  ",
"  #%++++++++++++++++++*+&+.=+$  ",
" #&%&&&+&++++++++++&*&+*++=.+$& ",
" #&%+++++++++++++++++++++++.+$& ",
" +&%+++++++++++++++++++++++++$& ",
" %&%+++++++++++++++++++++.+.+$# ",
" %&%++++++++++++++++++++++++.$# ",
" %&%+++++++++++++++++++++.+.&@# ",
" %&%.....++&&&&&+&&&&&+.##&&&@# ",
" %++++++@...+++++++++++#.+++++. ",
" %%..##&&@#@@&+&&&+&&&#++&&&$$- ",
" %..##&&&@#..+++++++++#+&&&&&$- ",
" %%..##&&@##..........#+&&&&$$- ",
" %..##&&&&+++++++++++++&&&&&&$- ",
" %%..##&&&&&&&&&&&&&&&&&&&&&$$- ",
" %..##&&&&&&&&&&&&&&&&&&&&&&&$- ",
" %%..##&&&&&&&&&&&&&&&&&&&&&$$- ",
"  $$$$$$$$$$$$$$$$$$$$$$$$$$$-  ",
"                                ",
"                                ",
"                                ",
"                                ",
"                                "};
