/* XPM */
static char *dframeATL_xpm[] = {
"23 23 3 1",
"  c #000000",
". c #ffffff",
"+ c None",
"                       ",
" ......................",
" .                     ",
" .                     ",
" .                     ",
" .                     ",
" .    +++++++++++++++++",
" .    +++++++++++++++++",
" .    +++++++++++++++++",
" .    +++++++++++++++++",
" .    +++++++++++++++++",
" .    +++++++++++++++++",
" .    +++++++++++++++++",
" .    +++++++++++++++++",
" .    +++++++++++++++++",
" .    +++++++++++++++++",
" .    +++++++++++++++++",
" .    +++++++++++++++++",
" .    +++++++++++++++++",
" .    +++++++++++++++++",
" .    +++++++++++++++++",
" .    +++++++++++++++++",
" .    +++++++++++++++++"};
