/* XPM */
static char *dframeITL_xpm[] = {
"23 23 3 1",
"  c #303030",
". c #5b5b5b",
"+ c None",
"                       ",
" ......................",
" ......................",
" ......................",
" ......................",
" ......................",
" .....+++++++++++++++++",
" .....+++++++++++++++++",
" .....+++++++++++++++++",
" .....+++++++++++++++++",
" .....+++++++++++++++++",
" .....+++++++++++++++++",
" .....+++++++++++++++++",
" .....+++++++++++++++++",
" .....+++++++++++++++++",
" .....+++++++++++++++++",
" .....+++++++++++++++++",
" .....+++++++++++++++++",
" .....+++++++++++++++++",
" .....+++++++++++++++++",
" .....+++++++++++++++++",
" .....+++++++++++++++++",
" .....+++++++++++++++++"};
