/* XPM */
static char *dframeATR_xpm[] = {
"23 23 5 1",
"  c #000000",
". c #ffffff",
"+ c #454545",
"@ c #303030",
"# c None",
"                       ",
".....................+ ",
"+++++++++++++++++++++@ ",
"+++++++++++++++++++++@ ",
"+++++++++++++++++++++@ ",
"+++++++++++++++++++++@ ",
"#################++++@ ",
"#################++++@ ",
"#################++++@ ",
"#################++++@ ",
"#################++++@ ",
"#################++++@ ",
"#################++++@ ",
"#################++++@ ",
"#################++++@ ",
"#################++++@ ",
"#################++++@ ",
"#################++++@ ",
"#################++++@ ",
"#################++++@ ",
"#################++++@ ",
"#################++++@ ",
"#################++++@ "};
