/* XPM */
static char *frameATL[]={
"23 23 4 1",
"b c None",
". c #383838",
"a c #525252",
"# c #5b5b5b",
".......................",
".######################",
".#aaaaaaaaaaaaaaaaaaaaa",
".#aaaaaaaaaaaaaaaaaaaaa",
".#aaaaaaaaaaaaaaaaaaaaa",
".#aaaaaaaaaaaaaaaaaaaaa",
".#aaaabbbbbbbbbbbbbbbbb",
".#aaaabbbbbbbbbbbbbbbbb",
".#aaaabbbbbbbbbbbbbbbbb",
".#aaaabbbbbbbbbbbbbbbbb",
".#aaaabbbbbbbbbbbbbbbbb",
".#aaaabbbbbbbbbbbbbbbbb",
".#aaaabbbbbbbbbbbbbbbbb",
".#aaaabbbbbbbbbbbbbbbbb",
".#aaaabbbbbbbbbbbbbbbbb",
".#aaaabbbbbbbbbbbbbbbbb",
".#aaaabbbbbbbbbbbbbbbbb",
".#aaaabbbbbbbbbbbbbbbbb",
".#aaaabbbbbbbbbbbbbbbbb",
".#aaaabbbbbbbbbbbbbbbbb",
".#aaaabbbbbbbbbbbbbbbbb",
".#aaaabbbbbbbbbbbbbbbbb",
".#aaaabbbbbbbbbbbbbbbbb"};
