/* XPM */
static char *maximizeA_xpm[] = {
"16 38 5 1",
". c #454545",
"+ c #303030",
"@ c #000000",
"# c #ffffff",
"$ c #5b5b5b",
"................",
"...++++++++++++.",
"...+@@@@@@@@@@@#",
"...+@#....@...@#",
"...+@.....@..+@#",
"...+@.....@..+@#",
"...+@.....@.$+@#",
"...+@.....@$$+@#",
"...+@@@@@@@$$+@#",
"...+@....$$$$+@#",
"...+@...$$$$#+@#",
"...+@.++++++++@#",
"...+@@@@@@@@@@@#",
"....############",
"................",
"................",
"................",
"++++++++++++++++",
"@@@@@@@@@@@@@@@@",
"................",
"...++++++++++++.",
"...+@@@@@@@@@@@#",
"...+@+++++++++@#",
"...+@+#....@..@#",
"...+@+.....@..@#",
"...+@+.....@..@#",
"...+@+.....@.$@#",
"...+@+.....@$$@#",
"...+@+@@@@@@$$@#",
"...+@+....$$$$@#",
"...+@+...$$$$#@#",
"...+@@@@@@@@@@@#",
"....############",
"................",
"................",
"................",
"++++++++++++++++",
"@@@@@@@@@@@@@@@@"};
