/* XPM */
static char *rolldownI_xpm[] = {
"23 46 5 1",
". c #767682",
"+ c #3b3b4c",
"@ c #ffffff",
"# c #262631",
"$ c #000000",
".......................",
"+++++++++++++++++++++++",
"+++++++++++++++++++++++",
"+++@@@@@@@@@@@@@@#$++++",
"+++@+++++++++++++#$++++",
"+++@+++++++++++++#$++++",
"+++@+++++++++++++#$++++",
"+++@+++++++++++++#$++++",
"+++@+++++++++++++#$++++",
"+++@+++++++++++++#$++++",
"+++@+++++++++++++#$++++",
"+++@+++++++++++++#$++++",
"+++@+++++++++++++#$++++",
"+++@+++++++++++++#$++++",
"+++@+++++++++++++#$++++",
"+++@+++++++++++++#$++++",
"+++@+++++++++++++#$++++",
"++++##############$++++",
"+++$$$$$$$$$$$$$$$$++++",
"+++++++++++++++++++++++",
"+++++++++++++++++++++++",
"#######################",
"$$$$$$$$$$$$$$$$$$$$$$$",
".......................",
"+++++++++++++++++++++++",
"+++++++++++++++++++++++",
"+++##############@$++++",
"+++#+++++++++++++@$++++",
"+++#+++++++++++++@$++++",
"+++#+++++++++++++@$++++",
"+++#+++++++++++++@$++++",
"+++#+++++++++++++@$++++",
"+++#+++++++++++++@$++++",
"+++#+++++++++++++@$++++",
"+++#+++++++++++++@$++++",
"+++#+++++++++++++@$++++",
"+++#+++++++++++++@$++++",
"+++#+++++++++++++@$++++",
"+++#+++++++++++++@$++++",
"+++#+++++++++++++@$++++",
"++++@@@@@@@@@@@@@@$++++",
"+++$$$$$$$$$$$$$$$$++++",
"+++++++++++++++++++++++",
"+++++++++++++++++++++++",
"#######################",
"$$$$$$$$$$$$$$$$$$$$$$$"};
