/* XPM */
static char *rollupI_xpm[] = {
"23 46 4 1",
". c #767682",
"+ c #3b3b4c",
"@ c #262631",
"# c #000000",
".......................",
"+++++++++++++++++++++++",
"+++++++++++++++++++++++",
"+++..............@#++++",
"+++.+++++++++++++@#++++",
"+++.+++++++++++++@#++++",
"+++.+++++++++++++@#++++",
"+++.+++++++++++++@#++++",
"+++.+++++++++++++@#++++",
"+++.+++++++++++++@#++++",
"+++.+++++++++++++@#++++",
"+++.+++++++++++++@#++++",
"+++.+++++++++++++@#++++",
"+++.+++++++++++++@#++++",
"+++.+++++++++++++@#++++",
"+++.+++++++++++++@#++++",
"+++.+++++++++++++@#++++",
"++++@@@@@@@@@@@@@@#++++",
"+++################++++",
"+++++++++++++++++++++++",
"+++++++++++++++++++++++",
"@@@@@@@@@@@@@@@@@@@@@@@",
"#######################",
".......................",
"+++++++++++++++++++++++",
"+++++++++++++++++++++++",
"+++@@@@@@@@@@@@@@.#++++",
"+++@+++++++++++++.#++++",
"+++@+++++++++++++.#++++",
"+++@+++++++++++++.#++++",
"+++@+++++++++++++.#++++",
"+++@+++++++++++++.#++++",
"+++@+++++++++++++.#++++",
"+++@+++++++++++++.#++++",
"+++@+++++++++++++.#++++",
"+++@+++++++++++++.#++++",
"+++@+++++++++++++.#++++",
"+++@+++++++++++++.#++++",
"+++@+++++++++++++.#++++",
"+++@+++++++++++++.#++++",
"++++..............#++++",
"+++################++++",
"+++++++++++++++++++++++",
"+++++++++++++++++++++++",
"@@@@@@@@@@@@@@@@@@@@@@@",
"#######################"};
