/* XPM */
static char * dframeABR_xpm[] = {
"31 31 29 1",
" 	c #ffb8be",
".	c #a1363f",
"+	c #ffffff",
"@	c #ff5a68",
"#	c #b53d47",
"$	c #000000",
"%	c #ffedee",
"&	c #ff717d",
"*	c #71262c",
"=	c #d64854",
"-	c #bb3f49",
";	c #892e36",
">	c #ff5664",
",	c #b63d47",
"'	c #bb3f49",
")	c #fff6f7",
"!	c #ffbdc2",
"~	c #fb5563",
"{	c #a93942",
"]	c #ad3a44",
"^	c #ffe9eb",
"/	c #ffcdd1",
"(	c #f85461",
"_	c #b53d47",
":	c #ffced2",
"<	c #ffdbde",
"[	c #ff5f6d",
"}	c #ff6874",
"|	c #ffd1d5",
"      .+@@@@@@@@@@@@@#$%&******",
"      .+@@@@@@@@@@@@@#$%&&&&&&*",
"      .+@@@@@@@@@@@@@#$%&====**",
"      .+@@@@@@@@@@@@@#$%&====**",
"      .+@@@@@@@@@@@@@#$%&====**",
"      .+##############$%&====**",
"      .$$$$$$$$$$$$$$$$%&====**",
"      .+++++++++++++++$%&====**",
"      .+@@@@@@@@@@@@@#$%&====**",
"      .+@@@@@@@@@@@@@#$%&====**",
"      .+@@@@@@@@@@@@@#$%&====**",
"      .+@@@@@@@@@@@@@#$%&====**",
"      .+@@@@@@@@@@@@@#$%&====**",
"      .+@@-;;;;;;-@@@#$%&====**",
"      .+@@>,,;;;')!!@#$%&====**",
"      .+@@@~~{;]^/@@@#$%&====**",
"      .+@@@@@(_:<[@@@#$%&====**",
"      .+@@@@@@}|}@@@@#$%&====**",
"      .+@@@@@@@@@@@@@#$%&====**",
"      .+@@@@@@@@@@@@@#$%&====**",
"      .+@@@@@@@@@@@@@#$%&====**",
"      .+##############$%&====**",
"      .$$$$$$$$$$$$$$$$%&====**",
"      %%%%%%%%%%%%%%%%%%&====**",
"&&&&&&&&&&&&&&&&&&&&&&&&&====**",
"*&===========================**",
"*&===========================**",
"*&===========================**",
"*&===========================**",
"*&*****************************",
"*******************************"};
