/* XPM */
static char * buttonI_xpm[] = {
"76 22 5 1",
" 	c #D8D5EC",
".	c #000000",
"+	c #AEA8D9",
"@	c #AEA8D9",
"#	c #5A4EB1",
"                                                                          .+",
" @@@@@@@@@@@@@@@@@@@@@@@@@@@@@@@@@@@@@@@@@@@@@@@@@@@@@@@@@@@@@@@@@@@@@@@@#.+",
" @+++++++++++++++++++++++++++++++++++++++++++++++++++++++++++++++++++++++#.+",
" @+++++++++++++++++++++++++++++++++++++++++++++++++++++++++++++++++++++++#.+",
" @+++++++++++++++++++++++++++++++++++++++++++++++++++++++++++++++++++++++#.+",
" @+++++++++++++++++++++++++++++++++++++++++++++++++++++++++++++++++++++++#.+",
" @+++++++++++++++++++++++++++++++++++++++++++++++++++++++++++++++++++++++#.+",
" @+++++++++++++++++++++++++++++++++++++++++++++++++++++++++++++++++++++++#.+",
" @+++++++++++++++++++++++++++++++++++++++++++++++++++++++++++++++++++++++#.+",
" @+++++++++++++++++++++++++++++++++++++++++++++++++++++++++++++++++++++++#.+",
" @+++++++++++++++++++++++++++++++++++++++++++++++++++++++++++++++++++++++#.+",
" @+++++++++++++++++++++++++++++++++++++++++++++++++++++++++++++++++++++++#.+",
" @+++++++++++++++++++++++++++++++++++++++++++++++++++++++++++++++++++++++#.+",
" @+++++++++++++++++++++++++++++++++++++++++++++++++++++++++++++++++++++++#.+",
" @+++++++++++++++++++++++++++++++++++++++++++++++++++++++++++++++++++++++#.+",
" @+++++++++++++++++++++++++++++++++++++++++++++++++++++++++++++++++++++++#.+",
" @+++++++++++++++++++++++++++++++++++++++++++++++++++++++++++++++++++++++#.+",
" @+++++++++++++++++++++++++++++++++++++++++++++++++++++++++++++++++++++++#.+",
" @+++++++++++++++++++++++++++++++++++++++++++++++++++++++++++++++++++++++#.+",
" #########################################################################.+",
"...........................................................................+",
"++++++++++++++++++++++++++++++++++++++++++++++++++++++++++++++++++++++++++++"};
