/* XPM */
static char * taskbuttonbg_xpm[] = {
"59 28 5 1",
" 	c #D8D5EC",
".	c #AEA8D9",
"+	c #000000",
"@	c #AEA8D9",
"#	c #5A4EB1",
"                                                           ",
"...........................................................",
"...........................................................",
"..                                                       +.",
".. @@@@@@@@@@@@@@@@@@@@@@@@@@@@@@@@@@@@@@@@@@@@@@@@@@@@@#+.",
".. @....................................................#+.",
".. @....................................................#+.",
".. @....................................................#+.",
".. @....................................................#+.",
".. @....................................................#+.",
".. @....................................................#+.",
".. @....................................................#+.",
".. @....................................................#+.",
".. @....................................................#+.",
".. @....................................................#+.",
".. @....................................................#+.",
".. @....................................................#+.",
".. @....................................................#+.",
".. @....................................................#+.",
".. @....................................................#+.",
".. @....................................................#+.",
".. @....................................................#+.",
".. @....................................................#+.",
".. ######################################################+.",
"..++++++++++++++++++++++++++++++++++++++++++++++++++++++++.",
"...........................................................",
"...........................................................",
"..........................................................."};
