/* XPM */
static char *dframeABL_xpm[] = {
"23 23 5 1",
"  c #000000",
". c #ffffff",
"+ c #9294a8",
"@ c #5f606d",
"# c None",
" .++@ #################",
" .++@ #################",
" .++@ #################",
" .++@ #################",
" .++@ #################",
" .++@ #################",
" .++@ #################",
" .++@ #################",
" .++@ #################",
" .++@ #################",
" .++@ #################",
" .++@ #################",
" .++@ #################",
" .++@ #################",
" .++@ #################",
" .++@ #################",
" .++@ #################",
" .++@                  ",
" .+++..................",
" .+++++++++++++++++++++",
" .+++++++++++++++++++++",
" +@@@@@@@@@@@@@@@@@@@@@",
"                       "};
