/* XPM */
static char *closeA_xpm[] = {
"23 46 5 1",
". c #f4f4f4",
"+ c #000000",
"@ c #9c9c9c",
"# c #ffffff",
"$ c #f0f0f0",
".......................",
"++++++++++++++++++++++@",
"++++++++++++++++++++++@",
"++++##############@+++@",
"++++#$$$$$$$$$$$$$@+++@",
"++++#$++$$$$$$$++$@+++@",
"++++#$$++$$$$$++$$@+++@",
"++++#$$$++$$$++$$$@+++@",
"++++#$$$$++$++$$$$@+++@",
"++++#$$$$$+++$$$$$@+++@",
"++++#$$$$$$+$$$$$$@+++@",
"++++#$$$$$+++$$$$$@+++@",
"++++#$$$$++$++$$$$@+++@",
"++++#$$$++$$$++$$$@+++@",
"++++#$$++$$$$$++$$@+++@",
"++++#$++$$$$$$$++$@+++@",
"++++#$$$$$$$$$$$$$@+++@",
"++++$@@@@@@@@@@@@@@+++@",
"++++++++++++++++++++++@",
"++++++++++++++++++++++@",
"++++++++++++++++++++++@",
"@@@@@@@@@@@@@@@@@@@@@@@",
"+++++++++++++++++++++++",
".......................",
"++++++++++++++++++++++@",
"++++++++++++++++++++++@",
"++++@@@@@@@@@@@@@@#+++@",
"++++@$$$$$$$$$$$$$#+++@",
"++++@$$$$$$$$$$$$$#+++@",
"++++@$$++$$$$$$++$#+++@",
"++++@$$$++$$$$++$$#+++@",
"++++@$$$$++$$++$$$#+++@",
"++++@$$$$$++++$$$$#+++@",
"++++@$$$$$$++$$$$$#+++@",
"++++@$$$$$$++$$$$$#+++@",
"++++@$$$$$++++$$$$#+++@",
"++++@$$$$++$$++$$$#+++@",
"++++@$$$++$$$$++$$#+++@",
"++++@$$++$$$$$$++$#+++@",
"++++@$$$$$$$$$$$$$#+++@",
"++++$##############+++@",
"++++++++++++++++++++++@",
"++++++++++++++++++++++@",
"++++++++++++++++++++++@",
"@@@@@@@@@@@@@@@@@@@@@@@",
"+++++++++++++++++++++++"};
