/* XPM */
static char *closeI_xpm[] = {
"23 46 5 1",
". c #f4f4f4",
"+ c #f0f0f0",
"@ c #9c9c9c",
"# c #ffffff",
"$ c #000000",
".......................",
"++++++++++++++++++++++@",
"++++++++++++++++++++++@",
"++++##############@$++@",
"++++#+++++++++++++@$++@",
"++++#+$$+++++++$$+@$++@",
"++++#++$$+++++$$++@$++@",
"++++#+++$$+++$$+++@$++@",
"++++#++++$$+$$++++@$++@",
"++++#+++++$$$+++++@$++@",
"++++#++++++$++++++@$++@",
"++++#+++++$$$+++++@$++@",
"++++#++++$$+$$++++@$++@",
"++++#+++$$+++$$+++@$++@",
"++++#++$$+++++$$++@$++@",
"++++#+$$+++++++$$+@$++@",
"++++#+++++++++++++@$++@",
"+++++@@@@@@@@@@@@@@$++@",
"++++$$$$$$$$$$$$$$$$++@",
"++++++++++++++++++++++@",
"++++++++++++++++++++++@",
"@@@@@@@@@@@@@@@@@@@@@@@",
"$$$$$$$$$$$$$$$$$$$$$$$",
".......................",
"++++++++++++++++++++++@",
"++++++++++++++++++++++@",
"++++@@@@@@@@@@@@@@#$++@",
"++++@+++++++++++++#$++@",
"++++@+++++++++++++#$++@",
"++++@++$$++++++$$+#$++@",
"++++@+++$$++++$$++#$++@",
"++++@++++$$++$$+++#$++@",
"++++@+++++$$$$++++#$++@",
"++++@++++++$$+++++#$++@",
"++++@++++++$$+++++#$++@",
"++++@+++++$$$$++++#$++@",
"++++@++++$$++$$+++#$++@",
"++++@+++$$++++$$++#$++@",
"++++@++$$++++++$$+#$++@",
"++++@+++++++++++++#$++@",
"+++++##############$++@",
"++++$$$$$$$$$$$$$$$$++@",
"++++++++++++++++++++++@",
"++++++++++++++++++++++@",
"@@@@@@@@@@@@@@@@@@@@@@@",
"$$$$$$$$$$$$$$$$$$$$$$$"};
