/* XPM */
static char *frameATR[]={
"23 23 5 1",
"c c None",
". c #5a5a5a",
"b c #f0f0f0",
"a c #f2f2f2",
"# c #f4f4f4",
".......................",
"#####################a.",
"aaaaaaaaaaaaaaaaaaaaab.",
"aaaaaaaaaaaaaaaaaaaaab.",
"aaaaaaaaaaaaaaaaaaaaab.",
"aaaaaaaaaaaaaaaaaaaaab.",
"cccccccccccccccccaaaab.",
"cccccccccccccccccaaaab.",
"cccccccccccccccccaaaab.",
"cccccccccccccccccaaaab.",
"cccccccccccccccccaaaab.",
"cccccccccccccccccaaaab.",
"cccccccccccccccccaaaab.",
"cccccccccccccccccaaaab.",
"cccccccccccccccccaaaab.",
"cccccccccccccccccaaaab.",
"cccccccccccccccccaaaab.",
"cccccccccccccccccaaaab.",
"cccccccccccccccccaaaab.",
"cccccccccccccccccaaaab.",
"cccccccccccccccccaaaab.",
"cccccccccccccccccaaaab.",
"cccccccccccccccccaaaab."};
