/* XPM */
static char *rollupI_xpm[] = {
"23 46 5 1",
". c #f4f4f4",
"+ c #f0f0f0",
"@ c #ffffff",
"# c #9c9c9c",
"$ c #000000",
".......................",
"+++++++++++++++++++++++",
"+++++++++++++++++++++++",
"+++@@@@@@@@@@@@@@#$++++",
"+++@+++++++++++++#$++++",
"+++@+++++++++++++#$++++",
"+++@+++++++++++++#$++++",
"+++@+++++++++++++#$++++",
"+++@+++++++++++++#$++++",
"+++@+++++++++++++#$++++",
"+++@+++++++++++++#$++++",
"+++@+++++++++++++#$++++",
"+++@+++++++++++++#$++++",
"+++@+++++++++++++#$++++",
"+++@+++++++++++++#$++++",
"+++@+++++++++++++#$++++",
"+++@+++++++++++++#$++++",
"++++##############$++++",
"+++$$$$$$$$$$$$$$$$++++",
"+++++++++++++++++++++++",
"+++++++++++++++++++++++",
"#######################",
"$$$$$$$$$$$$$$$$$$$$$$$",
".......................",
"+++++++++++++++++++++++",
"+++++++++++++++++++++++",
"+++##############@$++++",
"+++#+++++++++++++@$++++",
"+++#+++++++++++++@$++++",
"+++#+++++++++++++@$++++",
"+++#+++++++++++++@$++++",
"+++#+++++++++++++@$++++",
"+++#+++++++++++++@$++++",
"+++#+++++++++++++@$++++",
"+++#+++++++++++++@$++++",
"+++#+++++++++++++@$++++",
"+++#+++++++++++++@$++++",
"+++#+++++++++++++@$++++",
"+++#+++++++++++++@$++++",
"+++#+++++++++++++@$++++",
"++++@@@@@@@@@@@@@@$++++",
"+++$$$$$$$$$$$$$$$$++++",
"+++++++++++++++++++++++",
"+++++++++++++++++++++++",
"#######################",
"$$$$$$$$$$$$$$$$$$$$$$$"};
