/* XPM */
static char *closeA_xpm[] = {
"21 44 5 1",
". c #B6B6B6",
"+ c #f0651f",
"@ c #616161",
"# c #ffffff",
"$ c #000000",
".....................",
".+++++++++++++++++++@",
".+++++++++++++++++++@",
".+++++++++++++++++++@",
".+++++++++++++++++++@",
".+++++++++++++++++++@",
".+++++##+++++##+++++@",
".+++++###+++###+++++@",
".++++++###+###++++++@",
".+++++++#####+++++++@",
".++++++++###++++++++@",
".+++++++#####+++++++@",
".++++++###+###++++++@",
".+++++###+++###+++++@",
".+++++##+++++##+++++@",
".+++++++++++++++++++@",
".+++++++++++++++++++@",
".+++++++++++++++++++@",
".+++++++++++++++++++@",
".+++++++++++++++++++@",
"@@@@@@@@@@@@@@@@@@@@@",
"$$$$$$$$$$$$$$$$$$$$$",
"@@@@@@@@@@@@@@@@@@@@@",
"@+++++++++++++++++++.",
"@+++++++++++++++++++.",
"@+++++++++++++++++++.",
"@+++++++++++++++++++.",
"@+++++++++++++++++++.",
"@+++++++++++++++++++.",
"@++++++##+++++##++++.",
"@++++++###+++###++++.",
"@+++++++###+###+++++.",
"@++++++++#####++++++.",
"@+++++++++###+++++++.",
"@++++++++#####++++++.",
"@+++++++###+###+++++.",
"@++++++###+++###++++.",
"@++++++##+++++##++++.",
"@+++++++++++++++++++.",
"@+++++++++++++++++++.",
"@+++++++++++++++++++.",
"@+++++++++++++++++++.",
".....................",
"$$$$$$$$$$$$$$$$$$$$$"};
