/* XPM */
static char * dframeIBL_xpm[] = {
"31 31 4 1",
" 	c #b75f5f",
".	c #442323",
"+	c #bd6d6d",
"@	c #864646",
" ......++++++++++++++++++++++++",
"      .++++++++++++++++++++++++",
"  @@@@.++++++++++++++++++++++++",
"  @@@@.++++++++++++++++++++++++",
"  @@@@.++++++++++++++++++++++++",
"  @@@@.++++++++++++++++++++++++",
"  @@@@.++++++++++++++++++++++++",
"  @@@@.++++++++++++++++++++++++",
"  @@@@.++++++++++++++++++++++++",
"  @@@@.++++++++++++++++++++++++",
"  @@@@.++++++++++++++++++++++++",
"  @@@@.++++++++++++++++++++++++",
"  @@@@.++++++++++++++++++++++++",
"  @@@@.++++++++++++++++++++++++",
"  @@@@.++++++++++++++++++++++++",
"  @@@@.++++++++++++++++++++++++",
"  @@@@.++++++++++++++++++++++++",
"  @@@@.++++++++++++++++++++++++",
"  @@@@.++++++++++++++++++++++++",
"  @@@@.++++++++++++++++++++++++",
"  @@@@.++++++++++++++++++++++++",
"  @@@@.++++++++++++++++++++++++",
"  @@@@.++++++++++++++++++++++++",
"  @@@@.++++++++++++++++++++++++",
"  @@@@.                        ",
"  @@@@@@@@@@@@@@@@@@@@@@@@@@@. ",
"  @@@@@@@@@@@@@@@@@@@@@@@@@@@. ",
"  @@@@@@@@@@@@@@@@@@@@@@@@@@@. ",
"  @@@@@@@@@@@@@@@@@@@@@@@@@@@. ",
"  ............................ ",
" .............................."};
