/* XPM */
static char * frameIBL_xpm[] = {
"31 31 6 1",
" 	c #b75f5f",
".	c #532b2b",
"+	c #e6c7c7",
"@	c #864646",
"#	c #ffffff",
"$	c #442323",
" ......++++++++++++++++++++++++",
"      .++++++++++++++++++++++++",
"  @@@@.++++++++++++++++++++++++",
"  @@@@.++++++++++++++++++++++++",
"  @@@@.++++++++++++++++++++++++",
"  @@@@.++++++++++++++++++++++++",
"  @@@@.++++++++++++++++++++++++",
"  @@@@.++++++++++++++++++++++++",
"  @@@@.++++++++++++++++++++++++",
"  @@@@.++++++++++++++++++++++++",
"  @@@@.++++++++++++++++++++++++",
"  @@@@.++++++++++++++++++++++++",
"  @@@@.++++++++++++++++++++++++",
"  @@@@.++++++++++++++++++++++++",
"  @@@@.++++++++++++++++++++++++",
"  @@@@.++++++++++++++++++++++++",
"  @@@@.++++++++++++++++++++++++",
"  @@@@.++++++++++++++++++++++++",
"  @@@@.++++++++++++++++++++++++",
"  @@@@.++++++++++++++++++++++++",
"  @@@@.++++++++++++++++++++++++",
"  @@@@.++++++++++++++++++++++++",
"  @@@@.++++++++++++++++++++++++",
"  @@@@.++++++++++++++++++++++++",
"  @@@@.########################",
"  @@@@@@@@@@@@@@@@@@@@@@@@@@@$#",
"  @@@@@@@@@@@@@@@@@@@@@@@@@@@$#",
"  @@@@@@@@@@@@@@@@@@@@@@@@@@@$#",
"  @@@@@@@@@@@@@@@@@@@@@@@@@@@$#",
"  $$$$$$$$$$$$$$$$$$$$$$$$$$$$#",
" $$$$$$$$$$$$$$$$$$$$$$$$$$$$$$"};
