/* XPM */
static char * menuButtonA_xpm[] = {
"24 48 4 1",
" 	c #edc7a3",
".	c #714418",
"+	c #d5802e",
"@	c #4f2f11",
"                       .",
" ++++++++++++++++++++++.",
" ++++++++++++++++++++++.",
" ++++++++++++++++++++++.",
" ++++++++++++++++++++++.",
" ++++++++++++++++++++++.",
" ++++++++++++++++++++++.",
" ++++++++++++++++++++++.",
" ++++++++++++++++++++++.",
" ++++             @++++.",
" ++++ ++++++++++++@++++.",
" ++++ ++++++++++++@++++.",
" ++++ ++++++++++++@++++.",
" ++++ ++++++++++++@++++.",
" ++++ @@@@@@@@@@@@@++++.",
" ++++++++++++++++++++++.",
" ++++++++++++++++++++++.",
" ++++++++++++++++++++++.",
" ++++++++++++++++++++++.",
" ++++++++++++++++++++++.",
" ++++++++++++++++++++++.",
" ++++++++++++++++++++++.",
" ++++++++++++++++++++++.",
" .......................",
"....................... ",
".++++++++++++++++++++++ ",
".++++++++++++++++++++++ ",
".++++++++++++++++++++++ ",
".++++++++++++++++++++++ ",
".++++++++++++++++++++++ ",
".++++++++++++++++++++++ ",
".++++++++++++++++++++++ ",
".++++++++++++++++++++++ ",
".++++             @++++ ",
".++++ ++++++++++++@++++ ",
".++++ ++++++++++++@++++ ",
".++++ ++++++++++++@++++ ",
".++++ ++++++++++++@++++ ",
".++++ @@@@@@@@@@@@@++++ ",
".++++++++++++++++++++++ ",
".++++++++++++++++++++++ ",
".++++++++++++++++++++++ ",
".++++++++++++++++++++++ ",
".++++++++++++++++++++++ ",
".++++++++++++++++++++++ ",
".++++++++++++++++++++++ ",
".++++++++++++++++++++++ ",
".                       "};
