/* XPM */
static char * frameABR_xpm[] = {
"31 31 29 1",
" 	c None",
".	c #f7dac3",
"+	c #966a47",
"@	c #ffffff",
"#	c #edaa74",
"$	c #a87750",
"%	c #000000",
"&	c #f0b687",
"*	c #694b32",
"=	c #c78d5e",
"-	c #ad7b52",
";	c #805b3c",
">	c #eda870",
",	c #a97850",
"'	c #ae7b52",
")	c #fefaf7",
"!	c #f8ddc7",
"~	c #eaa66e",
"{	c #9d6f4a",
"]	c #a1724c",
"^	c #fdf4ec",
"/	c #fae5d5",
"(	c #e6a36d",
"_	c #a8774f",
":	c #fae6d6",
"<	c #fbece0",
"[	c #eead78",
"}	c #efb17f",
"|	c #fae8d8",
"......+@#############$%  &*****",
"......+@#############$%  &&&&&*",
"......+@#############$%  &===**",
"......+@#############$%  &===**",
"......+@#############$%  &===**",
"......+@$$$$$$$$$$$$$$%  &===**",
"......+%%%%%%%%%%%%%%%%  &===**",
"......+@@@@@@@@@@@@@@@%  &===**",
"......+@#############$%  &===**",
"......+@#############$%  &===**",
"......+@#############$%  &===**",
"......+@#############$%  &===**",
"......+@#############$%  &===**",
"......+@##-;;;;;;-###$%  &===**",
"......+@##>,,;;;')!!#$%  &===**",
"......+@###~~{;]^/###$%  &===**",
"......+@#####(_:<[###$%  &===**",
"......+@######}|}####$%  &===**",
"......+@#############$%  &===**",
"......+@#############$%  &===**",
"......+@#############$%  &===**",
"......+@$$$$$$$$$$$$$$%  &===**",
"......+%%%%%%%%%%%%%%%%  &===**",
"                         &===**",
"                         &===**",
"&&&&&&&&&&&&&&&&&&&&&&&&&&===**",
"*&===========================**",
"*&===========================**",
"*&===========================**",
"*&*****************************",
"*******************************"};
