/* XPM */
static char * frameABL_xpm[] = {
"27 27 4 1",
" 	c #eda870",
".	c #664930",
"+	c #f6d3b7",
"@	c #c2895b",
" .....+++++++++++++++++++++",
"     .+++++++++++++++++++++",
"  @@@.+++++++++++++++++++++",
"  @@@.+++++++++++++++++++++",
"  @@@.+++++++++++++++++++++",
"  @@@.+++++++++++++++++++++",
"  @@@.+++++++++++++++++++++",
"  @@@.+++++++++++++++++++++",
"  @@@.+++++++++++++++++++++",
"  @@@.+++++++++++++++++++++",
"  @@@.+++++++++++++++++++++",
"  @@@.+++++++++++++++++++++",
"  @@@.+++++++++++++++++++++",
"  @@@.+++++++++++++++++++++",
"  @@@.+++++++++++++++++++++",
"  @@@.+++++++++++++++++++++",
"  @@@.+++++++++++++++++++++",
"  @@@.+++++++++++++++++++++",
"  @@@.+++++++++++++++++++++",
"  @@@.+++++++++++++++++++++",
"  @@@.+++++++++++++++++++++",
"  @@@.                     ",
"  @@@@@@@@@@@@@@@@@@@@@@@. ",
"  @@@@@@@@@@@@@@@@@@@@@@@. ",
"  @@@@@@@@@@@@@@@@@@@@@@@. ",
"  ........................ ",
" .........................."};
