/* XPM */
static char * workspacebuttonbg_xpm[] = {
"91 37 3 1",
" 	c #3d565d",
".	c #c2d9df",
"+	c #78aab8",
" ..........................................................................................",
" ........................................................................................ .",
" ..+++++++++++++++++++++++++++++++++++++++++++++++++++++++++++++++++++++++++++++++++++++  .",
" ..+++++++++++++++++++++++++++++++++++++++++++++++++++++++++++++++++++++++++++++++++++++  .",
" ..+++++++++++++++++++++++++++++++++++++++++++++++++++++++++++++++++++++++++++++++++++++  .",
" ..+++++++++++++++++++++++++++++++++++++++++++++++++++++++++++++++++++++++++++++++++++++  .",
" ..+++++++++++++++++++++++++++++++++++++++++++++++++++++++++++++++++++++++++++++++++++++  .",
" ..+++++++++++++++++++++++++++++++++++++++++++++++++++++++++++++++++++++++++++++++++++++  .",
" ..+++++++++++++++++++++++++++++++++++++++++++++++++++++++++++++++++++++++++++++++++++++  .",
" ..+++++++++++++++++++++++++++++++++++++++++++++++++++++++++++++++++++++++++++++++++++++  .",
" ..+++++++++++++++++++++++++++++++++++++++++++++++++++++++++++++++++++++++++++++++++++++  .",
" ..+++++++++++++++++++++++++++++++++++++++++++++++++++++++++++++++++++++++++++++++++++++  .",
" ..+++++++++++++++++++++++++++++++++++++++++++++++++++++++++++++++++++++++++++++++++++++  .",
" ..+++++++++++++++++++++++++++++++++++++++++++++++++++++++++++++++++++++++++++++++++++++  .",
" ..+++++++++++++++++++++++++++++++++++++++++++++++++++++++++++++++++++++++++++++++++++++  .",
" ..+++++++++++++++++++++++++++++++++++++++++++++++++++++++++++++++++++++++++++++++++++++  .",
" ..+++++++++++++++++++++++++++++++++++++++++++++++++++++++++++++++++++++++++++++++++++++  .",
" ..+++++++++++++++++++++++++++++++++++++++++++++++++++++++++++++++++++++++++++++++++++++  .",
" ..+++++++++++++++++++++++++++++++++++++++++++++++++++++++++++++++++++++++++++++++++++++  .",
" ..+++++++++++++++++++++++++++++++++++++++++++++++++++++++++++++++++++++++++++++++++++++  .",
" ..+++++++++++++++++++++++++++++++++++++++++++++++++++++++++++++++++++++++++++++++++++++  .",
" ..+++++++++++++++++++++++++++++++++++++++++++++++++++++++++++++++++++++++++++++++++++++  .",
" ..+++++++++++++++++++++++++++++++++++++++++++++++++++++++++++++++++++++++++++++++++++++  .",
" ..+++++++++++++++++++++++++++++++++++++++++++++++++++++++++++++++++++++++++++++++++++++  .",
" ..+++++++++++++++++++++++++++++++++++++++++++++++++++++++++++++++++++++++++++++++++++++  .",
" ..+++++++++++++++++++++++++++++++++++++++++++++++++++++++++++++++++++++++++++++++++++++  .",
" ..+++++++++++++++++++++++++++++++++++++++++++++++++++++++++++++++++++++++++++++++++++++  .",
" ..+++++++++++++++++++++++++++++++++++++++++++++++++++++++++++++++++++++++++++++++++++++  .",
" ..+++++++++++++++++++++++++++++++++++++++++++++++++++++++++++++++++++++++++++++++++++++  .",
" ..+++++++++++++++++++++++++++++++++++++++++++++++++++++++++++++++++++++++++++++++++++++  .",
" ..+++++++++++++++++++++++++++++++++++++++++++++++++++++++++++++++++++++++++++++++++++++  .",
" ..+++++++++++++++++++++++++++++++++++++++++++++++++++++++++++++++++++++++++++++++++++++  .",
" ..+++++++++++++++++++++++++++++++++++++++++++++++++++++++++++++++++++++++++++++++++++++  .",
" ..+++++++++++++++++++++++++++++++++++++++++++++++++++++++++++++++++++++++++++++++++++++  .",
" ..                                                                                       .",
" .                                                                                        .",
" .........................................................................................."};
