/* XPM */
static char * taskbuttonactive_xpm[] = {
"59 28 4 1",
" 	c #ffffff",
".	c #afbffb",
"+	c #000000",
"@	c #7680a9",
"                                                           ",
"...........................................................",
"...........................................................",
"..+++++++++++++++++++++++++++++++++++++++++++++++++++++++ .",
"..+@@@@@@@@@@@@@@@@@@@@@@@@@@@@@@@@@@@@@@@@@@@@@@@@@@@@@. .",
"..+@                                                    . .",
"..+@. . . . . . . . . . . . . . . . . . . . . . . . . . . .",
"..+@ . . . . . . . . . . . . . . . . . . . . . . . . . .. .",
"..+@. . . . . . . . . . . . . . . . . . . . . . . . . . . .",
"..+@ . . . . . . . . . . . . . . . . . . . . . . . . . .. .",
"..+@. . . . . . . . . . . . . . . . . . . . . . . . . . . .",
"..+@ . . . . . . . . . . . . . . . . . . . . . . . . . .. .",
"..+@. . . . . . . . . . . . . . . . . . . . . . . . . . . .",
"..+@ . . . . . . . . . . . . . . . . . . . . . . . . . .. .",
"..+@. . . . . . . . . . . . . . . . . . . . . . . . . . . .",
"..+@ . . . . . . . . . . . . . . . . . . . . . . . . . .. .",
"..+@. . . . . . . . . . . . . . . . . . . . . . . . . . . .",
"..+@ . . . . . . . . . . . . . . . . . . . . . . . . . .. .",
"..+@. . . . . . . . . . . . . . . . . . . . . . . . . . . .",
"..+@ . . . . . . . . . . . . . . . . . . . . . . . . . .. .",
"..+@. . . . . . . . . . . . . . . . . . . . . . . . . . . .",
"..+@ . . . . . . . . . . . . . . . . . . . . . . . . . .. .",
"..+@. . . . . . . . . . . . . . . . . . . . . . . . . . . .",
"..+...................................................... .",
"..                                                        .",
"...........................................................",
"...........................................................",
"..........................................................."};
