/* XPM */
static char *closeA_xpm[] = {
"16 38 5 1",
". c #888a85",
"+ c #585a56",
"@ c #000000",
"# c #ffffff",
"$ c #acadaa",
"................",
"++++++++++++....",
"+@@@@@@@@@@@#...",
"+@#........@#...",
"+@........+@#...",
"+@........+@#...",
"+@.......$+@#...",
"+@......$$+@#...",
"+@.....$$$+@#...",
"+@....$$$$+@#...",
"+@...$$$$#+@#...",
"+@.++++++++@#...",
"+@@@@@@@@@@@#...",
".############...",
"................",
"................",
"................",
"++++++++++++++++",
"@@@@@@@@@@@@@@@@",
"................",
"++++++++++++....",
"+@@@@@@@@@@@#...",
"+@+++++++++@#...",
"+@+#.......@#...",
"+@+........@#...",
"+@+........@#...",
"+@+.......$@#...",
"+@+......$$@#...",
"+@+.....$$$@#...",
"+@+....$$$$@#...",
"+@+...$$$$#@#...",
"+@@@@@@@@@@@#...",
".############...",
"................",
"................",
"................",
"++++++++++++++++",
"@@@@@@@@@@@@@@@@"};
