/* XPM */
static char *dframeITL_xpm[] = {
"23 23 3 1",
"  c #585a56",
". c #acadaa",
"+ c None",
"                       ",
" ......................",
" ......................",
" ......................",
" ......................",
" ......................",
" .....+++++++++++++++++",
" .....+++++++++++++++++",
" .....+++++++++++++++++",
" .....+++++++++++++++++",
" .....+++++++++++++++++",
" .....+++++++++++++++++",
" .....+++++++++++++++++",
" .....+++++++++++++++++",
" .....+++++++++++++++++",
" .....+++++++++++++++++",
" .....+++++++++++++++++",
" .....+++++++++++++++++",
" .....+++++++++++++++++",
" .....+++++++++++++++++",
" .....+++++++++++++++++",
" .....+++++++++++++++++",
" .....+++++++++++++++++"};
