/* XPM */
static char *frameABR[]={
"23 23 5 1",
". c None",
"# c #6a6c68",
"c c #8a8c87",
"b c #9e9f9b",
"a c #acadaa",
".................#abbc#",
".................#abbc#",
".................#abbc#",
".................#abbc#",
".................#abbc#",
".................#abbc#",
".................#abbc#",
".................#abbc#",
".................#abbc#",
".................#abbc#",
".................#abbc#",
".................#abbc#",
".................#abbc#",
".................#abbc#",
".................#abbc#",
".................#abbc#",
".................#abbc#",
"##################abbc#",
"aaaaaaaaaaaaaaaaaaabbc#",
"bbbbbbbbbbbbbbbbbbbbbc#",
"bbbbbbbbbbbbbbbbbbbbbc#",
"cccccccccccccccccccccc#",
"#######################"};
