/* XPM */
static char * closeA_xpm[] = {
"24 48 3 1",
" 	c #EDE7C7",
".	c #726B43",
"+	c #D4C77D",
"                       .",
" ++++++++++++++++++++++.",
" ++++++++++++++++++++++.",
" ++++++++++++++++++++++.",
" ++++++++++++++++++++++.",
" ++++   +++++++++  .+++.",
" ++++ ++  ++++++ ++.+++.",
" ++++ ++++ +++  +++.+++.",
" +++++.++++ + ++++.++++.",
" +++++.++++ + ++++.++++.",
" ++++++.++++ ++++.+++++.",
" +++++++..++++++.++++++.",
" +++++++++.+++  +++++++.",
" +++++++  ++++++ ++++++.",
" ++++++ ++++.++++ +++++.",
" ++++++ ++++.++++ +++++.",
" +++++ ++++.+.++++ ++++.",
" ++++ ++++.+++..+++.+++.",
" ++++.++..++++++.++.+++.",
" ++++...+++++++++...+++.",
" ++++++++++++++++++++++.",
" ++++++++++++++++++++++.",
" ++++++++++++++++++++++.",
" .......................",
"....................... ",
".++++++++++++++++++++++ ",
".++++++++++++++++++++++ ",
".++++++++++++++++++++++ ",
".++++++++++++++++++++++ ",
".++++   +++++++++  .+++ ",
".++++ ++  ++++++ ++.+++ ",
".++++ ++++ +++  +++.+++ ",
".+++++.++++ + ++++.++++ ",
".+++++.++++ + ++++.++++ ",
".++++++.++++ ++++.+++++ ",
".+++++++..++++++.++++++ ",
".+++++++++.+++  +++++++ ",
".+++++++  ++++++ ++++++ ",
".++++++ ++++.++++ +++++ ",
".++++++ ++++.++++ +++++ ",
".+++++ ++++.+.++++ ++++ ",
".++++ ++++.+++..+++.+++ ",
".++++.++..++++++.++.+++ ",
".++++...+++++++++...+++ ",
".++++++++++++++++++++++ ",
".++++++++++++++++++++++ ",
".++++++++++++++++++++++ ",
".                       "};
