/* XPM */
static char * closeI_xpm[] = {
"24 48 6 1",
" 	c #D1D1D2",
".	c #4E4E4E",
"+	c #999999",
"@	c #BEC6B7",
"#	c #E3E7E0",
"$	c #666A62",
"                       .",
" ++++++++++++++++++++++.",
" ++++++++++++++++++++++.",
" ++++++++++++++++++++++.",
" ++++++++++++++++++++++.",
" ++++   +++++++++  .+++.",
" ++++ ++  ++++++ ++.+++.",
" ++++ ++++ +++  +++.+++.",
" +++++.++++ + ++++.++++.",
" +++++.++++ + ++++.++++.",
" ++++++.++++ ++++.+++++.",
" +++++++..++++++.++++++.",
" +++++++++.+++  +++++++.",
" +++++++  ++++++ ++++++.",
" ++++++ ++++.++++ +++++.",
" ++++++ ++++.++++ +++++.",
" +++++ ++++.+.++++ ++++.",
" ++++ ++++.+++..+++.+++.",
" ++++.++..++++++.++.+++.",
" ++++...+++++++++...+++.",
" ++++++++++++++++++++++.",
" ++++++++++++++++++++++.",
" ++++++++++++++++++++++.",
" .......................",
"....................... ",
".@@@@@@@@@@@@@@@@@@@@@@ ",
".@@@@@@@@@@@@@@@@@@@@@@ ",
".@@@@@@@@@@@@@@@@@@@@@@ ",
".@@@@@@@@@@@@@@@@@@@@@@ ",
".@@@@###@@@@@@@@@##$@@@ ",
".@@@@#@@##@@@@@@#@@$@@@ ",
".@@@@#@@@@#@@@##@@@$@@@ ",
".@@@@@$@@@@#@#@@@@$@@@@ ",
".@@@@@$@@@@#@#@@@@$@@@@ ",
".@@@@@@$@@@@#@@@@$@@@@@ ",
".@@@@@@@$$@@@@@@$@@@@@@ ",
".@@@@@@@@@$@@@##@@@@@@@ ",
".@@@@@@@##@@@@@@#@@@@@@ ",
".@@@@@@#@@@@$@@@@#@@@@@ ",
".@@@@@@#@@@@$@@@@#@@@@@ ",
".@@@@@#@@@@$@$@@@@#@@@@ ",
".@@@@#@@@@$@@@$$@@@$@@@ ",
".@@@@$@@$$@@@@@@$@@$@@@ ",
".@@@@$$$@@@@@@@@@$$$@@@ ",
".@@@@@@@@@@@@@@@@@@@@@@ ",
".@@@@@@@@@@@@@@@@@@@@@@ ",
".@@@@@@@@@@@@@@@@@@@@@@ ",
".                       "};
