/* XPM */
static char * dframeATL_xpm[] = {
"31 32 4 1",
" 	c None",
".	c #EDE7C7",
"+	c #726B43",
"@	c #D4C77D",
"...............................",
".............................+.",
"..@@@@@@@@@@@@@@@@@@@@@@@@@@@+.",
"..@@@@@@@@@@@@@@@@@@@@@@@@@@@+.",
"..@@@@@@@@@@@@@@@@@@@@@@@@@@@+.",
"..@@@++++++++++++++++++++++++++",
"..@@@+                         ",
"..@@@+                         ",
"..@@@+                         ",
"..@@@+                         ",
"..@@@+                         ",
"..@@@+                         ",
"..@@@+                         ",
"..@@@+                         ",
"..@@@+                         ",
"..@@@+                         ",
"..@@@+                         ",
"..@@@+                         ",
"..@@@+                         ",
"..@@@+                         ",
"..@@@+                         ",
"..@@@+                         ",
"..@@@+                         ",
"..@@@+                         ",
"..@@@+                         ",
"..@@@+                         ",
"..@@@+                         ",
"..@@@+                         ",
"..@@@+                         ",
"..@@@+                         ",
"++++++                         ",
".....+                         "};
