/* XPM */
static char * frameATR_xpm[] = {
"31 32 4 1",
" 	c None",
".	c #726B43",
"+	c #EDE7C7",
"@	c #D4C77D",
".+++++++++++++++++++++++++++++.",
".++++++++++++++++++++++++++++..",
".+@@@@@@@@@@@@@@@@@@@@@@@@@@@..",
".+@@@@@@@@@@@@@@@@@@@@@@@@@@@..",
".+@@@@@@@@@@@@@@@@@@@@@@@@@@@..",
".+........................@@@..",
"                         +@@@..",
"                         +@@@..",
"                         +@@@..",
"                         +@@@..",
"                         +@@@..",
"                         +@@@..",
"                         +@@@..",
"                         +@@@..",
"                         +@@@..",
"                         +@@@..",
"                         +@@@..",
"                         +@@@..",
"                         +@@@..",
"                         +@@@..",
"                         +@@@..",
"                         +@@@..",
"                         +@@@..",
"                         +@@@..",
"                         +@@@..",
"                         +@@@..",
"                         +@@@..",
"                         +@@@..",
"                         +@@@..",
"                         +@@@..",
"                         +.....",
"                         +++++."};
