/* XPM */
static char * rollupI_xpm[] = {
"24 48 4 1",
" 	c #E3E7E0",
".	c #666A62",
"+	c #BEC6B7",
"@	c #5F5F5F",
"                       .",
" ++++++++++++++++++++++.",
" ++++++++++++++++++++++.",
" ++++++++++++++++++++++.",
" ++++++++++++++++++++++.",
" ++++++++++++++++++++++.",
" +++++++++++ ++++++++++.",
" ++++++++++ +.+++++++++.",
" ++++++++++ +.+++++++++.",
" ++++++++++ +.+++++++++.",
" +++++++++ +++..+++++++.",
" +++++++++ +++..+++++++.",
" +++++++  ++++++.++++++.",
" +++++++  ++++++.++++++.",
" ++++++ +++++++++.+++++.",
" ++++++ +++++++++.+++++.",
" ++++++ +++++++++.+++++.",
" +++++ +++++++++++.++++.",
" +++++ ............++++.",
" ++++++++++++++++++++++.",
" ++++++++++++++++++++++.",
" ++++++++++++++++++++++.",
" ++++++++++++++++++++++.",
" .......................",
"....................... ",
".++++++++++++++++++++++ ",
".++++++++++++++++++++++ ",
".++++++++++++++++++++++ ",
".++++++++++++++++++++++ ",
".++++++++++++++++++++++ ",
".+++++++++++ ++++++++++ ",
".++++++++++ +.+++++++++ ",
".++++++++++ +.+++++++++ ",
".++++++++++ +.+++++++++ ",
".+++++++++ +++..+++++++ ",
".+++++++++ +++..+++++++ ",
".+++++++  ++++++@++++++ ",
".+++++++  ++++++@++++++ ",
".++++++ +++++++++.+++++ ",
".++++++ +++++++++.+++++ ",
".++++++ +++++++++.+++++ ",
".+++++ +++++++++++.++++ ",
".+++++ ............++++ ",
".++++++++++++++++++++++ ",
".++++++++++++++++++++++ ",
".++++++++++++++++++++++ ",
".++++++++++++++++++++++ ",
".                       "};
