/* XPM */
static char *maximizeA_xpm[] = {
"23 46 4 1",
". c #c4c4c4",
"+ c #000000",
"@ c #6e6e6e",
"# c #aaaaaa",
".......................",
".++++++++++++++++++++++",
".++++++++++++++++++++++",
".++..............@+++++",
".++.#############@+++++",
".++.#+++++++++++#@+++++",
".++.#+++++++++++#@+++++",
".++.#+++++++++++#@+++++",
".++.#+#########+#@+++++",
".++.#+#########+#@+++++",
".++.#+#########+#@+++++",
".++.#+#########+#@+++++",
".++.#+#########+#@+++++",
".++.#+#########+#@+++++",
".++.#+#########+#@+++++",
".++.#+++++++++++#@+++++",
".++.#############@+++++",
".++#@@@@@@@@@@@@@@+++++",
".++++++++++++++++++++++",
".++++++++++++++++++++++",
".++++++++++++++++++++++",
"@@@@@@@@@@@@@@@@@@@@@@@",
"+++++++++++++++++++++++",
".......................",
".++++++++++++++++++++++",
".++++++++++++++++++++++",
".++@@@@@@@@@@@@@@.+++++",
".++@#############.+++++",
".++@#############.+++++",
".++@##++++++++++#.+++++",
".++@##++++++++++#.+++++",
".++@##++++++++++#.+++++",
".++@##+########+#.+++++",
".++@##+########+#.+++++",
".++@##+########+#.+++++",
".++@##+########+#.+++++",
".++@##+########+#.+++++",
".++@##+########+#.+++++",
".++@##++++++++++#.+++++",
".++@#############.+++++",
".++#..............+++++",
".++++++++++++++++++++++",
".++++++++++++++++++++++",
".++++++++++++++++++++++",
"@@@@@@@@@@@@@@@@@@@@@@@",
"+++++++++++++++++++++++"};
