/* XPM */
static char * dframeABR_xpm[] = {
"31 31 29 1",
" 	c #cbcbb9",
".	c #535339",
"+	c #ffffff",
"@	c #86865e",
"#	c #5d5d40",
"$	c #000000",
"%	c #f2f2ed",
"&	c #979774",
"*	c #3a3a28",
"=	c #6e6e4c",
"-	c #606042",
";	c #474731",
">	c #83835a",
",	c #5d5d40",
"'	c #606042",
")	c #f8f8f6",
"!	c #cecebe",
"~	c #818159",
"{	c #57573c",
"]	c #59593d",
"^	c #efefe9",
"/	c #dadace",
"(	c #7f7f57",
"_	c #5d5d40",
":	c #dbdbcf",
"<	c #e5e5dc",
"[	c #8a8a63",
"}	c #90906b",
"|	c #deded3",
"      .+@@@@@@@@@@@@@#$%&******",
"      .+@@@@@@@@@@@@@#$%&&&&&&*",
"      .+@@@@@@@@@@@@@#$%&====**",
"      .+@@@@@@@@@@@@@#$%&====**",
"      .+@@@@@@@@@@@@@#$%&====**",
"      .+##############$%&====**",
"      .$$$$$$$$$$$$$$$$%&====**",
"      .+++++++++++++++$%&====**",
"      .+@@@@@@@@@@@@@#$%&====**",
"      .+@@@@@@@@@@@@@#$%&====**",
"      .+@@@@@@@@@@@@@#$%&====**",
"      .+@@@@@@@@@@@@@#$%&====**",
"      .+@@@@@@@@@@@@@#$%&====**",
"      .+@@-;;;;;;-@@@#$%&====**",
"      .+@@>,,;;;')!!@#$%&====**",
"      .+@@@~~{;]^/@@@#$%&====**",
"      .+@@@@@(_:<[@@@#$%&====**",
"      .+@@@@@@}|}@@@@#$%&====**",
"      .+@@@@@@@@@@@@@#$%&====**",
"      .+@@@@@@@@@@@@@#$%&====**",
"      .+@@@@@@@@@@@@@#$%&====**",
"      .+##############$%&====**",
"      .$$$$$$$$$$$$$$$$%&====**",
"      %%%%%%%%%%%%%%%%%%&====**",
"&&&&&&&&&&&&&&&&&&&&&&&&&====**",
"*&===========================**",
"*&===========================**",
"*&===========================**",
"*&===========================**",
"*&*****************************",
"*******************************"};
