/* XPM */
static char * dframeABR_xpm[] = {
"31 31 29 1",
" 	c #fddcb2",
".	c #9e6d2e",
"+	c #ffffff",
"@	c #faaf4e",
"#	c #b27b34",
"$	c #000000",
"%	c #fef6eb",
"&	c #fbba66",
"*	c #6f4d20",
"=	c #d2913d",
"-	c #b77f35",
";	c #875d27",
">	c #faad49",
",	c #b27b34",
"'	c #b77f35",
")	c #fffbf5",
"!	c #fddfb7",
"~	c #f7ab48",
"{	c #a67330",
"]	c #a97531",
"^	c #fef4e7",
"/	c #fee7c9",
"(	c #f3a847",
"_	c #b17b34",
":	c #fee7ca",
"<	c #feedd8",
"[	c #fab253",
"}	c #fbb65c",
"|	c #fee9ce",
"      .+@@@@@@@@@@@@@#$%&******",
"      .+@@@@@@@@@@@@@#$%&&&&&&*",
"      .+@@@@@@@@@@@@@#$%&====**",
"      .+@@@@@@@@@@@@@#$%&====**",
"      .+@@@@@@@@@@@@@#$%&====**",
"      .+##############$%&====**",
"      .$$$$$$$$$$$$$$$$%&====**",
"      .+++++++++++++++$%&====**",
"      .+@@@@@@@@@@@@@#$%&====**",
"      .+@@@@@@@@@@@@@#$%&====**",
"      .+@@@@@@@@@@@@@#$%&====**",
"      .+@@@@@@@@@@@@@#$%&====**",
"      .+@@@@@@@@@@@@@#$%&====**",
"      .+@@-;;;;;;-@@@#$%&====**",
"      .+@@>,,;;;')!!@#$%&====**",
"      .+@@@~~{;]^/@@@#$%&====**",
"      .+@@@@@(_:<[@@@#$%&====**",
"      .+@@@@@@}|}@@@@#$%&====**",
"      .+@@@@@@@@@@@@@#$%&====**",
"      .+@@@@@@@@@@@@@#$%&====**",
"      .+@@@@@@@@@@@@@#$%&====**",
"      .+##############$%&====**",
"      .$$$$$$$$$$$$$$$$%&====**",
"      %%%%%%%%%%%%%%%%%%&====**",
"&&&&&&&&&&&&&&&&&&&&&&&&&====**",
"*&===========================**",
"*&===========================**",
"*&===========================**",
"*&===========================**",
"*&*****************************",
"*******************************"};
