/* XPM */
static char * frameABL_xpm[] = {
"27 27 4 1",
" 	c #faad49",
".	c #6c4b20",
"+	c #fcd6a4",
"@	c #cc8d3c",
" .....+++++++++++++++++++++",
"     .+++++++++++++++++++++",
"  @@@.+++++++++++++++++++++",
"  @@@.+++++++++++++++++++++",
"  @@@.+++++++++++++++++++++",
"  @@@.+++++++++++++++++++++",
"  @@@.+++++++++++++++++++++",
"  @@@.+++++++++++++++++++++",
"  @@@.+++++++++++++++++++++",
"  @@@.+++++++++++++++++++++",
"  @@@.+++++++++++++++++++++",
"  @@@.+++++++++++++++++++++",
"  @@@.+++++++++++++++++++++",
"  @@@.+++++++++++++++++++++",
"  @@@.+++++++++++++++++++++",
"  @@@.+++++++++++++++++++++",
"  @@@.+++++++++++++++++++++",
"  @@@.+++++++++++++++++++++",
"  @@@.+++++++++++++++++++++",
"  @@@.+++++++++++++++++++++",
"  @@@.+++++++++++++++++++++",
"  @@@.                     ",
"  @@@@@@@@@@@@@@@@@@@@@@@. ",
"  @@@@@@@@@@@@@@@@@@@@@@@. ",
"  @@@@@@@@@@@@@@@@@@@@@@@. ",
"  ........................ ",
" .........................."};
