/* XPM */
static char *frameABR[]={
"23 23 5 1",
". c None",
"# c #3f3f3f",
"c c #ababab",
"b c #c5c5c5",
"a c #d8d8d8",
".................#abbc#",
".................#abbc#",
".................#abbc#",
".................#abbc#",
".................#abbc#",
".................#abbc#",
".................#abbc#",
".................#abbc#",
".................#abbc#",
".................#abbc#",
".................#abbc#",
".................#abbc#",
".................#abbc#",
".................#abbc#",
".................#abbc#",
".................#abbc#",
".................#abbc#",
"##################abbc#",
"aaaaaaaaaaaaaaaaaaabbc#",
"bbbbbbbbbbbbbbbbbbbbbc#",
"bbbbbbbbbbbbbbbbbbbbbc#",
"cccccccccccccccccccccc#",
"#######################"};
