/* XPM */
static char * buttonA_xpm[] = {
"76 22 3 1",
" 	c #000000",
".	c #e9d3be",
"+	c #d1a57a",
"                                                                           .",
" +++++++++++++++++++++++++++++++++++++++++++++++++++++++++++++++++++++++++ .",
" +.......................................................................+ .",
" +.......................................................................+ .",
" +... . . . . . . . . . . . . . . . . . . . . . . . . . . . . . . . . ...+ .",
" +.. ................................................................. ..+ .",
" +.......................................................................+ .",
" +.. ................................................................. ..+ .",
" +.......................................................................+ .",
" +.. ................................................................. ..+ .",
" +.......................................................................+ .",
" +.. ................................................................. ..+ .",
" +.......................................................................+ .",
" +.. ................................................................. ..+ .",
" +.......................................................................+ .",
" +.. ................................................................. ..+ .",
" +... . . . . . . . . . . . . . . . . . . . . . . . . . . . . . . . . ...+ .",
" +.......................................................................+ .",
" +.......................................................................+ .",
" +++++++++++++++++++++++++++++++++++++++++++++++++++++++++++++++++++++++++ .",
"                                                                           .",
"............................................................................"};
