/* XPM */
static char * frameABR_xpm[] = {
"31 31 29 1",
" 	c None",
".	c #dde4fd",
"+	c #6f799f",
"@	c #ffffff",
"#	c #b1c1fb",
"$	c #7c88b2",
"%	c #000000",
"&	c #bcc9fc",
"*	c #4e556f",
"=	c #93a0d3",
"-	c #808cb8",
";	c #5e6787",
">	c #afbffb",
",	c #7d88b3",
"'	c #808cb8",
")	c #fbfcff",
"!	c #e0e6fd",
"~	c #adbcf8",
"{	c #747fa7",
"]	c #7781aa",
"^	c #f4f7fe",
"/	c #e7ecfe",
"(	c #aabaf4",
"_	c #7c87b2",
":	c #e8ecfe",
"<	c #eef1fe",
"[	c #b3c3fb",
"}	c #b7c6fb",
"|	c #e9eefe",
"......+@#############$%  &*****",
"......+@#############$%  &&&&&*",
"......+@#############$%  &===**",
"......+@#############$%  &===**",
"......+@#############$%  &===**",
"......+@$$$$$$$$$$$$$$%  &===**",
"......+%%%%%%%%%%%%%%%%  &===**",
"......+@@@@@@@@@@@@@@@%  &===**",
"......+@#############$%  &===**",
"......+@#############$%  &===**",
"......+@#############$%  &===**",
"......+@#############$%  &===**",
"......+@#############$%  &===**",
"......+@##-;;;;;;-###$%  &===**",
"......+@##>,,;;;')!!#$%  &===**",
"......+@###~~{;]^/###$%  &===**",
"......+@#####(_:<[###$%  &===**",
"......+@######}|}####$%  &===**",
"......+@#############$%  &===**",
"......+@#############$%  &===**",
"......+@#############$%  &===**",
"......+@$$$$$$$$$$$$$$%  &===**",
"......+%%%%%%%%%%%%%%%%  &===**",
"                         &===**",
"                         &===**",
"&&&&&&&&&&&&&&&&&&&&&&&&&&===**",
"*&===========================**",
"*&===========================**",
"*&===========================**",
"*&*****************************",
"*******************************"};
