/* XPM */
static char *dframeIBR_xpm[] = {
"23 23 3 1",
"  c None",
". c #787878",
"+ c #d8d8d8",
"                 .++++.",
"                 .++++.",
"                 .++++.",
"                 .++++.",
"                 .++++.",
"                 .++++.",
"                 .++++.",
"                 .++++.",
"                 .++++.",
"                 .++++.",
"                 .++++.",
"                 .++++.",
"                 .++++.",
"                 .++++.",
"                 .++++.",
"                 .++++.",
"                 .++++.",
"..................++++.",
"++++++++++++++++++++++.",
"++++++++++++++++++++++.",
"++++++++++++++++++++++.",
"++++++++++++++++++++++.",
"......................."};
