/* XPM */
static char *dframeABR_xpm[] = {
"23 23 5 1",
"  c None",
". c #000000",
"+ c #ffffff",
"@ c #a8a8a8",
"# c #787878",
"                 .+@@#.",
"                 .+@@#.",
"                 .+@@#.",
"                 .+@@#.",
"                 .+@@#.",
"                 .+@@#.",
"                 .+@@#.",
"                 .+@@#.",
"                 .+@@#.",
"                 .+@@#.",
"                 .+@@#.",
"                 .+@@#.",
"                 .+@@#.",
"                 .+@@#.",
"                 .+@@#.",
"                 .+@@#.",
"                 .+@@#.",
"..................+@@#.",
"+++++++++++++++++++@@#.",
"@@@@@@@@@@@@@@@@@@@@@#.",
"@@@@@@@@@@@@@@@@@@@@@#.",
"######################.",
"......................."};
