/* XPM */
static char *dframeATR_xpm[] = {
"23 23 5 1",
"  c #000000",
". c #ffffff",
"+ c #a8a8a8",
"@ c #787878",
"# c None",
"                       ",
".....................+ ",
"+++++++++++++++++++++@ ",
"+++++++++++++++++++++@ ",
"+++++++++++++++++++++@ ",
"+++++++++++++++++++++@ ",
"#################++++@ ",
"#################++++@ ",
"#################++++@ ",
"#################++++@ ",
"#################++++@ ",
"#################++++@ ",
"#################++++@ ",
"#################++++@ ",
"#################++++@ ",
"#################++++@ ",
"#################++++@ ",
"#################++++@ ",
"#################++++@ ",
"#################++++@ ",
"#################++++@ ",
"#################++++@ ",
"#################++++@ "};
