/* XPM */
static char *frameITR_xpm[] = {
"23 23 3 1",
"  c #353a40",
". c #868b92",
"+ c None",
"                       ",
"...................... ",
"...................... ",
"...................... ",
"...................... ",
"...................... ",
"+++++++++++++++++..... ",
"+++++++++++++++++..... ",
"+++++++++++++++++..... ",
"+++++++++++++++++..... ",
"+++++++++++++++++..... ",
"+++++++++++++++++..... ",
"+++++++++++++++++..... ",
"+++++++++++++++++..... ",
"+++++++++++++++++..... ",
"+++++++++++++++++..... ",
"+++++++++++++++++..... ",
"+++++++++++++++++..... ",
"+++++++++++++++++..... ",
"+++++++++++++++++..... ",
"+++++++++++++++++..... ",
"+++++++++++++++++..... ",
"+++++++++++++++++..... "};
