/* XPM */
static char *dframeIBL[] = {
/* columns rows colors chars-per-pixel */
"27 27 4 1 ",
"  c #5F5A4E",
". c #B3AA94",
"X c #DEDAD0",
"o c #EFEFEF",
/* pixels */
"X     ooooooooooooooooooooo",
"XXXXX ooooooooooooooooooooo",
"XX... ooooooooooooooooooooo",
"XX... ooooooooooooooooooooo",
"XX... ooooooooooooooooooooo",
"XX... ooooooooooooooooooooo",
"XX... ooooooooooooooooooooo",
"XX... ooooooooooooooooooooo",
"XX... ooooooooooooooooooooo",
"XX... ooooooooooooooooooooo",
"XX... ooooooooooooooooooooo",
"XX... ooooooooooooooooooooo",
"XX... ooooooooooooooooooooo",
"XX... ooooooooooooooooooooo",
"XX... ooooooooooooooooooooo",
"XX... ooooooooooooooooooooo",
"XX... ooooooooooooooooooooo",
"XX... ooooooooooooooooooooo",
"XX... ooooooooooooooooooooo",
"XX... ooooooooooooooooooooo",
"XX... ooooooooooooooooooooo",
"XX... XXXXXXXXXXXXXXXXXXXXX",
"XX....................... X",
"XX....................... X",
"XX....................... X",
"XX                        X",
"X                          "
};
