/* XPM */
static char *frameITL[] = {
/* columns rows colors chars-per-pixel */
"31 32 4 1 ",
"  c #5F5A4E",
". c #B3AA94",
"X c #DEDAD0",
"o c None",
/* pixels */
"XXXXXXXXXXXXXXXXXXXXXXXXXXXXXXX",
"XXXXXXXXXXXXXXXXXXXXXXXXXXXXX X",
"XX........................... X",
"XX........................... X",
"XX........................... X",
"XX...                          ",
"XX... ooooooooooooooooooooooooo",
"XX... ooooooooooooooooooooooooo",
"XX... ooooooooooooooooooooooooo",
"XX... ooooooooooooooooooooooooo",
"XX... ooooooooooooooooooooooooo",
"XX... ooooooooooooooooooooooooo",
"XX... ooooooooooooooooooooooooo",
"XX... ooooooooooooooooooooooooo",
"XX... ooooooooooooooooooooooooo",
"XX... ooooooooooooooooooooooooo",
"XX... ooooooooooooooooooooooooo",
"XX... ooooooooooooooooooooooooo",
"XX... ooooooooooooooooooooooooo",
"XX... ooooooooooooooooooooooooo",
"XX... ooooooooooooooooooooooooo",
"XX... ooooooooooooooooooooooooo",
"XX... ooooooooooooooooooooooooo",
"XX... ooooooooooooooooooooooooo",
"XX... ooooooooooooooooooooooooo",
"XX... ooooooooooooooooooooooooo",
"XX... ooooooooooooooooooooooooo",
"XX... ooooooooooooooooooooooooo",
"XX... ooooooooooooooooooooooooo",
"XX... ooooooooooooooooooooooooo",
"      ooooooooooooooooooooooooo",
"XXXXX ooooooooooooooooooooooooo"
};
