/* XPM */
static char *maximizeA[] = {
/* columns rows colors chars-per-pixel */
"24 48 3 1 ",
"  c #5F5A4E",
". c #B3AA94",
"X c #DEDAD0",
/* pixels */
"XXXXXXXXXXXXXXXXXXXXXXX ",
"X...................... ",
"X...................... ",
"X...................... ",
"X...................... ",
"X...................... ",
"X......XXXXXXXXXXX..... ",
"X......X......... ..... ",
"X......X......... ..... ",
"X......X......... ..... ",
"X......X......... ..... ",
"X......X......... ..... ",
"X......X......... ..... ",
"X......X......... ..... ",
"X......X......... ..... ",
"X......X......... ..... ",
"X......X......... ..... ",
"X......X......... ..... ",
"X......           ..... ",
"X...................... ",
"X...................... ",
"X...................... ",
"X...................... ",
"X                       ",
"                       X",
" ......................X",
" ......................X",
" ......................X",
" ......................X",
" ......................X",
" ......XXXXXXXXXXX.....X",
" ......X......... .....X",
" ......X......... .....X",
" ......X......... .....X",
" ......X......... .....X",
" ......X......... .....X",
" ......X......... .....X",
" ......X......... .....X",
" ......X......... .....X",
" ......X......... .....X",
" ......X......... .....X",
" ......X......... .....X",
" ......           .....X",
" ......................X",
" ......................X",
" ......................X",
" ......................X",
" XXXXXXXXXXXXXXXXXXXXXXX"
};
