/* XPM */
static char *menuButtonI[] = {
/* columns rows colors chars-per-pixel */
"24 48 4 1 ",
"  c #4E4E4E",
". c #5F5A4E",
"X c #B3AA94",
"o c #DEDAD0",
/* pixels */
"ooooooooooooooooooooooo.",
"oXXXXXXXXXXXXXXXXXXXXXX.",
"oXXXXXXXXXXXXXXXXXXXXXX.",
"oXXXXXXXXXXXXXXXXXXXXXX.",
"oXXXXXXXXXXXXXXXXXXXXXX.",
"oXXXXXXXXXXXXXXXXXXXXXX.",
"oXXXXXXXXXXXXXXXXXXXXXX.",
"oXXXXXXXXXXXXXXXXXXXXXX.",
"oXXXXXXXXXXXXXXXXXXXXXX.",
"oXXXXooooooooooooo.XXXX.",
"oXXXXoXXXXXXXXXXXX.XXXX.",
"oXXXXoXXXXXXXXXXXX.XXXX.",
"oXXXXoXXXXXXXXXXXX.XXXX.",
"oXXXXoXXXXXXXXXXXX.XXXX.",
"oXXXXo.............XXXX.",
"oXXXXXXXXXXXXXXXXXXXXXX.",
"oXXXXXXXXXXXXXXXXXXXXXX.",
"oXXXXXXXXXXXXXXXXXXXXXX.",
"oXXXXXXXXXXXXXXXXXXXXXX.",
"oXXXXXXXXXXXXXXXXXXXXXX.",
"oXXXXXXXXXXXXXXXXXXXXXX.",
"oXXXXXXXXXXXXXXXXXXXXXX.",
"oXXXXXXXXXXXXXXXXXXXXXX.",
"o.......................",
".......................o",
".XXXXXXXXXXXXXXXXXXXXXXo",
".XXXXXXXXXXXXXXXXXXXXXXo",
".XXXXXXXXXXXXXXXXXXXXXXo",
".XXXXXXXXXXXXXXXXXXXXXXo",
".XXXXXXXXXXXXXXXXXXXXXXo",
".XXXXXXXXXXXXXXXXXXXXXXo",
".XXXXXXXXXXXXXXXXXXXXXXo",
".XXXXXXXXXXXXXXXXXXXXXXo",
".XXXXooooooooooooo XXXXo",
".XXXXoXXXXXXXXXXXX XXXXo",
".XXXXoXXXXXXXXXXXX XXXXo",
".XXXXoXXXXXXXXXXXX XXXXo",
".XXXXoXXXXXXXXXXXX XXXXo",
".XXXXo             XXXXo",
".XXXXXXXXXXXXXXXXXXXXXXo",
".XXXXXXXXXXXXXXXXXXXXXXo",
".XXXXXXXXXXXXXXXXXXXXXXo",
".XXXXXXXXXXXXXXXXXXXXXXo",
".XXXXXXXXXXXXXXXXXXXXXXo",
".XXXXXXXXXXXXXXXXXXXXXXo",
".XXXXXXXXXXXXXXXXXXXXXXo",
".XXXXXXXXXXXXXXXXXXXXXXo",
".ooooooooooooooooooooooo"
};
