/* XPM */
static char *frameITL[]={
"23 23 4 1",
"a c None",
". c #c3c3c3",
"b c #d8d8d8",
"# c #d8d8d8",
".......................",
".######################",
".######################",
".######################",
".######################",
".######################",
".#####aaaaaaaaaaaaaaaaa",
".#####aaaaaaaaaaaaaaaaa",
".#####aaaaaaaaaaaaaaaaa",
".#####aaaaaaaaaaaaaaaaa",
".#####aaaaaaaaaaaaaaaaa",
".#####aaaaaaaaaaaaaaaaa",
".#####aaaaaaaaaaaaaaaaa",
".#####aaaaaaaaaaaaaaaaa",
".#####aaaaaaaaaaaaaaaaa",
".#####aaaaaaaaaaaaaaaaa",
".#####aaaaaaaaaaaaaaaaa",
".#####aaaaaaaaaaaaaaaaa",
".#####aaaaaaaaaaaaaaaaa",
".#####aaaaaaaaaaaaaaaaa",
".#####aaaaaaaaaaaaaaaaa",
".#####aaaaaaaaaaaaaaaaa",
".b####aaaaaaaaaaaaaaaaa"};
