/* XPM */
static char * dframeIBR_xpm[] = {
"31 31 19 1",
" 	c #dcdcdc",
".	c #adadad",
"+	c #ffffff",
"@	c #eaeaea",
"#	c #c2c2c2",
"$	c #000000",
"%	c #626262",
"&	c #dcdcdc",
"*	c #c8c8c8",
"=	c #b9b9b9",
"-	c #c2c2c2",
";	c #f6f6f6",
">	c #e6e6e6",
",	c #b9b9b9",
"'	c #fcfcfc",
")	c #f9f9f9",
"!	c #fcfcfc",
"~	c #ececec",
"{	c #696969",
"      .+@@@@@@@@@@@@@#$  %%%%%%",
"      .+@@@@@@@@@@@@@#$       %",
"      .+@@@@@@@@@@@@@#$  &&&&%%",
"      .+@@@@@@@@@@@@@#$  &&&&%%",
"      .+@@@@@@@@@@@@@#$  &&&&%%",
"      .+##############$  &&&&%%",
"      .$$$$$$$$$$$$$$$$  &&&&%%",
"      .+++++++++++++++$  &&&&%%",
"      .+@@@@@@@@@@@@@#$  &&&&%%",
"      .+@@@@@@@@@@@@@#$  &&&&%%",
"      .+@@@@@@@@@@@@@#$  &&&&%%",
"      .+@@@@@@@@@@@@@#$  &&&&%%",
"      .+@@@@@@@@@@@@@#$  &&&&%%",
"      .+@@*======*@@@#$  &&&&%%",
"      .+@@@--===*+;;@#$  &&&&%%",
"      .+@@@>>,=,')@@@#$  &&&&%%",
"      .+@@@@@>-)!@@@@#$  &&&&%%",
"      .+@@@@@@@!~@@@@#$  &&&&%%",
"      .+@@@@@@@@@@@@@#$  &&&&%%",
"      .+@@@@@@@@@@@@@#$  &&&&%%",
"      .+@@@@@@@@@@@@@#$  &&&&%%",
"      .+##############$  &&&&%%",
"      .$$$$$$$$$$$$$$$$  &&&&%%",
"                         &&&&%%",
"                         &&&&%%",
"{ &&&&&&&&&&&&&&&&&&&&&&&&&&&%%",
"{ &&&&&&&&&&&&&&&&&&&&&&&&&&&%%",
"% &&&&&&&&&&&&&&&&&&&&&&&&&&&%%",
"{ &&&&&&&&&&&&&&&&&&&&&&&&&&&%%",
"{ %%%%%%%%%%%%%%%%%%%%%%%%%%%%%",
"{%%%%%%%%%%%%%%%%%%%%%%%%%%%%%%"};
