/* XPM */
static char * frameIBL_xpm[] = {
"31 31 6 1",
" 	c #c8c8c8",
".	c #5b5b5b",
"+	c #ececec",
"@	c #929292",
"#	c #ffffff",
"$	c #4b4b4b",
" ......++++++++++++++++++++++++",
"      .++++++++++++++++++++++++",
"  @@@@.++++++++++++++++++++++++",
"  @@@@.++++++++++++++++++++++++",
"  @@@@.++++++++++++++++++++++++",
"  @@@@.++++++++++++++++++++++++",
"  @@@@.++++++++++++++++++++++++",
"  @@@@.++++++++++++++++++++++++",
"  @@@@.++++++++++++++++++++++++",
"  @@@@.++++++++++++++++++++++++",
"  @@@@.++++++++++++++++++++++++",
"  @@@@.++++++++++++++++++++++++",
"  @@@@.++++++++++++++++++++++++",
"  @@@@.++++++++++++++++++++++++",
"  @@@@.++++++++++++++++++++++++",
"  @@@@.++++++++++++++++++++++++",
"  @@@@.++++++++++++++++++++++++",
"  @@@@.++++++++++++++++++++++++",
"  @@@@.++++++++++++++++++++++++",
"  @@@@.++++++++++++++++++++++++",
"  @@@@.++++++++++++++++++++++++",
"  @@@@.++++++++++++++++++++++++",
"  @@@@.++++++++++++++++++++++++",
"  @@@@.++++++++++++++++++++++++",
"  @@@@.########################",
"  @@@@@@@@@@@@@@@@@@@@@@@@@@@$#",
"  @@@@@@@@@@@@@@@@@@@@@@@@@@@$#",
"  @@@@@@@@@@@@@@@@@@@@@@@@@@@$#",
"  @@@@@@@@@@@@@@@@@@@@@@@@@@@$#",
"  $$$$$$$$$$$$$$$$$$$$$$$$$$$$#",
" $$$$$$$$$$$$$$$$$$$$$$$$$$$$$$"};
