/* XPM */
static char * frameIBR_xpm[] = {
"31 31 18 1",
" 	c #c8c8c8",
".	c #838383",
"+	c #ffffff",
"@	c #d3d3d3",
"#	c #939393",
"$	c #000000",
"%	c #4b4b4b",
"&	c #929292",
"*	c #989898",
"=	c #707070",
"-	c #939393",
";	c #ededed",
">	c #cacaca",
",	c #8d8d8d",
"'	c #f9f9f9",
")	c #f2f2f2",
"!	c #f5f5f5",
"~	c #d6d6d6",
"      .+@@@@@@@@@@@@@#$  %%%%%%",
"      .+@@@@@@@@@@@@@#$       %",
"      .+@@@@@@@@@@@@@#$  &&&&%%",
"      .+@@@@@@@@@@@@@#$  &&&&%%",
"      .+@@@@@@@@@@@@@#$  &&&&%%",
"      .+##############$  &&&&%%",
"      .$$$$$$$$$$$$$$$$  &&&&%%",
"      .+++++++++++++++$  &&&&%%",
"      .+@@@@@@@@@@@@@#$  &&&&%%",
"      .+@@@@@@@@@@@@@#$  &&&&%%",
"      .+@@@@@@@@@@@@@#$  &&&&%%",
"      .+@@@@@@@@@@@@@#$  &&&&%%",
"      .+@@@@@@@@@@@@@#$  &&&&%%",
"      .+@@*======*@@@#$  &&&&%%",
"      .+@@@--===*+;;@#$  &&&&%%",
"      .+@@@>>,=,')@@@#$  &&&&%%",
"      .+@@@@@>-)!@@@@#$  &&&&%%",
"      .+@@@@@@@!~@@@@#$  &&&&%%",
"      .+@@@@@@@@@@@@@#$  &&&&%%",
"      .+@@@@@@@@@@@@@#$  &&&&%%",
"      .+@@@@@@@@@@@@@#$  &&&&%%",
"      .+##############$  &&&&%%",
"      .$$$$$$$$$$$$$$$$  &&&&%%",
"                         &&&&%%",
"                         &&&&%%",
"% &&&&&&&&&&&&&&&&&&&&&&&&&&&%%",
"% &&&&&&&&&&&&&&&&&&&&&&&&&&&%%",
"% &&&&&&&&&&&&&&&&&&&&&&&&&&&%%",
"% &&&&&&&&&&&&&&&&&&&&&&&&&&&%%",
"% %%%%%%%%%%%%%%%%%%%%%%%%%%%%%",
"%%%%%%%%%%%%%%%%%%%%%%%%%%%%%%%"};
