/* XPM */
static char *maximizeI_xpm[] = {
"23 46 4 1",
". c #D6D6D6",
"+ c #9A9ABC",
"@ c #74748C",
"# c #000000",
".......................",
".++++++++++++++++++++++",
".++++++++++++++++++++++",
".++..............@#++++",
".++.+++++++++++++@#++++",
".++.+###########+@#++++",
".++.+###########+@#++++",
".++.+###########+@#++++",
".++.+#+++++++++#+@#++++",
".++.+#+++++++++#+@#++++",
".++.+#+++++++++#+@#++++",
".++.+#+++++++++#+@#++++",
".++.+#+++++++++#+@#++++",
".++.+#+++++++++#+@#++++",
".++.+#+++++++++#+@#++++",
".++.+###########+@#++++",
".++.+++++++++++++@#++++",
".+++@@@@@@@@@@@@@@#++++",
".++################++++",
".++++++++++++++++++++++",
".++++++++++++++++++++++",
"@@@@@@@@@@@@@@@@@@@@@@@",
"#######################",
".......................",
".++++++++++++++++++++++",
".++++++++++++++++++++++",
".++@@@@@@@@@@@@@@.#++++",
".++@+++++++++++++.#++++",
".++@+++++++++++++.#++++",
".++@++##########+.#++++",
".++@++##########+.#++++",
".++@++##########+.#++++",
".++@++#++++++++#+.#++++",
".++@++#++++++++#+.#++++",
".++@++#++++++++#+.#++++",
".++@++#++++++++#+.#++++",
".++@++#++++++++#+.#++++",
".++@++#++++++++#+.#++++",
".++@++##########+.#++++",
".++@+++++++++++++.#++++",
".+++..............#++++",
".++################++++",
".++++++++++++++++++++++",
".++++++++++++++++++++++",
"@@@@@@@@@@@@@@@@@@@@@@@",
"#######################"};
