/* XPM */
static char *maximizeA_xpm[] = {
"23 46 5 1",
". c #D6D6D6",
"+ c #A5A5A5",
"@ c #74748C",
"# c #000000",
"$ c #9A9ABC",
".......................",
".++++++++++++++++++++++",
".++++++++++++++++++++++",
".++..............@#++++",
".++.$$$$$$$$$$$$$@#++++",
".++.$###########$@#++++",
".++.$###########$@#++++",
".++.$###########$@#++++",
".++.$#$$$$$$$$$#$@#++++",
".++.$#$$$$$$$$$#$@#++++",
".++.$#$$$$$$$$$#$@#++++",
".++.$#$$$$$$$$$#$@#++++",
".++.$#$$$$$$$$$#$@#++++",
".++.$#$$$$$$$$$#$@#++++",
".++.$#$$$$$$$$$#$@#++++",
".++.$###########$@#++++",
".++.$$$$$$$$$$$$$@#++++",
".++$@@@@@@@@@@@@@@#++++",
".++################++++",
".++++++++++++++++++++++",
".++++++++++++++++++++++",
"@@@@@@@@@@@@@@@@@@@@@@@",
"#######################",
".......................",
".++++++++++++++++++++++",
".++++++++++++++++++++++",
".++@@@@@@@@@@@@@@.#++++",
".++@$$$$$$$$$$$$$.#++++",
".++@$$$$$$$$$$$$$.#++++",
".++@$$##########$.#++++",
".++@$$##########$.#++++",
".++@$$##########$.#++++",
".++@$$#$$$$$$$$#$.#++++",
".++@$$#$$$$$$$$#$.#++++",
".++@$$#$$$$$$$$#$.#++++",
".++@$$#$$$$$$$$#$.#++++",
".++@$$#$$$$$$$$#$.#++++",
".++@$$#$$$$$$$$#$.#++++",
".++@$$##########$.#++++",
".++@$$$$$$$$$$$$$.#++++",
".++$..............#++++",
".++################++++",
".++++++++++++++++++++++",
".++++++++++++++++++++++",
"@@@@@@@@@@@@@@@@@@@@@@@",
"#######################"};
