/* XPM */
static char *titleIL_xpm[] = {
"22 22 4 1",
". c #000000",
"+ c #B6B6B6",
"@ c #d3d3d3",
"# c #616161",
".+++++++++++++++++++++",
".+@@@@@@@@@@@@@@@@@@@@",
".+@@@@@@@@@@@@@@@@@@@@",
".+@@@@@@@@@@@@@@@@@@@@",
".+@@@@@@@@@@@@@@@@@@@@",
".+@@@@@@@@@@@@@@@@@@@@",
".+@@@@@@@@@@@@@@@@@@@@",
".+@@@@@@@@@@@@@@@@@@@@",
".+@@@@@@@@@@@@@@@@@@@@",
".+@@@@@@@@@@@@@@@@@@@@",
".+@@@@@@@@@@@@@@@@@@@@",
".+@@@@@@@@@@@@@@@@@@@@",
".+@@@@@@@@@@@@@@@@@@@@",
".+@@@@@@@@@@@@@@@@@@@@",
".+@@@@@@@@@@@@@@@@@@@@",
".+@@@@@@@@@@@@@@@@@@@@",
".+@@@@@@@@@@@@@@@@@@@@",
".+@@@@@@@@@@@@@@@@@@@@",
".+@@@@@@@@@@@@@@@@@@@@",
".+@@@@@@@@@@@@@@@@@@@@",
".+####################",
"......................"};
