/* XPM */
static char *menuButtonA_xpm[] = {
"23 46 5 1",
". c #eeeeee",
"+ c #000000",
"@ c #ffffff",
"# c #666666",
"$ c #888888",
".......................",
"+++++++++++++++++++++++",
"+++++++++++++++++++++++",
"+++@@@@@@@@@@@@@@#+++++",
"+++@$$$$$$$$$$$$$#+++++",
"+++@$$$$$$$$$$$$$#+++++",
"+++@$$$$$$$$$$$$$#+++++",
"+++@$$$$$$$$$$$$$#+++++",
"+++@$$$$$$$$$$$$$#+++++",
"+++@$$$$$$$$$$$$$#+++++",
"+++@$$$$$$$$$$$$$#+++++",
"+++@$$$$$$$$$$$$$#+++++",
"+++@$$$$$$$$$$$$$#+++++",
"+++@$$$$$$$$$$$$$#+++++",
"+++@$$$$$$$$$$$$$#+++++",
"+++@$$$$$$$$$$$$$#+++++",
"+++@$$$$$$$$$$$$$#+++++",
"+++$##############+++++",
"+++++++++++++++++++++++",
"+++++++++++++++++++++++",
"+++++++++++++++++++++++",
"#######################",
"+++++++++++++++++++++++",
".......................",
"+++++++++++++++++++++++",
"+++++++++++++++++++++++",
"+++##############@+++++",
"+++#$$$$$$$$$$$$$@+++++",
"+++#$$$$$$$$$$$$$@+++++",
"+++#$$$$$$$$$$$$$@+++++",
"+++#$$$$$$$$$$$$$@+++++",
"+++#$$$$$$$$$$$$$@+++++",
"+++#$$$$$$$$$$$$$@+++++",
"+++#$$$$$$$$$$$$$@+++++",
"+++#$$$$$$$$$$$$$@+++++",
"+++#$$$$$$$$$$$$$@+++++",
"+++#$$$$$$$$$$$$$@+++++",
"+++#$$$$$$$$$$$$$@+++++",
"+++#$$$$$$$$$$$$$@+++++",
"+++#$$$$$$$$$$$$$@+++++",
"+++$@@@@@@@@@@@@@@+++++",
"+++++++++++++++++++++++",
"+++++++++++++++++++++++",
"+++++++++++++++++++++++",
"#######################",
"+++++++++++++++++++++++"};
