/* XPM */
static char * closeA_xpm[] = {
"20 46 9 1",
" 	c None",
".	c #000000",
"+	c #FFFF52",
"@	c #FECA00",
"#	c #FFFFFF",
"$	c #BD9F28",
"%	c #B17C00",
"&	c #A2A2A2",
"*	c #C0C0C0",
"....................",
"++++++++++++++++++++",
"@@@@@@@@@@@@@@@@@@@@",
"@@@@@@@@@@@@@@@@@@@@",
"@@@@@@@@@@@@@@@@@@@@",
"@@@@@##@@@@@@##@@@@@",
"@@@@@###@@@@###$@@@@",
"@@@@@@###@@###$$@@@@",
"@@@@@@@######$$@@@@@",
"@@@@@@@@####$$@@@@@@",
"@@@@@@@@####$@@@@@@@",
"@@@@@@@######@@@@@@@",
"@@@@@@###$$###@@@@@@",
"@@@@@###$$@@###@@@@@",
"@@@@@##$$@@@@##$@@@@",
"@@@@@@$$@@@@@@$$@@@@",
"@@@@@@@@@@@@@@@@@@@@",
"@@@@@@@@@@@@@@@@@@@@",
"@@@@@@@@@@@@@@@@@@@@",
"%%%%%%%%%%%%%%%%%%%%",
"....................",
"&&&&&&&&&&&&&&&&&&&&",
"********************",
"....................",
"++++++++++++++++++++",
"@@@@@@@@@@@@@@@@@@@@",
"@@@@@@@@@@@@@@@@@@@@",
"@@@@@@@@@@@@@@@@@@@@",
"@@@@@@@@@@@@@@@@@@@@",
"@@@@@@##@@@@@@##@@@@",
"@@@@@@###@@@@###@@@@",
"@@@@@@@###@@###@@@@@",
"@@@@@@@@######@@@@@@",
"@@@@@@@@@####@@@@@@@",
"@@@@@@@@@####@@@@@@@",
"@@@@@@@@######@@@@@@",
"@@@@@@@###@@###@@@@@",
"@@@@@@###@@@@###@@@@",
"@@@@@@##@@@@@@##@@@@",
"@@@@@@@@@@@@@@@@@@@@",
"@@@@@@@@@@@@@@@@@@@@",
"@@@@@@@@@@@@@@@@@@@@",
"%%%%%%%%%%%%%%%%%%%%",
"....................",
"&&&&&&&&&&&&&&&&&&&&",
"********************"};
