/* XPM */
static char * closeI_xpm[] = {
"20 46 9 1",
" 	c None",
".	c #000000",
"+	c #FFFFFF",
"@	c #EFEFEF",
"#	c #CFCFCF",
"$	c #747474",
"%	c #9C9C9C",
"&	c #A2A2A2",
"*	c #C0C0C0",
"....................",
"++++++++++++++++++++",
"@@@@@@@@@@@@@@@@@@@@",
"@@@@@@@@@@@@@@@@@@@@",
"@@@@@@@@@@@@@@@@@@@@",
"@@@@@##@@@@@@##@@@@@",
"@@@@@###@@@@###$@@@@",
"@@@@@@###@@###$$@@@@",
"@@@@@@@######$$@@@@@",
"@@@@@@@@####$$@@@@@@",
"@@@@@@@@####$@@@@@@@",
"@@@@@@@######@@@@@@@",
"@@@@@@###$$###@@@@@@",
"@@@@@###$$@@###@@@@@",
"@@@@@##$$@@@@##$@@@@",
"@@@@@@$$@@@@@@$$@@@@",
"@@@@@@@@@@@@@@@@@@@@",
"@@@@@@@@@@@@@@@@@@@@",
"@@@@@@@@@@@@@@@@@@@@",
"%%%%%%%%%%%%%%%%%%%%",
"....................",
"&&&&&&&&&&&&&&&&&&&&",
"********************",
"....................",
"++++++++++++++++++++",
"@@@@@@@@@@@@@@@@@@@@",
"@@@@@@@@@@@@@@@@@@@@",
"@@@@@@@@@@@@@@@@@@@@",
"@@@@@@@@@@@@@@@@@@@@",
"@@@@@@##@@@@@@##@@@@",
"@@@@@@###@@@@###@@@@",
"@@@@@@@###@@###@@@@@",
"@@@@@@@@######@@@@@@",
"@@@@@@@@@####@@@@@@@",
"@@@@@@@@@####@@@@@@@",
"@@@@@@@@######@@@@@@",
"@@@@@@@###@@###@@@@@",
"@@@@@@###@@@@###@@@@",
"@@@@@@##@@@@@@##@@@@",
"@@@@@@@@@@@@@@@@@@@@",
"@@@@@@@@@@@@@@@@@@@@",
"@@@@@@@@@@@@@@@@@@@@",
"%%%%%%%%%%%%%%%%%%%%",
"....................",
"&&&&&&&&&&&&&&&&&&&&",
"********************"};
