/* XPM */
static char * dframeABR_xpm[] = {
"31 31 29 1",
" 	c #d9c5d1",
".	c #684a5c",
"+	c #ffffff",
"@	c #a67994",
"#	c #755367",
"$	c #000000",
"%	c #f5f0f3",
"&	c #b38ba3",
"*	c #493440",
"=	c #8a627a",
"-	c #78566a",
";	c #583f4e",
">	c #a47591",
",	c #755367",
"'	c #78566a",
")	c #faf8f9",
"!	c #dbc9d4",
"~	c #a2738f",
"{	c #6d4e60",
"]	c #6f4f62",
"^	c #f3edf1",
"/	c #e4d6de",
"(	c #9f728d",
"_	c #745367",
":	c #e5d7df",
"<	c #ece2e7",
"[	c #a97d97",
"}	c #ae849d",
"|	c #e6dae1",
"      .+@@@@@@@@@@@@@#$%&******",
"      .+@@@@@@@@@@@@@#$%&&&&&&*",
"      .+@@@@@@@@@@@@@#$%&====**",
"      .+@@@@@@@@@@@@@#$%&====**",
"      .+@@@@@@@@@@@@@#$%&====**",
"      .+##############$%&====**",
"      .$$$$$$$$$$$$$$$$%&====**",
"      .+++++++++++++++$%&====**",
"      .+@@@@@@@@@@@@@#$%&====**",
"      .+@@@@@@@@@@@@@#$%&====**",
"      .+@@@@@@@@@@@@@#$%&====**",
"      .+@@@@@@@@@@@@@#$%&====**",
"      .+@@@@@@@@@@@@@#$%&====**",
"      .+@@-;;;;;;-@@@#$%&====**",
"      .+@@>,,;;;')!!@#$%&====**",
"      .+@@@~~{;]^/@@@#$%&====**",
"      .+@@@@@(_:<[@@@#$%&====**",
"      .+@@@@@@}|}@@@@#$%&====**",
"      .+@@@@@@@@@@@@@#$%&====**",
"      .+@@@@@@@@@@@@@#$%&====**",
"      .+@@@@@@@@@@@@@#$%&====**",
"      .+##############$%&====**",
"      .$$$$$$$$$$$$$$$$%&====**",
"      %%%%%%%%%%%%%%%%%%&====**",
"&&&&&&&&&&&&&&&&&&&&&&&&&====**",
"*&===========================**",
"*&===========================**",
"*&===========================**",
"*&===========================**",
"*&*****************************",
"*******************************"};
