/* XPM */
static char * dframeIBR_xpm[] = {
"31 31 19 1",
" 	c #6c97a0",
".	c #17505d",
"+	c #ffffff",
"@	c #a7c1c7",
"#	c #1a5a69",
"$	c #000000",
"%	c #0d2e35",
"&	c #1a5a68",
"*	c #1b5d6c",
"=	c #144550",
"-	c #1a5a69",
";	c #dce6e8",
">	c #96b5bc",
",	c #195664",
"'	c #f3f7f7",
")	c #e4ecee",
"!	c #ecf1f3",
"~	c #afc6cb",
"{	c #0e3138",
"      .+@@@@@@@@@@@@@#$  %%%%%%",
"      .+@@@@@@@@@@@@@#$       %",
"      .+@@@@@@@@@@@@@#$  &&&&%%",
"      .+@@@@@@@@@@@@@#$  &&&&%%",
"      .+@@@@@@@@@@@@@#$  &&&&%%",
"      .+##############$  &&&&%%",
"      .$$$$$$$$$$$$$$$$  &&&&%%",
"      .+++++++++++++++$  &&&&%%",
"      .+@@@@@@@@@@@@@#$  &&&&%%",
"      .+@@@@@@@@@@@@@#$  &&&&%%",
"      .+@@@@@@@@@@@@@#$  &&&&%%",
"      .+@@@@@@@@@@@@@#$  &&&&%%",
"      .+@@@@@@@@@@@@@#$  &&&&%%",
"      .+@@*======*@@@#$  &&&&%%",
"      .+@@@--===*+;;@#$  &&&&%%",
"      .+@@@>>,=,')@@@#$  &&&&%%",
"      .+@@@@@>-)!@@@@#$  &&&&%%",
"      .+@@@@@@@!~@@@@#$  &&&&%%",
"      .+@@@@@@@@@@@@@#$  &&&&%%",
"      .+@@@@@@@@@@@@@#$  &&&&%%",
"      .+@@@@@@@@@@@@@#$  &&&&%%",
"      .+##############$  &&&&%%",
"      .$$$$$$$$$$$$$$$$  &&&&%%",
"                         &&&&%%",
"                         &&&&%%",
"{ &&&&&&&&&&&&&&&&&&&&&&&&&&&%%",
"{ &&&&&&&&&&&&&&&&&&&&&&&&&&&%%",
"% &&&&&&&&&&&&&&&&&&&&&&&&&&&%%",
"{ &&&&&&&&&&&&&&&&&&&&&&&&&&&%%",
"{ %%%%%%%%%%%%%%%%%%%%%%%%%%%%%",
"{%%%%%%%%%%%%%%%%%%%%%%%%%%%%%%"};
