/* XPM */
static char * frameATL_xpm[] = {
"31 32 4 1",
" 	c None",
".	c #d7c3cf",
"+	c #573e4d",
"@	c #a47591",
"...............................",
".............................+.",
"..@@@@@@@@@@@@@@@@@@@@@@@@@@@+.",
"..@@@@@@@@@@@@@@@@@@@@@@@@@@@+.",
"..@@@@@@@@@@@@@@@@@@@@@@@@@@@+.",
"..@@@++++++++++++++++++++++++++",
"..@@@+                         ",
"..@@@+                         ",
"..@@@+                         ",
"..@@@+                         ",
"..@@@+                         ",
"..@@@+                         ",
"..@@@+                         ",
"..@@@+                         ",
"..@@@+                         ",
"..@@@+                         ",
"..@@@+                         ",
"..@@@+                         ",
"..@@@+                         ",
"..@@@+                         ",
"..@@@+                         ",
"..@@@+                         ",
"..@@@+                         ",
"..@@@+                         ",
"..@@@+                         ",
"..@@@+                         ",
"..@@@+                         ",
"..@@@+                         ",
"..@@@+                         ",
"..@@@+                         ",
"++++++                         ",
".....+                         "};
