/* XPM */
static char * restoreI_xpm[] = {
"24 48 3 1",
" 	c #749da6",
".	c #0e2f37",
"+	c #1b5d6c",
"                       .",
" ++++++++++++++++++++++.",
" ++++++++++++++++++++++.",
" ++++++++++++++++++++++.",
" ++++++++++++++++++++++.",
" ++++++++++++++++++++++.",
" +++++.............++++.",
" +++++.+++++++++++ ++++.",
" +++++.+++++++++++ ++++.",
" +++++.+++++++++++ ++++.",
" +++++.+++++++++++ ++++.",
" +++++.+++++++++++ ++++.",
" +++++.+++++++++++ ++++.",
" +++++.+++++++++++ ++++.",
" +++++.+++++++++++ ++++.",
" +++++.+++++++++++ ++++.",
" +++++.+++++++++++ ++++.",
" +++++.+++++++++++ ++++.",
" +++++             ++++.",
" ++++++++++++++++++++++.",
" ++++++++++++++++++++++.",
" ++++++++++++++++++++++.",
" ++++++++++++++++++++++.",
" .......................",
"....................... ",
".++++++++++++++++++++++ ",
".++++++++++++++++++++++ ",
".++++++++++++++++++++++ ",
".++++++++++++++++++++++ ",
".++++++++++++++++++++++ ",
".+++++.............++++ ",
".+++++.+++++++++++ ++++ ",
".+++++.+++++++++++ ++++ ",
".+++++.+++++++++++ ++++ ",
".+++++.+++++++++++ ++++ ",
".+++++.+++++++++++ ++++ ",
".+++++.+++++++++++ ++++ ",
".+++++.+++++++++++ ++++ ",
".+++++.+++++++++++ ++++ ",
".+++++.+++++++++++ ++++ ",
".+++++.+++++++++++ ++++ ",
".+++++.+++++++++++ ++++ ",
".+++++             ++++ ",
".++++++++++++++++++++++ ",
".++++++++++++++++++++++ ",
".++++++++++++++++++++++ ",
".++++++++++++++++++++++ ",
".                       "};
