/* XPM */
static char * rolldownA_xpm[] = {
"20 40 3 1",
" 	c #d7c3cf",
".	c #573e4d",
"+	c #a47591",
"                   .",
" ++++++++++++++++++.",
" ++++++++++++++++++.",
" ++++++++++++++++++.",
" ++++++++++++++++++.",
" ++++           +++.",
" ++++ +++++++++.+++.",
" +++++ +++++++.++++.",
" +++++ +++++++.++++.",
" ++++++ +++++.+++++.",
" ++++++ +++++.+++++.",
" +++++++ +++.++++++.",
" +++++++ +++.++++++.",
" ++++++++ +.+++++++.",
" ++++++++ +.+++++++.",
" +++++++++ ++++++++.",
" ++++++++++++++++++.",
" ++++++++++++++++++.",
" ++++++++++++++++++.",
" ...................",
"................... ",
".++++++++++++++++++ ",
".++++++++++++++++++ ",
".++++++++++++++++++ ",
".++++++++++++++++++ ",
".++++           +++ ",
".++++ +++++++++.+++ ",
".+++++ +++++++.++++ ",
".+++++ +++++++.++++ ",
".++++++ +++++.+++++ ",
".++++++ +++++.+++++ ",
".+++++++ +++.++++++ ",
".+++++++ +++.++++++ ",
".++++++++ +.+++++++ ",
".++++++++ +.+++++++ ",
".+++++++++ ++++++++ ",
".++++++++++++++++++ ",
".++++++++++++++++++ ",
".++++++++++++++++++ ",
".                   "};
