/* XPM */
static char * frameABR_xpm[] = {
"31 31 29 1",
" 	c None",
".	c #f9e3c9",
"+	c #987750",
"@	c #ffffff",
"#	c #f1be82",
"$	c #ab865a",
"%	c #000000",
"&	c #f3c794",
"*	c #6b5338",
"=	c #ca9e6b",
"-	c #b08a5d",
";	c #826544",
">	c #f1bc7f",
",	c #ac865b",
"'	c #b18a5d",
")	c #fefbf8",
"!	c #f9e5cd",
"~	c #eeb97d",
"{	c #a07d54",
"]	c #a37f56",
"^	c #fdf6ee",
"/	c #fbebd9",
"(	c #eab77b",
"_	c #ab855a",
":	c #fbecda",
"<	c #fcf1e4",
"[	c #f2c086",
"}	c #f2c38c",
"|	c #fbeddd",
"......+@#############$%  &*****",
"......+@#############$%  &&&&&*",
"......+@#############$%  &===**",
"......+@#############$%  &===**",
"......+@#############$%  &===**",
"......+@$$$$$$$$$$$$$$%  &===**",
"......+%%%%%%%%%%%%%%%%  &===**",
"......+@@@@@@@@@@@@@@@%  &===**",
"......+@#############$%  &===**",
"......+@#############$%  &===**",
"......+@#############$%  &===**",
"......+@#############$%  &===**",
"......+@#############$%  &===**",
"......+@##-;;;;;;-###$%  &===**",
"......+@##>,,;;;')!!#$%  &===**",
"......+@###~~{;]^/###$%  &===**",
"......+@#####(_:<[###$%  &===**",
"......+@######}|}####$%  &===**",
"......+@#############$%  &===**",
"......+@#############$%  &===**",
"......+@#############$%  &===**",
"......+@$$$$$$$$$$$$$$%  &===**",
"......+%%%%%%%%%%%%%%%%  &===**",
"                         &===**",
"                         &===**",
"&&&&&&&&&&&&&&&&&&&&&&&&&&===**",
"*&===========================**",
"*&===========================**",
"*&===========================**",
"*&*****************************",
"*******************************"};
