/* XPM */
static char * rolldownA_xpm[] = {
"20 40 3 1",
" 	c #f9e2c7",
".	c #7f6343",
"+	c #f1bc7f",
"                   .",
" ++++++++++++++++++.",
" ++++++++++++++++++.",
" ++++++++++++++++++.",
" ++++++++++++++++++.",
" ++++           +++.",
" ++++ +++++++++.+++.",
" +++++ +++++++.++++.",
" +++++ +++++++.++++.",
" ++++++ +++++.+++++.",
" ++++++ +++++.+++++.",
" +++++++ +++.++++++.",
" +++++++ +++.++++++.",
" ++++++++ +.+++++++.",
" ++++++++ +.+++++++.",
" +++++++++ ++++++++.",
" ++++++++++++++++++.",
" ++++++++++++++++++.",
" ++++++++++++++++++.",
" ...................",
"................... ",
".++++++++++++++++++ ",
".++++++++++++++++++ ",
".++++++++++++++++++ ",
".++++++++++++++++++ ",
".++++           +++ ",
".++++ +++++++++.+++ ",
".+++++ +++++++.++++ ",
".+++++ +++++++.++++ ",
".++++++ +++++.+++++ ",
".++++++ +++++.+++++ ",
".+++++++ +++.++++++ ",
".+++++++ +++.++++++ ",
".++++++++ +.+++++++ ",
".++++++++ +.+++++++ ",
".+++++++++ ++++++++ ",
".++++++++++++++++++ ",
".++++++++++++++++++ ",
".++++++++++++++++++ ",
".                   "};
