/* XPM */
static char *frameITR_xpm[] = {
"23 23 3 1",
"  c #5f606d",
". c #b3b4c2",
"+ c None",
"                       ",
"...................... ",
"...................... ",
"...................... ",
"...................... ",
"...................... ",
"+++++++++++++++++..... ",
"+++++++++++++++++..... ",
"+++++++++++++++++..... ",
"+++++++++++++++++..... ",
"+++++++++++++++++..... ",
"+++++++++++++++++..... ",
"+++++++++++++++++..... ",
"+++++++++++++++++..... ",
"+++++++++++++++++..... ",
"+++++++++++++++++..... ",
"+++++++++++++++++..... ",
"+++++++++++++++++..... ",
"+++++++++++++++++..... ",
"+++++++++++++++++..... ",
"+++++++++++++++++..... ",
"+++++++++++++++++..... ",
"+++++++++++++++++..... "};
