/* XPM */
static char *frameIBR[]={
"23 23 3 1",
". c None",
"# c #8e90a1",
"a c #aaabbb",
".................#aaaa#",
".................#aaaa#",
".................#aaaa#",
".................#aaaa#",
".................#aaaa#",
".................#aaaa#",
".................#aaaa#",
".................#aaaa#",
".................#aaaa#",
".................#aaaa#",
".................#aaaa#",
".................#aaaa#",
".................#aaaa#",
".................#aaaa#",
".................#aaaa#",
".................#aaaa#",
".................#aaaa#",
"##################aaaa#",
"aaaaaaaaaaaaaaaaaaaaaa#",
"aaaaaaaaaaaaaaaaaaaaaa#",
"aaaaaaaaaaaaaaaaaaaaaa#",
"aaaaaaaaaaaaaaaaaaaaaa#",
"#######################"};
