/* XPM */
static char * dframeIBR_xpm[] = {
"31 31 19 1",
" 	c #a9abad",
".	c #696b6e",
"+	c #ffffff",
"@	c #cccdce",
"#	c #76787b",
"$	c #000000",
"%	c #3c3d3e",
"&	c #76777a",
"*	c #7a7c7f",
"=	c #5a5b5e",
"-	c #76787b",
";	c #eaebeb",
">	c #c2c3c4",
",	c #717376",
"'	c #f8f8f8",
")	c #eff0f0",
"!	c #f4f4f4",
"~	c #d0d1d2",
"{	c #404142",
"      .+@@@@@@@@@@@@@#$  %%%%%%",
"      .+@@@@@@@@@@@@@#$       %",
"      .+@@@@@@@@@@@@@#$  &&&&%%",
"      .+@@@@@@@@@@@@@#$  &&&&%%",
"      .+@@@@@@@@@@@@@#$  &&&&%%",
"      .+##############$  &&&&%%",
"      .$$$$$$$$$$$$$$$$  &&&&%%",
"      .+++++++++++++++$  &&&&%%",
"      .+@@@@@@@@@@@@@#$  &&&&%%",
"      .+@@@@@@@@@@@@@#$  &&&&%%",
"      .+@@@@@@@@@@@@@#$  &&&&%%",
"      .+@@@@@@@@@@@@@#$  &&&&%%",
"      .+@@@@@@@@@@@@@#$  &&&&%%",
"      .+@@*======*@@@#$  &&&&%%",
"      .+@@@--===*+;;@#$  &&&&%%",
"      .+@@@>>,=,')@@@#$  &&&&%%",
"      .+@@@@@>-)!@@@@#$  &&&&%%",
"      .+@@@@@@@!~@@@@#$  &&&&%%",
"      .+@@@@@@@@@@@@@#$  &&&&%%",
"      .+@@@@@@@@@@@@@#$  &&&&%%",
"      .+@@@@@@@@@@@@@#$  &&&&%%",
"      .+##############$  &&&&%%",
"      .$$$$$$$$$$$$$$$$  &&&&%%",
"                         &&&&%%",
"                         &&&&%%",
"{ &&&&&&&&&&&&&&&&&&&&&&&&&&&%%",
"{ &&&&&&&&&&&&&&&&&&&&&&&&&&&%%",
"% &&&&&&&&&&&&&&&&&&&&&&&&&&&%%",
"{ &&&&&&&&&&&&&&&&&&&&&&&&&&&%%",
"{ %%%%%%%%%%%%%%%%%%%%%%%%%%%%%",
"{%%%%%%%%%%%%%%%%%%%%%%%%%%%%%%"};
