/* XPM */
static char * dframeATL_xpm[] = {
"31 32 4 1",
" 	c None",
".	c #e0d1bb",
"+	c #614f34",
"@	c #b89663",
"...............................",
".............................+.",
"..@@@@@@@@@@@@@@@@@@@@@@@@@@@+.",
"..@@@@@@@@@@@@@@@@@@@@@@@@@@@+.",
"..@@@@@@@@@@@@@@@@@@@@@@@@@@@+.",
"..@@@++++++++++++++++++++++++++",
"..@@@+                         ",
"..@@@+                         ",
"..@@@+                         ",
"..@@@+                         ",
"..@@@+                         ",
"..@@@+                         ",
"..@@@+                         ",
"..@@@+                         ",
"..@@@+                         ",
"..@@@+                         ",
"..@@@+                         ",
"..@@@+                         ",
"..@@@+                         ",
"..@@@+                         ",
"..@@@+                         ",
"..@@@+                         ",
"..@@@+                         ",
"..@@@+                         ",
"..@@@+                         ",
"..@@@+                         ",
"..@@@+                         ",
"..@@@+                         ",
"..@@@+                         ",
"..@@@+                         ",
"++++++                         ",
".....+                         "};
