/* XPM */
static char * frameABR_xpm[] = {
"31 31 29 1",
" 	c None",
".	c #e1d3bd",
"+	c #745f3f",
"@	c #ffffff",
"#	c #ba9967",
"$	c #836b46",
"%	c #000000",
"&	c #c3a77c",
"*	c #52432c",
"=	c #9b7e53",
"-	c #876e48",
";	c #635135",
">	c #b89663",
",	c #836b47",
"'	c #876e49",
")	c #fbf9f7",
"!	c #e3d6c2",
"~	c #b59462",
"{	c #7a6442",
"]	c #7d6643",
"^	c #f6f1ea",
"/	c #eae0d1",
"(	c #b39260",
"_	c #826a46",
":	c #eae1d2",
"<	c #f0e9de",
"[	c #bc9c6c",
"}	c #bfa173",
"|	c #ece3d5",
"......+@#############$%  &*****",
"......+@#############$%  &&&&&*",
"......+@#############$%  &===**",
"......+@#############$%  &===**",
"......+@#############$%  &===**",
"......+@$$$$$$$$$$$$$$%  &===**",
"......+%%%%%%%%%%%%%%%%  &===**",
"......+@@@@@@@@@@@@@@@%  &===**",
"......+@#############$%  &===**",
"......+@#############$%  &===**",
"......+@#############$%  &===**",
"......+@#############$%  &===**",
"......+@#############$%  &===**",
"......+@##-;;;;;;-###$%  &===**",
"......+@##>,,;;;')!!#$%  &===**",
"......+@###~~{;]^/###$%  &===**",
"......+@#####(_:<[###$%  &===**",
"......+@######}|}####$%  &===**",
"......+@#############$%  &===**",
"......+@#############$%  &===**",
"......+@#############$%  &===**",
"......+@$$$$$$$$$$$$$$%  &===**",
"......+%%%%%%%%%%%%%%%%  &===**",
"                         &===**",
"                         &===**",
"&&&&&&&&&&&&&&&&&&&&&&&&&&===**",
"*&===========================**",
"*&===========================**",
"*&===========================**",
"*&*****************************",
"*******************************"};
