/* XPM */
static char * maximizeI_xpm[] = {
"24 48 3 1",
" 	c #c3c4c5",
".	c #3e3f41",
"+	c #7a7c7f",
"                       .",
" ++++++++++++++++++++++.",
" ++++++++++++++++++++++.",
" ++++++++++++++++++++++.",
" ++++++++++++++++++++++.",
" ++++++++++++++++++++++.",
" ++++++           +++++.",
" ++++++ +++++++++.+++++.",
" ++++++ +++++++++.+++++.",
" ++++++ +++++++++.+++++.",
" ++++++ +++++++++.+++++.",
" ++++++ +++++++++.+++++.",
" ++++++ +++++++++.+++++.",
" ++++++ +++++++++.+++++.",
" ++++++ +++++++++.+++++.",
" ++++++ +++++++++.+++++.",
" ++++++ +++++++++.+++++.",
" ++++++ +++++++++.+++++.",
" ++++++...........+++++.",
" ++++++++++++++++++++++.",
" ++++++++++++++++++++++.",
" ++++++++++++++++++++++.",
" ++++++++++++++++++++++.",
" .......................",
"....................... ",
".++++++++++++++++++++++ ",
".++++++++++++++++++++++ ",
".++++++++++++++++++++++ ",
".++++++++++++++++++++++ ",
".++++++++++++++++++++++ ",
".++++++           +++++ ",
".++++++ +++++++++.+++++ ",
".++++++ +++++++++.+++++ ",
".++++++ +++++++++.+++++ ",
".++++++ +++++++++.+++++ ",
".++++++ +++++++++.+++++ ",
".++++++ +++++++++.+++++ ",
".++++++ +++++++++.+++++ ",
".++++++ +++++++++.+++++ ",
".++++++ +++++++++.+++++ ",
".++++++ +++++++++.+++++ ",
".++++++ +++++++++.+++++ ",
".++++++...........+++++ ",
".++++++++++++++++++++++ ",
".++++++++++++++++++++++ ",
".++++++++++++++++++++++ ",
".++++++++++++++++++++++ ",
".                       "};
