/* XPM */
static char * restoreI_xpm[] = {
"24 48 3 1",
" 	c #aeafb1",
".	c #3e3f41",
"+	c #7a7c7f",
"                       .",
" ++++++++++++++++++++++.",
" ++++++++++++++++++++++.",
" ++++++++++++++++++++++.",
" ++++++++++++++++++++++.",
" ++++++++++++++++++++++.",
" +++++.............++++.",
" +++++.+++++++++++ ++++.",
" +++++.+++++++++++ ++++.",
" +++++.+++++++++++ ++++.",
" +++++.+++++++++++ ++++.",
" +++++.+++++++++++ ++++.",
" +++++.+++++++++++ ++++.",
" +++++.+++++++++++ ++++.",
" +++++.+++++++++++ ++++.",
" +++++.+++++++++++ ++++.",
" +++++.+++++++++++ ++++.",
" +++++.+++++++++++ ++++.",
" +++++             ++++.",
" ++++++++++++++++++++++.",
" ++++++++++++++++++++++.",
" ++++++++++++++++++++++.",
" ++++++++++++++++++++++.",
" .......................",
"....................... ",
".++++++++++++++++++++++ ",
".++++++++++++++++++++++ ",
".++++++++++++++++++++++ ",
".++++++++++++++++++++++ ",
".++++++++++++++++++++++ ",
".+++++.............++++ ",
".+++++.+++++++++++ ++++ ",
".+++++.+++++++++++ ++++ ",
".+++++.+++++++++++ ++++ ",
".+++++.+++++++++++ ++++ ",
".+++++.+++++++++++ ++++ ",
".+++++.+++++++++++ ++++ ",
".+++++.+++++++++++ ++++ ",
".+++++.+++++++++++ ++++ ",
".+++++.+++++++++++ ++++ ",
".+++++.+++++++++++ ++++ ",
".+++++.+++++++++++ ++++ ",
".+++++             ++++ ",
".++++++++++++++++++++++ ",
".++++++++++++++++++++++ ",
".++++++++++++++++++++++ ",
".++++++++++++++++++++++ ",
".                       "};
