/* XPM */
static char *frameATL[]={
"23 23 4 1",
"b c None",
". c #727483",
"a c #a6a7b8",
"# c #b3b4c2",
".......................",
".######################",
".#aaaaaaaaaaaaaaaaaaaaa",
".#aaaaaaaaaaaaaaaaaaaaa",
".#aaaaaaaaaaaaaaaaaaaaa",
".#aaaaaaaaaaaaaaaaaaaaa",
".#aaaabbbbbbbbbbbbbbbbb",
".#aaaabbbbbbbbbbbbbbbbb",
".#aaaabbbbbbbbbbbbbbbbb",
".#aaaabbbbbbbbbbbbbbbbb",
".#aaaabbbbbbbbbbbbbbbbb",
".#aaaabbbbbbbbbbbbbbbbb",
".#aaaabbbbbbbbbbbbbbbbb",
".#aaaabbbbbbbbbbbbbbbbb",
".#aaaabbbbbbbbbbbbbbbbb",
".#aaaabbbbbbbbbbbbbbbbb",
".#aaaabbbbbbbbbbbbbbbbb",
".#aaaabbbbbbbbbbbbbbbbb",
".#aaaabbbbbbbbbbbbbbbbb",
".#aaaabbbbbbbbbbbbbbbbb",
".#aaaabbbbbbbbbbbbbbbbb",
".#aaaabbbbbbbbbbbbbbbbb",
".#aaaabbbbbbbbbbbbbbbbb"};
