/* XPM */
static char *closeA_xpm[] = {
"23 46 4 1",
". c #4c4c4c",
"+ c #5e6264",
"@ c #000000",
"# c #ffffff",
".......................",
"++++++++++++++++++++++@",
"++++++++++++++++++++++@",
"++++##############@@++@",
"++++#@@@@@@@@@@@@@@@++@",
"++++#@@@@@@@@@@@@@@@++@",
"++++#@@@@@@@@@@@@@@@++@",
"++++#@@@@@@@@@@@@@@@++@",
"++++#@@@@@@@@@@@@@@@++@",
"++++#@@@@@@@@@@@@@@@++@",
"++++#@@@@@@@@@@@@@@@++@",
"++++#@@@@@@@@@@@@@@@++@",
"++++#@@@@@@@@@@@@@@@++@",
"++++#@@@@@@@@@@@@@@@++@",
"++++#@@@@@@@@@@@@@@@++@",
"++++#@@@@@@@@@@@@@@@++@",
"++++#@@@@@@@@@@@@@@@++@",
"++++@@@@@@@@@@@@@@@@++@",
"++++@@@@@@@@@@@@@@@@++@",
"++++++++++++++++++++++@",
"++++++++++++++++++++++@",
"@@@@@@@@@@@@@@@@@@@@@@@",
"@@@@@@@@@@@@@@@@@@@@@@@",
".......................",
"++++++++++++++++++++++@",
"++++++++++++++++++++++@",
"++++@@@@@@@@@@@@@@#@++@",
"++++@@@@@@@@@@@@@@#@++@",
"++++@@@@@@@@@@@@@@#@++@",
"++++@@@@@@@@@@@@@@#@++@",
"++++@@@@@@@@@@@@@@#@++@",
"++++@@@@@@@@@@@@@@#@++@",
"++++@@@@@@@@@@@@@@#@++@",
"++++@@@@@@@@@@@@@@#@++@",
"++++@@@@@@@@@@@@@@#@++@",
"++++@@@@@@@@@@@@@@#@++@",
"++++@@@@@@@@@@@@@@#@++@",
"++++@@@@@@@@@@@@@@#@++@",
"++++@@@@@@@@@@@@@@#@++@",
"++++@@@@@@@@@@@@@@#@++@",
"++++@##############@++@",
"++++@@@@@@@@@@@@@@@@++@",
"++++++++++++++++++++++@",
"++++++++++++++++++++++@",
"@@@@@@@@@@@@@@@@@@@@@@@",
"@@@@@@@@@@@@@@@@@@@@@@@"};
