/* XPM */
static char *button[] = {
"16 38 2 1",
"h c #444444",
"# c #ffffff",
"hhhhhhhhhhhhhhhh",
"hhhhhhhhhhhhhhhh",
"hhhhhhhhhhhhhhhh",
"hhhhhhhhhhhhhhhh",
"hhhh########hhhh",
"hhhh#hhhhhh#hhhh",
"hhhh#hhhhhh#hhhh",
"hhhh#hhhhhh#hhhh",
"hhhh#hhhhhh#hhhh",
"hhhh#hhhhhh#hhhh",
"hhhh#hhhhhh#hhhh",
"hhhh########hhhh",
"hhhhhhhhhhhhhhhh",
"hhhhhhhhhhhhhhhh",
"hhhhhhhhhhhhhhhh",
"hhhhhhhhhhhhhhhh",
"hhhhhhhhhhhhhhhh",
"hhhhhhhhhhhhhhhh",
"hhhhhhhhhhhhhhhh",
"hhhhhhhhhhhhhhhh",
"hhhhhhhhhhhhhhhh",
"hhhhhhhhhhhhhhhh",
"hhhhhhhhhhhhhhhh",
"hhhhhhhhhhhhhhhh",
"hhhhh########hhh",
"hhhhh#hhhhhh#hhh",
"hhhhh#hhhhhh#hhh",
"hhhhh#hhhhhh#hhh",
"hhhhh#hhhhhh#hhh",
"hhhhh#hhhhhh#hhh",
"hhhhh#hhhhhh#hhh",
"hhhhh########hhh",
"hhhhhhhhhhhhhhhh",
"hhhhhhhhhhhhhhhh",
"hhhhhhhhhhhhhhhh",
"hhhhhhhhhhhhhhhh",
"hhhhhhhhhhhhhhhh",
"hhhhhhhhhhhhhhhh"};
