/* XPM */
static char *button[] = {
"16 38 2 1",
"h c #444444",
"# c #ffffff",
"hhhhhhhhhhhhhhhh",
"hhhhhhhhhhhhhhhh",
"hhhhhhhhhhhhhhhh",
"hhhhhhhhhhhhhhhh",
"hhhhhhhhhhhhhhhh",
"hhhhhhhhhhhhhhhh",
"hhhh#hhhhhhh#hhh",
"hhhhh#hhhhh#hhhh",
"hhhhhh#hhh#hhhhh",
"hhhhhhh#h#hhhhhh",
"hhhhhhhh#hhhhhhh",
"hhhhhhhhhhhhhhhh",
"hhhhhhhhhhhhhhhh",
"hhhhhhhhhhhhhhhh",
"hhhhhhhhhhhhhhhh",
"hhhhhhhhhhhhhhhh",
"hhhhhhhhhhhhhhhh",
"hhhhhhhhhhhhhhhh",
"hhhhhhhhhhhhhhhh",
"hhhhhhhhhhhhhhhh",
"hhhhhhhhhhhhhhhh",
"hhhhhhhhhhhhhhhh",
"hhhhhhhhhhhhhhhh",
"hhhhhhhhhhhhhhhh",
"hhhhhhhhhhhhhhhh",
"hhhhhhhhhhhhhhhh",
"hhhhh#hhhhhhh#hh",
"hhhhhh#hhhhh#hhh",
"hhhhhhh#hhh#hhhh",
"hhhhhhhh#h#hhhhh",
"hhhhhhhhh#hhhhhh",
"hhhhhhhhhhhhhhhh",
"hhhhhhhhhhhhhhhh",
"hhhhhhhhhhhhhhhh",
"hhhhhhhhhhhhhhhh",
"hhhhhhhhhhhhhhhh",
"hhhhhhhhhhhhhhhh",
"hhhhhhhhhhhhhhhh"};
