/* XPM */
static char *frameABL[]={
"23 23 5 1",
"c c None",
". c #737373",
"b c #8f8f8f",
"a c #c5c5c5",
"# c #eeeeee",
".#aab.ccccccccccccccccc",
".#aab.ccccccccccccccccc",
".#aab.ccccccccccccccccc",
".#aab.ccccccccccccccccc",
".#aab.ccccccccccccccccc",
".#aab.ccccccccccccccccc",
".#aab.ccccccccccccccccc",
".#aab.ccccccccccccccccc",
".#aab.ccccccccccccccccc",
".#aab.ccccccccccccccccc",
".#aab.ccccccccccccccccc",
".#aab.ccccccccccccccccc",
".#aab.ccccccccccccccccc",
".#aab.ccccccccccccccccc",
".#aab.ccccccccccccccccc",
".#aab.ccccccccccccccccc",
".#aab.ccccccccccccccccc",
".#aab..................",
".#aaa##################",
".#aaaaaaaaaaaaaaaaaaaaa",
".#aaaaaaaaaaaaaaaaaaaaa",
".abbbbbbbbbbbbbbbbbbbbb",
"......................."};
