/* XPM */
static char * dframeIBL_xpm[] = {
"31 31 4 1",
" 	c #a97561",
".	c #3f2c24",
"+	c #b0816f",
"@	c #7c5647",
" ......++++++++++++++++++++++++",
"      .++++++++++++++++++++++++",
"  @@@@.++++++++++++++++++++++++",
"  @@@@.++++++++++++++++++++++++",
"  @@@@.++++++++++++++++++++++++",
"  @@@@.++++++++++++++++++++++++",
"  @@@@.++++++++++++++++++++++++",
"  @@@@.++++++++++++++++++++++++",
"  @@@@.++++++++++++++++++++++++",
"  @@@@.++++++++++++++++++++++++",
"  @@@@.++++++++++++++++++++++++",
"  @@@@.++++++++++++++++++++++++",
"  @@@@.++++++++++++++++++++++++",
"  @@@@.++++++++++++++++++++++++",
"  @@@@.++++++++++++++++++++++++",
"  @@@@.++++++++++++++++++++++++",
"  @@@@.++++++++++++++++++++++++",
"  @@@@.++++++++++++++++++++++++",
"  @@@@.++++++++++++++++++++++++",
"  @@@@.++++++++++++++++++++++++",
"  @@@@.++++++++++++++++++++++++",
"  @@@@.++++++++++++++++++++++++",
"  @@@@.++++++++++++++++++++++++",
"  @@@@.++++++++++++++++++++++++",
"  @@@@.                        ",
"  @@@@@@@@@@@@@@@@@@@@@@@@@@@. ",
"  @@@@@@@@@@@@@@@@@@@@@@@@@@@. ",
"  @@@@@@@@@@@@@@@@@@@@@@@@@@@. ",
"  @@@@@@@@@@@@@@@@@@@@@@@@@@@. ",
"  ............................ ",
" .............................."};
