/* XPM */
static char * frameABR_xpm[] = {
"31 31 29 1",
" 	c None",
".	c #ffc8c7",
"+	c #a14f4c",
"@	c #ffffff",
"#	c #ff807d",
"$	c #b55956",
"%	c #000000",
"&	c #ff928e",
"*	c #713736",
"=	c #d66966",
"-	c #bb5b59",
";	c #894341",
">	c #ff7d79",
",	c #b65956",
"'	c #bb5c59",
")	c #fff8f8",
"!	c #ffccca",
"~	c #fb7b77",
"{	c #a95350",
"]	c #ad5552",
"^	c #ffeeed",
"/	c #ffd9d7",
"(	c #f87976",
"_	c #b55956",
":	c #ffd9d8",
"<	c #ffe3e2",
"[	c #ff8480",
"}	c #ff8b87",
"|	c #ffdcdb",
"......+@#############$%  &*****",
"......+@#############$%  &&&&&*",
"......+@#############$%  &===**",
"......+@#############$%  &===**",
"......+@#############$%  &===**",
"......+@$$$$$$$$$$$$$$%  &===**",
"......+%%%%%%%%%%%%%%%%  &===**",
"......+@@@@@@@@@@@@@@@%  &===**",
"......+@#############$%  &===**",
"......+@#############$%  &===**",
"......+@#############$%  &===**",
"......+@#############$%  &===**",
"......+@#############$%  &===**",
"......+@##-;;;;;;-###$%  &===**",
"......+@##>,,;;;')!!#$%  &===**",
"......+@###~~{;]^/###$%  &===**",
"......+@#####(_:<[###$%  &===**",
"......+@######}|}####$%  &===**",
"......+@#############$%  &===**",
"......+@#############$%  &===**",
"......+@#############$%  &===**",
"......+@$$$$$$$$$$$$$$%  &===**",
"......+%%%%%%%%%%%%%%%%  &===**",
"                         &===**",
"                         &===**",
"&&&&&&&&&&&&&&&&&&&&&&&&&&===**",
"*&===========================**",
"*&===========================**",
"*&===========================**",
"*&*****************************",
"*******************************"};
