/* XPM */
static char *frameITR[]={
"23 23 3 1",
"a c None",
". c #504e46",
"# c #7d7a71",
".......................",
"######################.",
"######################.",
"######################.",
"######################.",
"######################.",
"aaaaaaaaaaaaaaaaa#####.",
"aaaaaaaaaaaaaaaaa#####.",
"aaaaaaaaaaaaaaaaa#####.",
"aaaaaaaaaaaaaaaaa#####.",
"aaaaaaaaaaaaaaaaa#####.",
"aaaaaaaaaaaaaaaaa#####.",
"aaaaaaaaaaaaaaaaa#####.",
"aaaaaaaaaaaaaaaaa#####.",
"aaaaaaaaaaaaaaaaa#####.",
"aaaaaaaaaaaaaaaaa#####.",
"aaaaaaaaaaaaaaaaa#####.",
"aaaaaaaaaaaaaaaaa#####.",
"aaaaaaaaaaaaaaaaa#####.",
"aaaaaaaaaaaaaaaaa#####.",
"aaaaaaaaaaaaaaaaa#####.",
"aaaaaaaaaaaaaaaaa#####.",
"aaaaaaaaaaaaaaaaa#####."};
