/* XPM */
static char *frameIBR[]={
"23 23 3 1",
". c None",
"# c #504e46",
"a c #7d7a71",
".................#aaaa#",
".................#aaaa#",
".................#aaaa#",
".................#aaaa#",
".................#aaaa#",
".................#aaaa#",
".................#aaaa#",
".................#aaaa#",
".................#aaaa#",
".................#aaaa#",
".................#aaaa#",
".................#aaaa#",
".................#aaaa#",
".................#aaaa#",
".................#aaaa#",
".................#aaaa#",
".................#aaaa#",
"##################aaaa#",
"aaaaaaaaaaaaaaaaaaaaaa#",
"aaaaaaaaaaaaaaaaaaaaaa#",
"aaaaaaaaaaaaaaaaaaaaaa#",
"aaaaaaaaaaaaaaaaaaaaaa#",
"#######################"};
