/* XPM */
static char *menuButtonA_xpm[] = {
"23 46 5 1",
". c #8a8880",
"+ c #000000",
"@ c #ffffff",
"# c #39372f",
"$ c #585549",
".......................",
"+++++++++++++++++++++++",
"+++++++++++++++++++++++",
"+++@@@@@@@@@@@@@@#+++++",
"+++@$$$$$$$$$$$$$#+++++",
"+++@$$$$$$$$$$$$$#+++++",
"+++@$$$$$$$$$$$$$#+++++",
"+++@$$$$$$$$$$$$$#+++++",
"+++@$$$$$$$$$$$$$#+++++",
"+++@$$$$$$$$$$$$$#+++++",
"+++@$$$$$$$$$$$$$#+++++",
"+++@$$$$$$$$$$$$$#+++++",
"+++@$$$$$$$$$$$$$#+++++",
"+++@$$$$$$$$$$$$$#+++++",
"+++@$$$$$$$$$$$$$#+++++",
"+++@$$$$$$$$$$$$$#+++++",
"+++@$$$$$$$$$$$$$#+++++",
"+++$##############+++++",
"+++++++++++++++++++++++",
"+++++++++++++++++++++++",
"+++++++++++++++++++++++",
"#######################",
"+++++++++++++++++++++++",
".......................",
"+++++++++++++++++++++++",
"+++++++++++++++++++++++",
"+++##############@+++++",
"+++#$$$$$$$$$$$$$@+++++",
"+++#$$$$$$$$$$$$$@+++++",
"+++#$$$$$$$$$$$$$@+++++",
"+++#$$$$$$$$$$$$$@+++++",
"+++#$$$$$$$$$$$$$@+++++",
"+++#$$$$$$$$$$$$$@+++++",
"+++#$$$$$$$$$$$$$@+++++",
"+++#$$$$$$$$$$$$$@+++++",
"+++#$$$$$$$$$$$$$@+++++",
"+++#$$$$$$$$$$$$$@+++++",
"+++#$$$$$$$$$$$$$@+++++",
"+++#$$$$$$$$$$$$$@+++++",
"+++#$$$$$$$$$$$$$@+++++",
"+++$@@@@@@@@@@@@@@+++++",
"+++++++++++++++++++++++",
"+++++++++++++++++++++++",
"+++++++++++++++++++++++",
"#######################",
"+++++++++++++++++++++++"};
