/* XPM */
static char *rolldownA_xpm[] = {
"23 46 6 1",
". c #8a8880",
"+ c #124650",
"@ c #ffffff",
"# c #39372f",
"$ c #000000",
"% c #585549",
".......................",
"+++++++++++++++++++++++",
"+++++++++++++++++++++++",
"+++@@@@@@@@@@@@@@#$++++",
"+++@%%%%%%%%%%%%%#$++++",
"+++@%%%%%%%%%%%%%#$++++",
"+++@%%%%%%%%%%%%%#$++++",
"+++@%%%%%%%%%%%%%#$++++",
"+++@%%%%%%%%%%%%%#$++++",
"+++@%%%%%%%%%%%%%#$++++",
"+++@%%%%%%%%%%%%%#$++++",
"+++@%%%%%%%%%%%%%#$++++",
"+++@%%%%%%%%%%%%%#$++++",
"+++@%%%%%%%%%%%%%#$++++",
"+++@%%%%%%%%%%%%%#$++++",
"+++@%%%%%%%%%%%%%#$++++",
"+++@%%%%%%%%%%%%%#$++++",
"+++%##############$++++",
"+++$$$$$$$$$$$$$$$$++++",
"+++++++++++++++++++++++",
"+++++++++++++++++++++++",
"#######################",
"$$$$$$$$$$$$$$$$$$$$$$$",
".......................",
"+++++++++++++++++++++++",
"+++++++++++++++++++++++",
"+++##############@$++++",
"+++#%%%%%%%%%%%%%@$++++",
"+++#%%%%%%%%%%%%%@$++++",
"+++#%%%%%%%%%%%%%@$++++",
"+++#%%%%%%%%%%%%%@$++++",
"+++#%%%%%%%%%%%%%@$++++",
"+++#%%%%%%%%%%%%%@$++++",
"+++#%%%%%%%%%%%%%@$++++",
"+++#%%%%%%%%%%%%%@$++++",
"+++#%%%%%%%%%%%%%@$++++",
"+++#%%%%%%%%%%%%%@$++++",
"+++#%%%%%%%%%%%%%@$++++",
"+++#%%%%%%%%%%%%%@$++++",
"+++#%%%%%%%%%%%%%@$++++",
"+++%@@@@@@@@@@@@@@$++++",
"+++$$$$$$$$$$$$$$$$++++",
"+++++++++++++++++++++++",
"+++++++++++++++++++++++",
"#######################",
"$$$$$$$$$$$$$$$$$$$$$$$"};
