/* XPM */
static char *closeA_xpm[] = {
"16 38 5 1",
". c #a8a8a8",
"+ c #787878",
"@ c #000000",
"# c #ffffff",
"$ c #d8d8d8",
"................",
"++++++++++++....",
"+@@@@@@@@@@@#...",
"+@#........@#...",
"+@........+@#...",
"+@........+@#...",
"+@.......$+@#...",
"+@......$$+@#...",
"+@.....$$$+@#...",
"+@....$$$$+@#...",
"+@...$$$$#+@#...",
"+@.++++++++@#...",
"+@@@@@@@@@@@#...",
".############...",
"................",
"................",
"................",
"++++++++++++++++",
"@@@@@@@@@@@@@@@@",
"................",
"++++++++++++....",
"+@@@@@@@@@@@#...",
"+@+++++++++@#...",
"+@+#.......@#...",
"+@+........@#...",
"+@+........@#...",
"+@+.......$@#...",
"+@+......$$@#...",
"+@+.....$$$@#...",
"+@+....$$$$@#...",
"+@+...$$$$#@#...",
"+@@@@@@@@@@@#...",
".############...",
"................",
"................",
"................",
"++++++++++++++++",
"@@@@@@@@@@@@@@@@"};
