/* XPM */
static char *frameIBL_xpm[] = {
"23 23 3 1",
"  c #787878",
". c #d8d8d8",
"+ c None",
" .... +++++++++++++++++",
" .... +++++++++++++++++",
" .... +++++++++++++++++",
" .... +++++++++++++++++",
" .... +++++++++++++++++",
" .... +++++++++++++++++",
" .... +++++++++++++++++",
" .... +++++++++++++++++",
" .... +++++++++++++++++",
" .... +++++++++++++++++",
" .... +++++++++++++++++",
" .... +++++++++++++++++",
" .... +++++++++++++++++",
" .... +++++++++++++++++",
" .... +++++++++++++++++",
" .... +++++++++++++++++",
" .... +++++++++++++++++",
" ....                  ",
" ......................",
" ......................",
" ......................",
" ......................",
"                       "};
