/* XPM */
static char *dframeATL[] = {
/* columns rows colors chars-per-pixel */
"31 32 4 1 ",
"  c #522139",
". c #B54A7B",
"X c #DEADC6",
"o c None",
/* pixels */
"XXXXXXXXXXXXXXXXXXXXXXXXXXXXXXX",
"XXXXXXXXXXXXXXXXXXXXXXXXXXXXX X",
"XX........................... X",
"XX........................... X",
"XX........................... X",
"XX...                          ",
"XX... ooooooooooooooooooooooooo",
"XX... ooooooooooooooooooooooooo",
"XX... ooooooooooooooooooooooooo",
"XX... ooooooooooooooooooooooooo",
"XX... ooooooooooooooooooooooooo",
"XX... ooooooooooooooooooooooooo",
"XX... ooooooooooooooooooooooooo",
"XX... ooooooooooooooooooooooooo",
"XX... ooooooooooooooooooooooooo",
"XX... ooooooooooooooooooooooooo",
"XX... ooooooooooooooooooooooooo",
"XX... ooooooooooooooooooooooooo",
"XX... ooooooooooooooooooooooooo",
"XX... ooooooooooooooooooooooooo",
"XX... ooooooooooooooooooooooooo",
"XX... ooooooooooooooooooooooooo",
"XX... ooooooooooooooooooooooooo",
"XX... ooooooooooooooooooooooooo",
"XX... ooooooooooooooooooooooooo",
"XX... ooooooooooooooooooooooooo",
"XX... ooooooooooooooooooooooooo",
"XX... ooooooooooooooooooooooooo",
"XX... ooooooooooooooooooooooooo",
"XX... ooooooooooooooooooooooooo",
"      ooooooooooooooooooooooooo",
"XXXXX ooooooooooooooooooooooooo"
};
