/* XPM */
static char *frameABL[] = {
/* columns rows colors chars-per-pixel */
"27 27 4 1 ",
"  c #522139",
". c #B54A7B",
"X c #DEADC6",
"o c #EFEFEF",
/* pixels */
"X     ooooooooooooooooooooo",
"XXXXX ooooooooooooooooooooo",
"XX... ooooooooooooooooooooo",
"XX... ooooooooooooooooooooo",
"XX... ooooooooooooooooooooo",
"XX... ooooooooooooooooooooo",
"XX... ooooooooooooooooooooo",
"XX... ooooooooooooooooooooo",
"XX... ooooooooooooooooooooo",
"XX... ooooooooooooooooooooo",
"XX... ooooooooooooooooooooo",
"XX... ooooooooooooooooooooo",
"XX... ooooooooooooooooooooo",
"XX... ooooooooooooooooooooo",
"XX... ooooooooooooooooooooo",
"XX... ooooooooooooooooooooo",
"XX... ooooooooooooooooooooo",
"XX... ooooooooooooooooooooo",
"XX... ooooooooooooooooooooo",
"XX... ooooooooooooooooooooo",
"XX... ooooooooooooooooooooo",
"XX... XXXXXXXXXXXXXXXXXXXXX",
"XX....................... X",
"XX....................... X",
"XX....................... X",
"XX                        X",
"X                          "
};
