/* XPM */
static char *minimizeA[] = {
/* columns rows colors chars-per-pixel */
"24 48 3 1 ",
"  c #522139",
". c #B54A7B",
"X c #DEADC6",
/* pixels */
"XXXXXXXXXXXXXXXXXXXXXXX ",
"X...................... ",
"X...................... ",
"X...................... ",
"X...................... ",
"X...................... ",
"X...................... ",
"X...................... ",
"X...................... ",
"X...................... ",
"X.........XXXX ........ ",
"X.........X... ........ ",
"X.........X... ........ ",
"X.........X... ........ ",
"X.........X    ........ ",
"X...................... ",
"X...................... ",
"X...................... ",
"X...................... ",
"X...................... ",
"X...................... ",
"X...................... ",
"X...................... ",
"X                       ",
"                       X",
" ......................X",
" ......................X",
" ......................X",
" ......................X",
" ......................X",
" ......................X",
" ......................X",
" ......................X",
" ......................X",
" .........XXXX ........X",
" .........X... ........X",
" .........X... ........X",
" .........X... ........X",
" .........X    ........X",
" ......................X",
" ......................X",
" ......................X",
" ......................X",
" ......................X",
" ......................X",
" ......................X",
" ......................X",
" XXXXXXXXXXXXXXXXXXXXXXX"
};
