/* XPM */
static char *rolldownA[] = {
/* columns rows colors chars-per-pixel */
"20 40 3 1 ",
"  c #522139",
". c #B54A7B",
"X c #DEADC6",
/* pixels */
"XXXXXXXXXXXXXXXXXXX ",
"X.................. ",
"X.................. ",
"X.................. ",
"X.................. ",
"X....XXXXXXXXXXX... ",
"X....X......... ... ",
"X.....X....... .... ",
"X.....X....... .... ",
"X......X..... ..... ",
"X......X..... ..... ",
"X.......X... ...... ",
"X.......X... ...... ",
"X........X. ....... ",
"X........X. ....... ",
"X.........X........ ",
"X.................. ",
"X.................. ",
"X.................. ",
"X                   ",
"                   X",
" ..................X",
" ..................X",
" ..................X",
" ..................X",
" ....XXXXXXXXXXX...X",
" ....X......... ...X",
" .....X....... ....X",
" .....X....... ....X",
" ......X..... .....X",
" ......X..... .....X",
" .......X... ......X",
" .......X... ......X",
" ........X. .......X",
" ........X. .......X",
" .........X........X",
" ..................X",
" ..................X",
" ..................X",
" XXXXXXXXXXXXXXXXXXX"
};
