/* XPM */
static char * frameABR_xpm[] = {
"31 31 29 1",
" 	c None",
".	c #f4e1d1",
"+	c #91745d",
"@	c #ffffff",
"#	c #e6b996",
"$	c #a38268",
"%	c #000000",
"&	c #e9c3a4",
"*	c #665141",
"=	c #c09a7b",
"-	c #a8866c",
";	c #7b634f",
">	c #e5b793",
",	c #a38369",
"'	c #a8866c",
")	c #fefbf9",
"!	c #f5e3d5",
"~	c #e2b491",
"{	c #987962",
"]	c #9b7c64",
"^	c #fcf6f1",
"/	c #f7eadf",
"(	c #deb28f",
"_	c #a28268",
":	c #f7eae0",
"<	c #f9f0e8",
"[	c #e6bb99",
"}	c #e8bf9e",
"|	c #f8ece2",
"......+@#############$%  &*****",
"......+@#############$%  &&&&&*",
"......+@#############$%  &===**",
"......+@#############$%  &===**",
"......+@#############$%  &===**",
"......+@$$$$$$$$$$$$$$%  &===**",
"......+%%%%%%%%%%%%%%%%  &===**",
"......+@@@@@@@@@@@@@@@%  &===**",
"......+@#############$%  &===**",
"......+@#############$%  &===**",
"......+@#############$%  &===**",
"......+@#############$%  &===**",
"......+@#############$%  &===**",
"......+@##-;;;;;;-###$%  &===**",
"......+@##>,,;;;')!!#$%  &===**",
"......+@###~~{;]^/###$%  &===**",
"......+@#####(_:<[###$%  &===**",
"......+@######}|}####$%  &===**",
"......+@#############$%  &===**",
"......+@#############$%  &===**",
"......+@#############$%  &===**",
"......+@$$$$$$$$$$$$$$%  &===**",
"......+%%%%%%%%%%%%%%%%  &===**",
"                         &===**",
"                         &===**",
"&&&&&&&&&&&&&&&&&&&&&&&&&&===**",
"*&===========================**",
"*&===========================**",
"*&===========================**",
"*&*****************************",
"*******************************"};
