/* XPM */
static char * rolldownI_xpm[] = {
"24 48 3 1",
" 	c #e4e0d7",
".	c #635f55",
"+	c #c2bba7",
"                       .",
" ++++++++++++++++++++++.",
" ++++++++++++++++++++++.",
" ++++++++++++++++++++++.",
" ++++++++++++++++++++++.",
" ++++++++++++++++++++++.",
" +++++++++++ ++++++++++.",
" ++++++++++ +.+++++++++.",
" ++++++++++ +.+++++++++.",
" ++++++++++ +.+++++++++.",
" +++++++++ +++..+++++++.",
" +++++++++ +++..+++++++.",
" +++++++  ++++++.++++++.",
" +++++++  ++++++.++++++.",
" ++++++ +++++++++.+++++.",
" ++++++ +++++++++.+++++.",
" ++++++ +++++++++.+++++.",
" +++++ +++++++++++.++++.",
" +++++ ............++++.",
" ++++++++++++++++++++++.",
" ++++++++++++++++++++++.",
" ++++++++++++++++++++++.",
" ++++++++++++++++++++++.",
" .......................",
"....................... ",
".++++++++++++++++++++++ ",
".++++++++++++++++++++++ ",
".++++++++++++++++++++++ ",
".++++++++++++++++++++++ ",
".++++++++++++++++++++++ ",
".+++++++++++ ++++++++++ ",
".++++++++++ +.+++++++++ ",
".++++++++++ +.+++++++++ ",
".++++++++++ +.+++++++++ ",
".+++++++++ +++..+++++++ ",
".+++++++++ +++..+++++++ ",
".+++++++  ++++++.++++++ ",
".+++++++  ++++++.++++++ ",
".++++++ +++++++++.+++++ ",
".++++++ +++++++++.+++++ ",
".++++++ +++++++++.+++++ ",
".+++++ +++++++++++.++++ ",
".+++++ ............++++ ",
".++++++++++++++++++++++ ",
".++++++++++++++++++++++ ",
".++++++++++++++++++++++ ",
".++++++++++++++++++++++ ",
".                       "};
