/* XPM */
static char *errmail[] = {
/* columns rows colors chars-per-pixel */
"16 16 7 1 ",
"  c black",
". c red",
"X c yellow",
"o c #808080",
"O c #D4D0C8",
"+ c white",
"@ c None",
/* pixels */
"@Oo@@@@@@@@@@@@@",
"@@@o @@@@@@@@@@@",
"O@@@@@@@@@@@@@@@",
"@o @@@oo@@@@@@@@",
"@@@@@o Ooo@@@@@@",
" @@@oX XOXoo@@@@",
"@@@oXOX XO...o@@",
"@@oOOOO .......o",
"@oXOXOXO.++.++.o",
"@  XOXO..+++++..",
"@@@  OX...+++...",
"@@@@@  ..+++++..",
"@@@@@@@ .++.++.@",
"@@@@@@@@.......@",
"@@@@@@@@@@...@@@",
"@@@@@@@@@@@@@@@@"
};
