/* XPM */
static char * frameATL_xpm[] = {
"31 32 4 1",
" 	c None",
".	c #c7d9f6",
"+	c #43597c",
"@	c #7fa9eb",
"...............................",
".............................+.",
"..@@@@@@@@@@@@@@@@@@@@@@@@@@@+.",
"..@@@@@@@@@@@@@@@@@@@@@@@@@@@+.",
"..@@@@@@@@@@@@@@@@@@@@@@@@@@@+.",
"..@@@++++++++++++++++++++++++++",
"..@@@+                         ",
"..@@@+                         ",
"..@@@+                         ",
"..@@@+                         ",
"..@@@+                         ",
"..@@@+                         ",
"..@@@+                         ",
"..@@@+                         ",
"..@@@+                         ",
"..@@@+                         ",
"..@@@+                         ",
"..@@@+                         ",
"..@@@+                         ",
"..@@@+                         ",
"..@@@+                         ",
"..@@@+                         ",
"..@@@+                         ",
"..@@@+                         ",
"..@@@+                         ",
"..@@@+                         ",
"..@@@+                         ",
"..@@@+                         ",
"..@@@+                         ",
"..@@@+                         ",
"++++++                         ",
".....+                         "};
