/* XPM */
static char * frameABR_xpm[] = {
"31 31 29 1",
" 	c None",
".	c #c9dbf7",
"+	c #506b94",
"@	c #ffffff",
"#	c #82abec",
"$	c #5a78a7",
"%	c #000000",
"&	c #94b7ee",
"*	c #384b68",
"=	c #6b8ec5",
"-	c #5d7cac",
";	c #445b7f",
">	c #7fa9eb",
",	c #5b79a8",
"'	c #5d7cac",
")	c #f8fafe",
"!	c #cdddf7",
"~	c #7da7e8",
"{	c #54709c",
"]	c #56729f",
"^	c #eef4fc",
"/	c #d9e6f9",
"(	c #7ba4e4",
"_	c #5a78a7",
":	c #dae6f9",
"<	c #e4edfb",
"[	c #86aeec",
"}	c #8cb2ed",
"|	c #dde8fa",
"......+@#############$%  &*****",
"......+@#############$%  &&&&&*",
"......+@#############$%  &===**",
"......+@#############$%  &===**",
"......+@#############$%  &===**",
"......+@$$$$$$$$$$$$$$%  &===**",
"......+%%%%%%%%%%%%%%%%  &===**",
"......+@@@@@@@@@@@@@@@%  &===**",
"......+@#############$%  &===**",
"......+@#############$%  &===**",
"......+@#############$%  &===**",
"......+@#############$%  &===**",
"......+@#############$%  &===**",
"......+@##-;;;;;;-###$%  &===**",
"......+@##>,,;;;')!!#$%  &===**",
"......+@###~~{;]^/###$%  &===**",
"......+@#####(_:<[###$%  &===**",
"......+@######}|}####$%  &===**",
"......+@#############$%  &===**",
"......+@#############$%  &===**",
"......+@#############$%  &===**",
"......+@$$$$$$$$$$$$$$%  &===**",
"......+%%%%%%%%%%%%%%%%  &===**",
"                         &===**",
"                         &===**",
"&&&&&&&&&&&&&&&&&&&&&&&&&&===**",
"*&===========================**",
"*&===========================**",
"*&===========================**",
"*&*****************************",
"*******************************"};
