/* XPM */
static char * menuButtonA_xpm[] = {
"24 48 4 1",
" 	c #c7d9f6",
".	c #43597c",
"+	c #7fa9eb",
"@	c #2f3e57",
"                       .",
" ++++++++++++++++++++++.",
" ++++++++++++++++++++++.",
" ++++++++++++++++++++++.",
" ++++++++++++++++++++++.",
" ++++++++++++++++++++++.",
" ++++++++++++++++++++++.",
" ++++++++++++++++++++++.",
" ++++++++++++++++++++++.",
" ++++             @++++.",
" ++++ ++++++++++++@++++.",
" ++++ ++++++++++++@++++.",
" ++++ ++++++++++++@++++.",
" ++++ ++++++++++++@++++.",
" ++++ @@@@@@@@@@@@@++++.",
" ++++++++++++++++++++++.",
" ++++++++++++++++++++++.",
" ++++++++++++++++++++++.",
" ++++++++++++++++++++++.",
" ++++++++++++++++++++++.",
" ++++++++++++++++++++++.",
" ++++++++++++++++++++++.",
" ++++++++++++++++++++++.",
" .......................",
"....................... ",
".++++++++++++++++++++++ ",
".++++++++++++++++++++++ ",
".++++++++++++++++++++++ ",
".++++++++++++++++++++++ ",
".++++++++++++++++++++++ ",
".++++++++++++++++++++++ ",
".++++++++++++++++++++++ ",
".++++++++++++++++++++++ ",
".++++             @++++ ",
".++++ ++++++++++++@++++ ",
".++++ ++++++++++++@++++ ",
".++++ ++++++++++++@++++ ",
".++++ ++++++++++++@++++ ",
".++++ @@@@@@@@@@@@@++++ ",
".++++++++++++++++++++++ ",
".++++++++++++++++++++++ ",
".++++++++++++++++++++++ ",
".++++++++++++++++++++++ ",
".++++++++++++++++++++++ ",
".++++++++++++++++++++++ ",
".++++++++++++++++++++++ ",
".++++++++++++++++++++++ ",
".                       "};
