/* XPM */
static char * x_xpm[] = {
"16 48 12 1",
"a	c #606060",
"b	c #898989",
"c	c #999999",
"d	c #D9D9D9",
"e	c #F8FC4F",
"f	c #b78200",
"g	c #e1af04",
"h	c #e5a200",
"i	c #eab500",
"j	c #ffcb00",
"k	c #ffec21",
"l	c #ffff3f",
"cccccccccccccccc",
"ceeeeeeeeeeeeeee",
"cejjjjjjjjjjjjjj",
"cejjjjjjjjjjjjjj",
"ceffffffffffffjj",
"celllllllllllljj",
"celklkkkkjkjfljj",
"ceklkkkkjkjifljj",
"celkkkkjkjjifljj",
"cekkkkjkjjjifljj",
"cekkkjkjjjiifljj",
"cekkjkjjjijifljj",
"cekjkjjjijiifljj",
"cejkjjjijiigfljj",
"cekjjjijiiigfljj",
"cejiiiiiigggfljj",
"cefffffffffffljj",
"celllllllllllljj",
"cejjjjjjjjjjjjjj",
"cejjjjjjjjjjjjjj",
"dddddddddddddddd",
"dddddddddddddddd",
"bbbbbbbbbbbbbbbb",
"aaaaaaaaaaaaaaaa",
"cccccccccccccccc",
"ceeeeeeeeeeeeeee",
"cejjjjjjjjjjjjjj",
"cejjjjjjjjjjjjjj",
"ceffffffffffffjj",
"cehhhhhhhhhhhljj",
"cegggiiiiijjhljj",
"cegiiijijjjkhljj",
"cegiijijjjkjhljj",
"ceiijijjjkjkhljj",
"ceijijjjkjkkhljj",
"ceiijjjkjkkkhljj",
"ceijjjkjkkkkhljj",
"ceijjkjkkkklhljj",
"ceijjjkkkklkhljj",
"ceijjkkkklklhljj",
"cehhhhhhhhhhhljj",
"celllllllllllljj",
"cejjjjjjjjjjjjjj",
"cejjjjjjjjjjjjjj",
"dddddddddddddddd",
"dddddddddddddddd",
"bbbbbbbbbbbbbbbb",
"aaaaaaaaaaaaaaaa"};
