/* XPM */
static char * dframeITL_xpm[] = {
"24 27 9 1",
" 	c None",
".	c #000000",
"+	c #FFFFFF",
"@	c #EFEFEF",
"#	c #9C9C9C",
"$	c #D8D8D8",
"%	c #A2A2A2",
"&	c #DEDEDE",
"*	c #C0C0C0",
"                        ",
"                        ",
"                        ",
"                        ",
"  ......................",
"  .+++++++++++++++++++++",
"  .+@@@@@@@@@@@@@@@@@@@@",
"  .+@@@@@@@@@@@@@@@@@@@@",
"  .+@@@@@@@@@@@@@@@@@@@@",
"  .+@@@@@@@@@@@@@@@@@@@@",
"  .+@@@@@@@@@@@@@@@@@@@@",
"  .+@@@@@@@@@@@@@@@@@@@@",
"  .+@@@@@@@@@@@@@@@@@@@@",
"  .+@@@@@@@@@@@@@@@@@@@@",
"  .+@@@@@@@@@@@@@@@@@@@@",
"  .+@@@@@@@@@@@@@@@@@@@@",
"  .+@@@@@@@@@@@@@@@@@@@@",
"  .+@@@@@@@@@@@@@@@@@@@@",
"  .+@@@@@@@@@@@@@@@@@@@@",
"  .+@@@@@@@@@@@@@@@@@@@@",
"  .+@@@@@@@@@@@@@@@@@@@@",
"  .+@@@@@@@@@@@@@@@@@@@@",
"  .+@@@@@@@@@@@@@@@@@@@@",
"  .+####################",
"  ......................",
"  .$%%%%%%%%%%%%%%%%%%%%",
"  .&$*******************"};
