/* XPM */
static char * frameITL_xpm[] = {
"24 27 9 1",
" 	c None",
".	c #000000",
"+	c #FFFFFF",
"@	c #EFEFEF",
"#	c #9C9C9C",
"$	c #D9D9D9",
"%	c #898989",
"&	c #EFEFEF",
"*	c #B0B0B0",
"                        ",
"                        ",
"                        ",
"                        ",
"  ......................",
"  .+++++++++++++++++++++",
"  .+@@@@@@@@@@@@@@@@@@@@",
"  .+@@@@@@@@@@@@@@@@@@@@",
"  .+@@@@@@@@@@@@@@@@@@@@",
"  .+@@@@@@@@@@@@@@@@@@@@",
"  .+@@@@@@@@@@@@@@@@@@@@",
"  .+@@@@@@@@@@@@@@@@@@@@",
"  .+@@@@@@@@@@@@@@@@@@@@",
"  .+@@@@@@@@@@@@@@@@@@@@",
"  .+@@@@@@@@@@@@@@@@@@@@",
"  .+@@@@@@@@@@@@@@@@@@@@",
"  .+@@@@@@@@@@@@@@@@@@@@",
"  .+@@@@@@@@@@@@@@@@@@@@",
"  .+@@@@@@@@@@@@@@@@@@@@",
"  .+@@@@@@@@@@@@@@@@@@@@",
"  .+@@@@@@@@@@@@@@@@@@@@",
"  .+@@@@@@@@@@@@@@@@@@@@",
"  .+@@@@@@@@@@@@@@@@@@@@",
"  .+####################",
"  ......................",
"  .$%%%%%%%%%%%%%%%%%%%%",
"  .&$*******************"};
