/* XPM */
static char * frameATL_xpm[] = {
"24 27 9 1",
" 	c None",
".	c #000000",
"+	c #FFFF52",
"@	c #FECA00",
"#	c #B17C00",
"$	c #FFEC21",
"%	c #E5A200",
"&	c #FFFF52",
"*	c #FECA00",
"                        ",
"                        ",
"                        ",
"                        ",
"  ......................",
"  .+++++++++++++++++++++",
"  .+@@@@@@@@@@@@@@@@@@@@",
"  .+@@@@@@@@@@@@@@@@@@@@",
"  .+@@@@@@@@@@@@@@@@@@@@",
"  .+@@@@@@@@@@@@@@@@@@@@",
"  .+@@@@@@@@@@@@@@@@@@@@",
"  .+@@@@@@@@@@@@@@@@@@@@",
"  .+@@@@@@@@@@@@@@@@@@@@",
"  .+@@@@@@@@@@@@@@@@@@@@",
"  .+@@@@@@@@@@@@@@@@@@@@",
"  .+@@@@@@@@@@@@@@@@@@@@",
"  .+@@@@@@@@@@@@@@@@@@@@",
"  .+@@@@@@@@@@@@@@@@@@@@",
"  .+@@@@@@@@@@@@@@@@@@@@",
"  .+@@@@@@@@@@@@@@@@@@@@",
"  .+@@@@@@@@@@@@@@@@@@@@",
"  .+@@@@@@@@@@@@@@@@@@@@",
"  .+@@@@@@@@@@@@@@@@@@@@",
"  .+####################",
"  ......................",
"  .$%%%%%%%%%%%%%%%%%%%%",
"  .&$*******************"};
