/* XPM */
static char * frameITR_xpm[] = {
"70 28 5 1",
" 	c None",
"a	c #606060",
"b	c #898989",
"c	c #D9D9D9",
"d	c #F8FCF8",
"                                                                      ",
"                                                                      ",
"                                                                      ",
"                                                                      ",
"                                                                      ",
"                                                                      ",
"                                                                      ",
"                                                                      ",
"                                                                      ",
"                                                                      ",
"                                                                      ",
"                                                                      ",
"                                                                      ",
"                                                                      ",
"                                                                      ",
"                                                                      ",
"                                                                      ",
"                                                                      ",
"                                                                      ",
"                                                                      ",
"                                                                      ",
"                                                                      ",
"                                                                      ",
"                                                                      ",
"dddddddddddddddddddddddddddddddddddddddddddddddddddddddddddddddddddd  ",
"cccccccccccccccccccccccccccccccccccccccccccccccccccccccccccccccccccd  ",
"bbbbbbbbbbbbbbbbbbbbbbbbbbbbbbbbbbbbbbbbbbbbbbbbbbbbbbbbbbbbbbbbbbbd  ",
"aaaaaaaaaaaaaaaaaaaaaaaaaaaaaaaaaaaaaaaaaaaaaaaaaaaaaaaaaaaaaaaaaaad  "};