/* XPM */
static char * x_xpm[] = {
"16 48 15 1",
"a	c #606060",
"b	c #898989",
"c	c #999999",
"d	c #D9D9D9",
"e	c #F8FC4F",
"f	c #b78200",
"g	c #e5a200",
"h	c #eab500",
"i	c #f6bf00",
"j	c #f8c800",
"k	c #f8e040",
"l	c #f8f830",
"m	c #ffcb00",
"n	c #ffec21",
"o	c #ffff3f",
"cccccccccccccccc",
"eeeeeeeeeeeeeeee",
"mmmmmmmmmmmmmmmm",
"mmmmmmmmmmmmmmmm",
"mmmmmmmmmmmmmmmm",
"mmmmmmmmmmmmmmmm",
"mmmmmmmmmmmmmmmm",
"mmfffffffffmmmmm",
"mmfllllllllmmmmm",
"mmfllnnmmflmmmmm",
"mmflnnmkmflmmmmm",
"mmflnmkmhflmmmmm",
"mmflmkmmhflmmmmm",
"mmflmmhhhflmmmmm",
"mmflfffffflmmmmm",
"mmfllllllllmmmmm",
"mmmmmmmmmmmmmmmm",
"mmmmmmmmmmmmmmmm",
"mmmmmmmmmmmmmmmm",
"mmmmmmmmmmmmmmmm",
"dddddddddddddddd",
"dddddddddddddddd",
"bbbbbbbbbbbbbbbb",
"aaaaaaaaaaaaaaaa",
"cccccccccccccccc",
"eeeeeeeeeeeeeeee",
"mmmmmmmmmmmmmmmm",
"mmmmmmmmmmmmmmmm",
"mmmmmmmmmmmmmmmm",
"mmmmmmmmmmmmmmmm",
"mmmmmmmmmmmmmmmm",
"mmfffffffffmmmmm",
"mmfgggggggommmmm",
"mmfgiiiikglmmmmm",
"mmfgiikkjglmmmmm",
"mmfgikkmoglmmmmm",
"mmfgikmomglmmmmm",
"mmfgkkomoglmmmmm",
"mmfggggggglmmmmm",
"mmfolllllllmmmmm",
"mmmmmmmmmmmmmmmm",
"mmmmmmmmmmmmmmmm",
"mmmmmmmmmmmmmmmm",
"mmmmmmmmmmmmmmmm",
"dddddddddddddddd",
"dddddddddddddddd",
"bbbbbbbbbbbbbbbb",
"aaaaaaaaaaaaaaaa"};
