/* XPM */
static char * x_xpm[] = {
"16 48 16 1",
"a	c #606060",
"b	c #898989",
"c	c #999999",
"d	c #9e6900",
"e	c #D9D9D9",
"f	c #F8FC4F",
"g	c #cc8900",
"h	c #d19c00",
"i	c #dda600",
"j	c #dfaf00",
"k	c #dfc727",
"l	c #dfdf17",
"m	c #e6b200",
"n	c #e6d308",
"o	c #e6e626",
"p	c #ffcb00",
"cccccccccccccccc",
"ffffffffffffffff",
"pppppppppppppppp",
"pppppppppppppppp",
"dddddddddppppppp",
"dllllllllppppppp",
"dllnnmmdlppppppp",
"dlnnmkmdldddddpp",
"dlnmkmhdllllllpp",
"dlmkmmhdlnnndlpp",
"dlmmhhhdlnnhdlpp",
"dlddddddlnmhdlpp",
"dllllllllmnhdlpp",
"pppdlnnnmnmhdlpp",
"pppdlnnmnmmhdlpp",
"pppdlmhhhhhhdlpp",
"pppdlddddddddlpp",
"pppdllllllllllpp",
"pppppppppppppppp",
"pppppppppppppppp",
"eeeeeeeeeeeeeeee",
"eeeeeeeeeeeeeeee",
"bbbbbbbbbbbbbbbb",
"aaaaaaaaaaaaaaaa",
"cccccccccccccccc",
"ffffffffffffffff",
"pppppppppppppppp",
"pppppppppppppppp",
"dddddddddppppppp",
"dgggggggoppppppp",
"dgiiiikglppppppp",
"dgiikkjgldddddpp",
"dgikkmoglggggopp",
"dgikmomglgikglpp",
"dgkkomoglgikglpp",
"dggggggglgikglpp",
"dolllllllgojglpp",
"pppdggggggjoglpp",
"pppdgiiiojomglpp",
"pppdgkkkjomoglpp",
"pppdggggggggglpp",
"pppdolllllllllpp",
"pppppppppppppppp",
"pppppppppppppppp",
"eeeeeeeeeeeeeeee",
"eeeeeeeeeeeeeeee",
"bbbbbbbbbbbbbbbb",
"aaaaaaaaaaaaaaaa"};
