/* XPM */
static char * x_xpm[] = {
"10 24 8 1",
"a	c #606060",
"b	c #898989",
"c	c #999999",
"d	c #D9D9D9",
"e	c #F8FC4F",
"f	c #FECA00",
"x	c #B78200",
"T	c #3F6E7E",
"cccccccccc",
"eeeeeeexcT",
"fffffffxcT",
"fffffffxcT",
"fffffffxcT",
"fffffffxcT",
"fffffffxcT",
"fffffffxcT",
"fffffffxcT",
"fffffffxcT",
"fffffffxcT",
"fffffffxcT",
"fffffffxcT",
"fffffffxcT",
"fffffffxcT",
"fffffffxcT",
"fffffffxcT",
"fffffffxcT",
"fffffffxcT",
"fffffffxcT",
"dddddddddd",
"dddddddddd",
"bbbbbbbbbb",
"aaaaaaaaaa"};
