/* XPM */
static char *frameITR[]={
"23 23 3 1",
"a c None",
". c #8e90a1",
"# c #aaabbb",
".......................",
"######################.",
"######################.",
"######################.",
"######################.",
"######################.",
"aaaaaaaaaaaaaaaaa#####.",
"aaaaaaaaaaaaaaaaa#####.",
"aaaaaaaaaaaaaaaaa#####.",
"aaaaaaaaaaaaaaaaa#####.",
"aaaaaaaaaaaaaaaaa#####.",
"aaaaaaaaaaaaaaaaa#####.",
"aaaaaaaaaaaaaaaaa#####.",
"aaaaaaaaaaaaaaaaa#####.",
"aaaaaaaaaaaaaaaaa#####.",
"aaaaaaaaaaaaaaaaa#####.",
"aaaaaaaaaaaaaaaaa#####.",
"aaaaaaaaaaaaaaaaa#####.",
"aaaaaaaaaaaaaaaaa#####.",
"aaaaaaaaaaaaaaaaa#####.",
"aaaaaaaaaaaaaaaaa#####.",
"aaaaaaaaaaaaaaaaa#####.",
"aaaaaaaaaaaaaaaaa#####."};
