/* XPM */
static char *frameITL[]={
"23 23 4 1",
"a c None",
". c #8e90a1",
"b c #a8a9b9",
"# c #aaabbb",
".......................",
".######################",
".######################",
".######################",
".######################",
".######################",
".#####aaaaaaaaaaaaaaaaa",
".#####aaaaaaaaaaaaaaaaa",
".#####aaaaaaaaaaaaaaaaa",
".#####aaaaaaaaaaaaaaaaa",
".#####aaaaaaaaaaaaaaaaa",
".#####aaaaaaaaaaaaaaaaa",
".#####aaaaaaaaaaaaaaaaa",
".#####aaaaaaaaaaaaaaaaa",
".#####aaaaaaaaaaaaaaaaa",
".#####aaaaaaaaaaaaaaaaa",
".#####aaaaaaaaaaaaaaaaa",
".#####aaaaaaaaaaaaaaaaa",
".#####aaaaaaaaaaaaaaaaa",
".#####aaaaaaaaaaaaaaaaa",
".#####aaaaaaaaaaaaaaaaa",
".#####aaaaaaaaaaaaaaaaa",
".b####aaaaaaaaaaaaaaaaa"};
