/* XPM */
static char * buttonA_xpm[] = {
"76 22 3 1",
" 	c #000000",
".	c #E0E0A0",
"+	c #C0C03F",
"                                                                           .",
" +++++++++++++++++++++++++++++++++++++++++++++++++++++++++++++++++++++++++ .",
" +.......................................................................+ .",
" +.......................................................................+ .",
" +... . . . . . . . . . . . . . . . . . . . . . . . . . . . . . . . . ...+ .",
" +.. ................................................................. ..+ .",
" +.......................................................................+ .",
" +.. ................................................................. ..+ .",
" +.......................................................................+ .",
" +.. ................................................................. ..+ .",
" +.......................................................................+ .",
" +.. ................................................................. ..+ .",
" +.......................................................................+ .",
" +.. ................................................................. ..+ .",
" +.......................................................................+ .",
" +.. ................................................................. ..+ .",
" +... . . . . . . . . . . . . . . . . . . . . . . . . . . . . . . . . ...+ .",
" +.......................................................................+ .",
" +.......................................................................+ .",
" +++++++++++++++++++++++++++++++++++++++++++++++++++++++++++++++++++++++++ .",
"                                                                           .",
"............................................................................"};
