/* XPM */
static char *maximizeA_xpm[] = {
"16 38 5 1",
". c #888888",
"+ c #686868",
"@ c #000000",
"# c #ffffff",
"$ c #c8c8c8",
"................",
"...++++++++++++.",
"...+@@@@@@@@@@@#",
"...+@#....@...@#",
"...+@.....@..+@#",
"...+@.....@..+@#",
"...+@.....@.$+@#",
"...+@.....@$$+@#",
"...+@@@@@@@$$+@#",
"...+@....$$$$+@#",
"...+@...$$$$#+@#",
"...+@.++++++++@#",
"...+@@@@@@@@@@@#",
"....############",
"................",
"................",
"................",
"++++++++++++++++",
"@@@@@@@@@@@@@@@@",
"................",
"...++++++++++++.",
"...+@@@@@@@@@@@#",
"...+@+++++++++@#",
"...+@+#....@..@#",
"...+@+.....@..@#",
"...+@+.....@..@#",
"...+@+.....@.$@#",
"...+@+.....@$$@#",
"...+@+@@@@@@$$@#",
"...+@+....$$$$@#",
"...+@+...$$$$#@#",
"...+@@@@@@@@@@@#",
"....############",
"................",
"................",
"................",
"++++++++++++++++",
"@@@@@@@@@@@@@@@@"};
