/* XPM */
static char * frameIBR_xpm[] = {
"31 31 18 1",
" 	c #bec6b7",
".	c #7d8278",
"+	c #ffffff",
"@	c #cbd1c5",
"#	c #8c9287",
"$	c #000000",
"%	c #474a44",
"&	c #8b9186",
"*	c #90968b",
"=	c #6a6f66",
"-	c #8c9287",
";	c #eaece8",
">	c #c0c8ba",
",	c #868b81",
"'	c #f8f9f7",
")	c #eff1ed",
"!	c #f4f5f2",
"~	c #cfd5ca",
"      .+@@@@@@@@@@@@@#$  %%%%%%",
"      .+@@@@@@@@@@@@@#$       %",
"      .+@@@@@@@@@@@@@#$  &&&&%%",
"      .+@@@@@@@@@@@@@#$  &&&&%%",
"      .+@@@@@@@@@@@@@#$  &&&&%%",
"      .+##############$  &&&&%%",
"      .$$$$$$$$$$$$$$$$  &&&&%%",
"      .+++++++++++++++$  &&&&%%",
"      .+@@@@@@@@@@@@@#$  &&&&%%",
"      .+@@@@@@@@@@@@@#$  &&&&%%",
"      .+@@@@@@@@@@@@@#$  &&&&%%",
"      .+@@@@@@@@@@@@@#$  &&&&%%",
"      .+@@@@@@@@@@@@@#$  &&&&%%",
"      .+@@*======*@@@#$  &&&&%%",
"      .+@@@--===*+;;@#$  &&&&%%",
"      .+@@@>>,=,')@@@#$  &&&&%%",
"      .+@@@@@>-)!@@@@#$  &&&&%%",
"      .+@@@@@@@!~@@@@#$  &&&&%%",
"      .+@@@@@@@@@@@@@#$  &&&&%%",
"      .+@@@@@@@@@@@@@#$  &&&&%%",
"      .+@@@@@@@@@@@@@#$  &&&&%%",
"      .+##############$  &&&&%%",
"      .$$$$$$$$$$$$$$$$  &&&&%%",
"                         &&&&%%",
"                         &&&&%%",
"% &&&&&&&&&&&&&&&&&&&&&&&&&&&%%",
"% &&&&&&&&&&&&&&&&&&&&&&&&&&&%%",
"% &&&&&&&&&&&&&&&&&&&&&&&&&&&%%",
"% &&&&&&&&&&&&&&&&&&&&&&&&&&&%%",
"% %%%%%%%%%%%%%%%%%%%%%%%%%%%%%",
"%%%%%%%%%%%%%%%%%%%%%%%%%%%%%%%"};
