/* XPM */
static char * frameABR_xpm[] = {
"31 31 29 1",
" 	c None",
".	c #ede7c8",
"+	c #867e4f",
"@	c #ffffff",
"#	c #d5c880",
"$	c #978d59",
"%	c #000000",
"&	c #dbd092",
"*	c #5e5837",
"=	c #b2a769",
"-	c #9b925b",
";	c #726b43",
">	c #d4c77d",
",	c #978e59",
"'	c #9b925c",
")	c #fdfcf8",
"!	c #eee9cc",
"~	c #d1c47b",
"{	c #8d8453",
"]	c #908755",
"^	c #f9f8ee",
"/	c #f2eed9",
"(	c #cec179",
"_	c #968d59",
":	c #f3efd9",
"<	c #f6f3e3",
"[	c #d6ca84",
"}	c #d9cd8b",
"|	c #f3f0dc",
"......+@#############$%  &*****",
"......+@#############$%  &&&&&*",
"......+@#############$%  &===**",
"......+@#############$%  &===**",
"......+@#############$%  &===**",
"......+@$$$$$$$$$$$$$$%  &===**",
"......+%%%%%%%%%%%%%%%%  &===**",
"......+@@@@@@@@@@@@@@@%  &===**",
"......+@#############$%  &===**",
"......+@#############$%  &===**",
"......+@#############$%  &===**",
"......+@#############$%  &===**",
"......+@#############$%  &===**",
"......+@##-;;;;;;-###$%  &===**",
"......+@##>,,;;;')!!#$%  &===**",
"......+@###~~{;]^/###$%  &===**",
"......+@#####(_:<[###$%  &===**",
"......+@######}|}####$%  &===**",
"......+@#############$%  &===**",
"......+@#############$%  &===**",
"......+@#############$%  &===**",
"......+@$$$$$$$$$$$$$$%  &===**",
"......+%%%%%%%%%%%%%%%%  &===**",
"                         &===**",
"                         &===**",
"&&&&&&&&&&&&&&&&&&&&&&&&&&===**",
"*&===========================**",
"*&===========================**",
"*&===========================**",
"*&*****************************",
"*******************************"};
