/* XPM */
static char * menuButtonA_xpm[] = {
"24 48 4 1",
" 	c #ece6c6",
".	c #706942",
"+	c #d4c77d",
"@	c #4e492e",
"                       .",
" ++++++++++++++++++++++.",
" ++++++++++++++++++++++.",
" ++++++++++++++++++++++.",
" ++++++++++++++++++++++.",
" ++++++++++++++++++++++.",
" ++++++++++++++++++++++.",
" ++++++++++++++++++++++.",
" ++++++++++++++++++++++.",
" ++++             @++++.",
" ++++ ++++++++++++@++++.",
" ++++ ++++++++++++@++++.",
" ++++ ++++++++++++@++++.",
" ++++ ++++++++++++@++++.",
" ++++ @@@@@@@@@@@@@++++.",
" ++++++++++++++++++++++.",
" ++++++++++++++++++++++.",
" ++++++++++++++++++++++.",
" ++++++++++++++++++++++.",
" ++++++++++++++++++++++.",
" ++++++++++++++++++++++.",
" ++++++++++++++++++++++.",
" ++++++++++++++++++++++.",
" .......................",
"....................... ",
".++++++++++++++++++++++ ",
".++++++++++++++++++++++ ",
".++++++++++++++++++++++ ",
".++++++++++++++++++++++ ",
".++++++++++++++++++++++ ",
".++++++++++++++++++++++ ",
".++++++++++++++++++++++ ",
".++++++++++++++++++++++ ",
".++++             @++++ ",
".++++ ++++++++++++@++++ ",
".++++ ++++++++++++@++++ ",
".++++ ++++++++++++@++++ ",
".++++ ++++++++++++@++++ ",
".++++ @@@@@@@@@@@@@++++ ",
".++++++++++++++++++++++ ",
".++++++++++++++++++++++ ",
".++++++++++++++++++++++ ",
".++++++++++++++++++++++ ",
".++++++++++++++++++++++ ",
".++++++++++++++++++++++ ",
".++++++++++++++++++++++ ",
".++++++++++++++++++++++ ",
".                       "};
