/* XPM */
static char * rollupI_xpm[] = {
"24 48 5 1",
" 	c #d7dcd3",
".	c #61655d",
"+	c #bec6b7",
"@	c #ffffff",
"#	c #767b72",
"                       .",
" ++++++++++++++++++++++.",
" ++++++++++++++++++++++.",
" ++++++++++++++++++++++.",
" ++++++++++++++++++++++.",
" ++++++++++++++++++++++.",
" +++++++++++@++++++++++.",
" ++++++++++@+.+++++++++.",
" ++++++++++@+.+++++++++.",
" ++++++++++@+.+++++++++.",
" +++++++++@+++..+++++++.",
" +++++++++@+++..+++++++.",
" +++++++@@++++++.++++++.",
" +++++++@@++++++.++++++.",
" ++++++@+++++++++.+++++.",
" ++++++@+++++++++.+++++.",
" ++++++@+++++++++.+++++.",
" +++++@+++++++++++.++++.",
" +++++@............++++.",
" ++++++++++++++++++++++.",
" ++++++++++++++++++++++.",
" ++++++++++++++++++++++.",
" ++++++++++++++++++++++.",
" .......................",
".......................+",
".+++++++++++++++++++++++",
".+++++++++++++++++++++++",
".+++++++++++++++++++++++",
".+++++++++++++++++++++++",
".+++++++++++++++++++++++",
".+++++++++++@+++++++++++",
".++++++++++@+#++++++++++",
".++++++++++@+#++++++++++",
".++++++++++@+#++++++++++",
".+++++++++@+++##++++++++",
".+++++++++@+++##++++++++",
".+++++++@@++++++#+++++++",
".+++++++@@++++++#+++++++",
".++++++@+++++++++#++++++",
".++++++@+++++++++#++++++",
".++++++@+++++++++#++++++",
".+++++@+++++++++++#+++++",
".+++++@############+++++",
".+++++++++++++++++++++++",
".+++++++++++++++++++++++",
".+++++++++++++++++++++++",
".+++++++++++++++++++++++",
".+++++++++++++++++++++++"};
