/* XPM */
static char * frameIBL_xpm[] = {
"31 31 6 1",
" 	c #926866",
".	c #422f2e",
"+	c #d9caca",
"@	c #6b4c4b",
"#	c #ffffff",
"$	c #362726",
" ......++++++++++++++++++++++++",
"      .++++++++++++++++++++++++",
"  @@@@.++++++++++++++++++++++++",
"  @@@@.++++++++++++++++++++++++",
"  @@@@.++++++++++++++++++++++++",
"  @@@@.++++++++++++++++++++++++",
"  @@@@.++++++++++++++++++++++++",
"  @@@@.++++++++++++++++++++++++",
"  @@@@.++++++++++++++++++++++++",
"  @@@@.++++++++++++++++++++++++",
"  @@@@.++++++++++++++++++++++++",
"  @@@@.++++++++++++++++++++++++",
"  @@@@.++++++++++++++++++++++++",
"  @@@@.++++++++++++++++++++++++",
"  @@@@.++++++++++++++++++++++++",
"  @@@@.++++++++++++++++++++++++",
"  @@@@.++++++++++++++++++++++++",
"  @@@@.++++++++++++++++++++++++",
"  @@@@.++++++++++++++++++++++++",
"  @@@@.++++++++++++++++++++++++",
"  @@@@.++++++++++++++++++++++++",
"  @@@@.++++++++++++++++++++++++",
"  @@@@.++++++++++++++++++++++++",
"  @@@@.++++++++++++++++++++++++",
"  @@@@.########################",
"  @@@@@@@@@@@@@@@@@@@@@@@@@@@$#",
"  @@@@@@@@@@@@@@@@@@@@@@@@@@@$#",
"  @@@@@@@@@@@@@@@@@@@@@@@@@@@$#",
"  @@@@@@@@@@@@@@@@@@@@@@@@@@@$#",
"  $$$$$$$$$$$$$$$$$$$$$$$$$$$$#",
" $$$$$$$$$$$$$$$$$$$$$$$$$$$$$$"};
