/* XPM */
static const char *desktop[] = {
/* columns rows colors chars-per-pixel */
"37 37 42 1 ",
"  c #010104",
". c #05050D",
"X c #060610",
"o c #0B0B18",
"O c #0D0D1A",
"+ c #0F0F1E",
"@ c #131323",
"# c #141425",
"$ c #17172D",
"% c #19192D",
"& c #1D1D33",
"* c #1E1E34",
"= c #202037",
"- c #202038",
"; c #322938",
": c #272742",
"> c #2B2B47",
", c #2D2D4A",
"< c #2F2F4D",
"1 c #30304F",
"2 c #333353",
"3 c #353558",
"4 c #38385B",
"5 c #3B3B5F",
"6 c #3C3C61",
"7 c #3F3F66",
"8 c #5D4447",
"9 c #404068",
"0 c #45456F",
"q c #474772",
"w c #4D4D7B",
"e c #4E4E7C",
"r c #525282",
"t c #535384",
"y c #545485",
"u c #5A5A8F",
"i c #5C5C92",
"p c #7474A0",
"a c #816A8A",
"s c #A47D8C",
"d c white",
"f c None",
/* pixels */
"fffffffffffffffffffffffffffffffffffff",
"fffffffffffffffffffffffffffffffffffff",
"fffffffffffffffffffffffffffffffffffff",
"fffffffffffffffffffffffffffffffffffff",
"fffffffffffffffffffffffffffffffffffff",
"fffffffffffffffffffffffffffffffffffff",
"fffffffffffffffffffffffffffffffffffff",
"fffffff64rffffffffffffffffffr46ffffff",
"ffffff%><#effffffffffffffffe#<>%sffff",
"fffff62ff0-ffffffffffffffff-0ff26ffff",
"fffff&wffa+ffffffffffffffff+affw&ffff",
"fffffOsffffffffffffffffffffffffsOffff",
"ffffe-ffffffffffffffffffffffffff-efff",
"ffff6,ffffffffffffffffffffffffff,6fff",
"ffff,6ffffffffffffffffffffffffff6ffff",
"ffff-efff0330ffffffffffff0330fffeffff",
"fffsOff7@:22:@7ffffffff7@:22:@7ffOfff",
"fffw*f1-tpddpt-2ffffff2-tpddpt-1f;fff",
"fff659-iu5@9ddi-9ffff9-iu5@9ddi-98$ff",
"fff>6@tu=,ridddt@y66y@tu=,ridddt@6+ff",
"fff%::p5,ddddddp:.::.:p5,ddddddp::Xff",
"fffXo2d@rddddddd2-ff-2d@rddddddd2o ff",
"fff7*2d9iddddddd23ff32d9iddddddd2*$ff",
"ffffq:pddddddddp:0ff0:pddddddddp:qfff",
"fffff@tddddddddt@ffff@tddddddddt@ffff",
"fffff9-iddddddi-7ffff7-iddddddi-9ffff",
"ffffff1-tpddpt-<ffffff<-tpddpt-1fffff",
"fffffff7@:22:@7ffffffff7@:22:@7ffffff",
"fffffffff0330ffffffffffff0330ffffffff",
"fffffffffffffffffffffffffffffffffffff",
"fffffffffffffffffffffffffffffffffffff",
"fffffffffffffffffffffffffffffffffffff",
"fffffffffffffffffffffffffffffffffffff",
"fffffffffffffffffffffffffffffffffffff",
"fffffffffffffffffffffffffffffffffffff",
"fffffffffffffffffffffffffffffffffffff",
"fffffffffffffffffffffffffffffffffffff"
};
