/* XPM */
static const char *start[] = {
/* columns rows colors chars-per-pixel */
"96 32 175 2 ",
"   c #010001",
".  c #0B0000",
"X  c #000009",
"o  c #0E0C08",
"O  c #160D02",
"+  c #1C1404",
"@  c #14110D",
"#  c #19180E",
"$  c #000314",
"%  c #01061B",
"&  c #091016",
"*  c #0A1119",
"=  c #131313",
"-  c #1B1B1B",
";  c #2A2917",
":  c #26231C",
">  c #26281C",
",  c #000125",
"<  c #020C27",
"1  c #061122",
"2  c #031029",
"3  c #0B182B",
"4  c #121D2E",
"5  c #000E33",
"6  c #041333",
"7  c #081D3C",
"8  c #101E30",
"9  c #201A23",
"0  c #1E2121",
"q  c #1D252F",
"w  c #0F263D",
"e  c #1A2533",
"r  c #1E2936",
"t  c #1B2838",
"y  c #232323",
"u  c #252C2F",
"i  c gray17",
"p  c #2D312C",
"a  c #36362B",
"s  c #212A3B",
"d  c #2A343A",
"f  c #353535",
"g  c #363E3B",
"h  c #3B3C3C",
"j  c #404033",
"k  c #091F45",
"l  c #021F4D",
"z  c #0D254B",
"x  c #0F2B4E",
"c  c #1A2941",
"v  c #152A49",
"b  c #1E354E",
"n  c #052556",
"m  c #0C2A51",
"M  c #0E2859",
"N  c #122C50",
"B  c #163159",
"V  c #243343",
"C  c #2B3643",
"Z  c #333E46",
"A  c #383F42",
"S  c #263D56",
"D  c #263B5B",
"F  c #173B67",
"G  c #1C3A62",
"H  c #173A69",
"J  c #213B64",
"K  c #27405D",
"L  c #394957",
"P  c #33465A",
"I  c #354A5D",
"U  c #2F4A67",
"Y  c #2B486B",
"T  c #3A4E60",
"R  c #354F6B",
"E  c #3B536C",
"W  c #244773",
"Q  c #2C4A71",
"!  c #355477",
"~  c #3C5671",
"^  c #3F5871",
"/  c #3F5C7F",
"(  c #444444",
")  c #4B4B4B",
"_  c #434E52",
"`  c #445159",
"'  c #535353",
"]  c gray37",
"[  c #495A66",
"{  c #465A6A",
"}  c #4D616D",
"|  c #4E677D",
" . c #516674",
".. c #526877",
"X. c #536C7B",
"o. c #56717F",
"O. c gray40",
"+. c #6D6D6D",
"@. c gray45",
"#. c #7B7B7B",
"$. c #2D5281",
"%. c #375A83",
"&. c #385F8D",
"*. c #3A608F",
"=. c #3E6594",
"-. c #3F6898",
";. c #415E81",
":. c #4B6888",
">. c #566E80",
",. c #567081",
"<. c #597386",
"1. c #55708A",
"2. c #416796",
"3. c #416896",
"4. c #446D9C",
"5. c #4D719E",
"6. c #527397",
"7. c #5B7995",
"8. c #527499",
"9. c #627D9A",
"0. c #4B75A6",
"q. c #5077A4",
"w. c #537CAD",
"e. c #537FB1",
"r. c #5F809E",
"t. c #63829C",
"y. c #5E84AD",
"u. c #5582B3",
"i. c #5B85B6",
"p. c #5C8BBD",
"a. c #6384A3",
"s. c #6689A6",
"d. c #6889A1",
"f. c #6086AE",
"g. c #6288AF",
"h. c #698BAA",
"j. c #6087B1",
"k. c #638AB3",
"l. c #6A8FB3",
"z. c #648EBB",
"x. c #6B92B3",
"c. c #6690BE",
"v. c #6D94BB",
"b. c #7095B8",
"n. c #7098BD",
"m. c #5F8EC1",
"M. c #618FC2",
"N. c #6693C4",
"B. c #6A95C4",
"V. c #6E98C3",
"C. c #6494CA",
"Z. c #6A97C8",
"A. c #6798CD",
"S. c #6C9BCD",
"D. c #719AC4",
"F. c #729FCF",
"G. c #729FD0",
"H. c gray51",
"J. c #8E8E8E",
"K. c #939393",
"L. c #9A9A9A",
"P. c #A4A4A4",
"I. c gray67",
"U. c #B4B4B4",
"Y. c #BBBBBB",
"T. c #C3C3C3",
"R. c gray80",
"E. c #D2D2D2",
"W. c gray85",
"Q. c #E4E4E4",
"!. c #ECECEC",
"~. c #F4F4F4",
"^. c #F6F6F6",
"/. c #F9F9F9",
"(. c white",
/* pixels */
"F.F.F.F.F.F.F.F.F.F.F.F.F.F.F.F.F.F.F.F.F.F.F.F.F.F.F.F.F.F.F.F.F.F.F.F.F.F.F.F.F.F.F.F.F.F.F.F.F.F.F.F.F.F.F.F.F.F.;.= = = = = = = = = = = = = = = = = = = = = = = = = = = = = = = = = = = = = ",
"F.F.F.F.F.F.F.F.F.F.F.F.F.F.F.F.F.F.F.F.F.F.F.F.F.F.F.F.F.F.F.F.F.F.F.F.F.F.F.F.F.F.F.F.F.F.F.F.F.F.F.F.F.F.F.F.F.F.;.= = = = = = = = = = = = = = = = = = = = = = = = = = = = = = = = = = = = = ",
"F.F.F.F.F.F.F.F.F.F.F.F.F.F.F.F.F.F.F.F.F.F.F.F.F.F.F.F.F.F.F.F.F.F.F.F.F.F.F.F.F.F.F.F.F.F.F.F.F.F.F.F.F.F.F.F.F.F.;.= = = = = = = y ] ] ] ] - i ] ] ) ' ] ] ] i = = = = i ] ] ] ] ] i = = = = ",
"F.F.F.F.F.F.F.F.F.F.F.F.F.F.F.F.F.F.F.F.F.F.F.F.F.F.F.F.F.F.F.F.F.F.F.F.F.F.F.F.F.F.F.F.F.F.F.F.F.F.F.F.F.F.F.F.F.F.;.= = = = = = = I./././.P.= @.^./.R.J.^././.T.- = = = #./././././.J.= = = = ",
"F.F.F.F.F.F.F.F.F.F.F.F.F.F.F.F.F.F.F.F.F.F.F.F.F.F.F.F.F.F.F.F.F.F.F.F.F.F.F.F.F.F.F.F.F.F.F.F.F.F.F.F.F.F.F.F.F.F.;.= = = = = = #./.(.(.T.y = @.(.(.E.- U.(.(.(.P.= = = #.(.(.(.(.(.R.= = = = ",
"F.F.F.F.F.F.F.F.F.F.F.F.F.F.F.F.F.F.F.F.F.F.F.F.F.F.F.F.F.F.F.F.F.F.F.F.F.F.F.F.F.F.F.F.F.F.F.F.F.F.F.F.F.F.F.F.F.F.;.= = = = = f Q.(.(.Q.( = = @.(.(.E.= i W.(.(.^.' = = #.(.(.(.^.^.Q.h = = = ",
"F.F.F.F.F.F.F.F.F.F.F.F.F.F.F.F.F.F.F.F.F.F.F.F.F.F.F.F.F.F.F.F.F.F.F.F.F.F.F.F.F.F.F.F.F.F.F.F.F.F.F.F.F.F.F.F.F.F.;.= = = = = L.(.(.(.H.= = = @.(.(.E.= = O.^.(.(.Y.= = #.(.(.W.) ) ) y = = = ",
"F.F.F.F.F.F.F.F.F.F.F.F.F.F.F.F.F.F.F.F.F.F.F.F.F.F.F.F.F.F.F.F.F.F.F.F.F.F.F.F.F.F.F.F.F.F.F.F.F.F.F.F.F.F.F.F.F.F.;.= = = = i Q.(.(.W.- = = = @.(.(.E.= = = Y.(.(.^.' = #.(.(.W.= = = = = = = ",
"F.F.F.F.F.F.F.F.F.F.F.F.F.F.F.F.F.F.F.F.F.F.F.l.6.6.8.8.8.6.8.S.F.F.F.F.F.F.F.F.F.F.F.F.F.F.F.F.F.F.F.F.F.F.F.F.F.F.;.= = = = H.(.(.(.#.= = = = @.(.(.E.= = = ' ^.(.(.P.= #.(.(.W.= = = = = = = ",
"F.F.F.F.F.F.F.F.F.F.F.F.F.F.F.F.F.F.F.F.F.F.F.r.~ P     b ~ / A.F.F.F.F.F.F.F.F.F.F.F.F.F.F.F.F.F.F.F.F.F.F.F.F.F.F.;.= = = = T.(.(.Q.- = = = = @.(.(.E.= = = = R.(.(.W.- #.(.(.W.= = = = = = = ",
"F.F.F.F.F.F.F.F.F.F.F.F.F.F.F.F.F.F.F.F.F.F.F.F.F.t.  X p.F.F.F.F.F.F.F.F.F.F.F.F.F.F.F.F.F.F.F.F.F.F.F.F.F.F.F.F.F.;.= = = i !.(.(.I.= = = = = @.(.(.E.= = = = J.(.(.^.) #.(.(.W.= = = = = = = ",
"F.F.F.F.F.F.F.F.F.F.F.F.F.F.F.F.F.F.F.F.F.F.F.F.F. .  m S.F.F.F.F.F.F.F.F.F.F.F.F.F.F.F.F.F.F.F.F.F.F.F.F.F.F.F.F.F.;.= = = ] /.(.(.+.= = = = = @.(.(.E.= = = = ) /.(.(.#.#.(.(.W.= = = = = = = ",
"F.F.F.F.F.F.F.F.F.F.F.F.F.F.F.F.F.F.F.F.F.F.F.F.F.g   $.F.F.F.F.F.F.F.F.F.F.F.F.F.F.F.F.F.F.F.F.F.F.F.F.F.F.F.F.F.F.;.= = = H.(.(.^.i = = = = = @.(.(.E.= = = = - Q.(.(.P.#.(.(.W.@ = = = = = = ",
"F.F.F.F.F.F.F.F.F.F.F.F.F.F.F.F.F.F.F.F.F.F.F.F.b.@   0.F.F.F.F.F.F.F.F.F.F.F.F.F.F.F.F.F.F.F.F.F.F.F.F.F.F.F.F.F.F.;.= = = L.(.(.W.- = = = = = @.(.(.E.= = = = = E.(.(.Y.#.(.(.!.Y.Y.Y.' = = = ",
"F.F.F.F.F.F.F.V.y.N.F.F.D.k.y.c.F.F.F.F.F.F.F.F.t.  $ p.F.F.F.F.F.F.F.D.k.j.N.F.F.F.F.F.F.F.F.V.j.y.N.F.F.F.F.F.F.F.;.= = = P.(.(.W.= = = = = = @./.(.E.= = = = = T.(.(.T.#.(.(.(.(.(./.+.= = = ",
"F.F.F.F.F.F.v.C I 3 u.a.C U T 1 4.F.F.F.F.F.F.F. .  x A.F.F.F.F.F.F.7.d K ^ q 2.F.F.F.F.F.V.| e U E 4 0.F.F.F.F.F.F.;.= = = I.(.(.W.= = = = = = @.(.(.E.= = = = = Y.(.(.T.#.(.(.(.(.(./.+.= = = ",
"F.F.F.F.F.F.[ 3.x.O w c i.F.F.a 6 N.F.F.F.F.F.F.g   $.F.F.F.F.F.D.[ 1 0.F.D.L 2 C.F.F.F.v.Z v i.F.F.o.x A.F.F.F.F.F.;.= = = P.(.(.W.= = = = = = @.(.(.E.= = = = = T.(.(.Y.#.(.(.!.T.T.T.' = = = ",
"F.F.F.F.F.n.9 m.s.  % u.F.F.F.j X p.F.F.F.F.F.v.#   0.F.F.F.F.F.}   4.F.F.9.  7 A.F.F.D.g % u.F.F.F.<.m A.F.F.F.F.F.;.= = = K.(.(.Q.- = = = = = @.(.(.E.= = = = = W.(.(.U.#.(.(.W.= = = = = = = ",
"F.F.F.F.F.h.Y S.<.  %.F.F.F.D.: 5 N.F.F.F.F.F.t.  % p.F.F.F.F.a.. m A.F.F.v.:.i.F.F.F.X.  W F.G.F.a.u 4.F.F.F.F.F.F.;.= = = @.(.(./.h = = = = = @.(.(.E.= = = = i !.(.(.L.#.(.(.W.= = = = = = = ",
"F.F.F.F.F.F.F.F._ X e.F.F.F.h.. G S.F.F.F.F.F. .  z A.F.F.F.F._   *.F.F.F.F.F.F.F.F.D.p   b E P V S q.F.F.F.F.F.F.F.;.= = = ) ^.(.(.H.= = = = = @.(.(.E.= = = = ] (.(.(.+.#.(.(.W.= = = = = = = ",
"F.F.F.F.F.F.F.D.> < C.F.F.F.>.  -.F.F.F.F.F.F.A   $.F.F.F.F.v.O   e.F.F.F.F.F.F.F.F.x.. $ 5.y.j.Z.F.F.F.F.F.F.F.F.F.;.= = = - W.(.(.Y.= = = = = @.(.(.E.= = = = P.(.(.!.h #.(.(.W.= = = = = = = ",
"F.F.F.F.F.F.F.h.  H F.F.F.F.g $ p.F.F.F.F.F.v.+   0.F.F.F.F.h.  , N.F.F.F.F.F.F.F.F.d.  6 A.F.F.F.F.F.F.F.F.F.F.F.F.;.= = = = U.(.(.!.i = = = = @.(.(.E.= = = - W.(.(.R.- #.(.(.W.= = = = = = = ",
"F.F.F.F.F.F.F.<.  =.F.F.F.h.o B S.h.J S.F.F.t.  $ p.F.F.F.F.h.  n S.F.F.F.F.F.S.F.F.h.  M F.F.F.F.F.F.S.F.F.F.F.F.F.;.= = = = @./.(.(.J.= = = = @.(.(.E.= = = +./.(.(.L.= #.(.(.W.@ = = = = = = ",
"F.F.F.F.F.F.F.`   u.F.F.F.,.  -.F. .&.F.F.F. .  k S.F.F.F.F.n.+ l A.F.F.F.F.a.D S.F.D.: z S.F.F.F.F.7.Q S.F.F.F.F.F.;.= = = = y W.(.(.W.y = = = @.(.(.E.= = = T.(.(.!.( = #.(.(.W.@ = = = = = = ",
"F.F.F.F.F.F.D.; < C.F.F.F.X.X u.l.s M.V.z.k.d   F z.c.F.F.F.F.} X u.F.F.V.1.e w.F.F.F...$ u.F.F.v.| c i.F.F.F.F.F.F.;.= = = = = L.(.(.(.K.= = = @.(.(.E.= = +./.(.(.U.= = #.(.(.W.= - - = = = = ",
"F.F.F.F.F.F.x.. W F.F.F.F.h.0 S V e.F.X.* * * * & & N A.F.F.F.V.{ 4 R I r ! z.F.F.F.F.D.{ 8 R P t %.N.F.F.F.F.F.F.F.;.= = = = = f Q.(.(.!.( = = @.(.(.E.= i W.(.(.^.' = = #.(.(.(.^.^.!.( = = = ",
"F.F.F.F.F.F.F.g.Z.F.F.F.F.F.v.f.B.F.F.F.F.F.F.F.F.F.F.F.F.F.F.F.F.x.y.j.Z.F.F.F.F.F.F.F.F.x.y.j.S.F.F.F.F.F.F.F.F.F.;.= = = = = = H./.(.(.Y.- = @.(.(.E.= P.(.(.(.P.= = = #.(.(.(.(.(.E.= = = = ",
"F.F.F.F.F.F.F.F.F.F.F.F.F.F.F.F.F.F.F.F.F.F.F.F.F.F.F.F.F.F.F.F.F.F.F.F.F.F.F.F.F.F.F.F.F.F.F.F.F.F.F.F.F.F.F.F.F.F.;.= = = = = = - Y.(.(./.L.= @./.(.E.H.^.(.(.E.y = = = #.(.(.(.(.(.L.= = = = ",
"F.F.F.F.F.F.F.F.F.F.F.F.F.F.F.F.F.F.F.F.F.F.F.F.F.F.F.F.F.F.F.F.F.F.F.F.F.F.F.F.F.F.F.F.F.F.F.F.F.F.F.F.F.F.F.F.F.F.;.= = = = = = = i #.H.H.@.- h H.H.+.+.H.H.H.h = = = = h H.H.H.H.H.f = = = = ",
"F.F.F.F.F.F.F.F.F.F.F.F.F.F.F.F.F.F.F.F.F.F.F.F.F.F.F.F.F.F.F.F.F.F.F.F.F.F.F.F.F.F.F.F.F.F.F.F.F.F.F.F.F.F.F.F.F.F.;.= = = = = = = = = = = = = = = = = = = = = = = = = = = = = = = = = = = = = ",
"F.F.F.F.F.F.F.F.F.F.F.F.F.F.F.F.F.F.F.F.F.F.F.F.F.F.F.F.F.F.F.F.F.F.F.F.F.F.F.F.F.F.F.F.F.F.F.F.F.F.F.F.F.F.F.F.F.F.;.= = = = = = = = = = = = = = = = = = = = = = = = = = = = = = = = = = = = = ",
"F.F.F.F.F.F.F.F.F.F.F.F.F.F.F.F.F.F.F.F.F.F.F.F.F.F.F.F.F.F.F.F.F.F.F.F.F.F.F.F.F.F.F.F.F.F.F.F.F.F.F.F.F.F.F.F.F.F.;.= = = = = = = = = = = = = = = = = = = = = = = = = = = = = = = = = = = = = "
};
