/* XPM */
static char *dframeIBR_xpm[] = {
"23 23 3 1",
"  c None",
". c #9c9c9c",
"+ c #f4f4f4",
"                 .++++.",
"                 .++++.",
"                 .++++.",
"                 .++++.",
"                 .++++.",
"                 .++++.",
"                 .++++.",
"                 .++++.",
"                 .++++.",
"                 .++++.",
"                 .++++.",
"                 .++++.",
"                 .++++.",
"                 .++++.",
"                 .++++.",
"                 .++++.",
"                 .++++.",
"..................++++.",
"++++++++++++++++++++++.",
"++++++++++++++++++++++.",
"++++++++++++++++++++++.",
"++++++++++++++++++++++.",
"......................."};
