/* XPM */
static char *frameITL_xpm[] = {
"23 23 3 1",
"  c #9c9c9c",
". c #f4f4f4",
"+ c None",
"                       ",
" ......................",
" ......................",
" ......................",
" ......................",
" ......................",
" .....+++++++++++++++++",
" .....+++++++++++++++++",
" .....+++++++++++++++++",
" .....+++++++++++++++++",
" .....+++++++++++++++++",
" .....+++++++++++++++++",
" .....+++++++++++++++++",
" .....+++++++++++++++++",
" .....+++++++++++++++++",
" .....+++++++++++++++++",
" .....+++++++++++++++++",
" .....+++++++++++++++++",
" .....+++++++++++++++++",
" .....+++++++++++++++++",
" .....+++++++++++++++++",
" .....+++++++++++++++++",
" .....+++++++++++++++++"};
