/* XPM */
static char * frameABR_xpm[] = {
"31 31 29 1",
" 	c None",
".	c #ecd9c7",
"+	c #84684d",
"@	c #ffffff",
"#	c #d2a77e",
"$	c #947557",
"%	c #000000",
"&	c #d8b38f",
"*	c #5d4936",
"=	c #b08b66",
"-	c #997959",
";	c #715942",
">	c #d1a57a",
",	c #957657",
"'	c #997959",
")	c #fdfaf8",
"!	c #eddccb",
"~	c #cea378",
"{	c #8b6d51",
"]	c #8e7053",
"^	c #f9f3ed",
"/	c #f1e4d8",
"(	c #cba077",
"_	c #947557",
":	c #f2e5d8",
"<	c #f5ece3",
"[	c #d4aa81",
"}	c #d6ae88",
"|	c #f3e7db",
"......+@#############$%  &*****",
"......+@#############$%  &&&&&*",
"......+@#############$%  &===**",
"......+@#############$%  &===**",
"......+@#############$%  &===**",
"......+@$$$$$$$$$$$$$$%  &===**",
"......+%%%%%%%%%%%%%%%%  &===**",
"......+@@@@@@@@@@@@@@@%  &===**",
"......+@#############$%  &===**",
"......+@#############$%  &===**",
"......+@#############$%  &===**",
"......+@#############$%  &===**",
"......+@#############$%  &===**",
"......+@##-;;;;;;-###$%  &===**",
"......+@##>,,;;;')!!#$%  &===**",
"......+@###~~{;]^/###$%  &===**",
"......+@#####(_:<[###$%  &===**",
"......+@######}|}####$%  &===**",
"......+@#############$%  &===**",
"......+@#############$%  &===**",
"......+@#############$%  &===**",
"......+@$$$$$$$$$$$$$$%  &===**",
"......+%%%%%%%%%%%%%%%%  &===**",
"                         &===**",
"                         &===**",
"&&&&&&&&&&&&&&&&&&&&&&&&&&===**",
"*&===========================**",
"*&===========================**",
"*&===========================**",
"*&*****************************",
"*******************************"};
