/* XPM */
static char * menusel_xpm[] = {
"195 26 1 1",
" 	c #d1a57a",
"                                                                                                                                                                                                   ",
"                                                                                                                                                                                                   ",
"                                                                                                                                                                                                   ",
"                                                                                                                                                                                                   ",
"                                                                                                                                                                                                   ",
"                                                                                                                                                                                                   ",
"                                                                                                                                                                                                   ",
"                                                                                                                                                                                                   ",
"                                                                                                                                                                                                   ",
"                                                                                                                                                                                                   ",
"                                                                                                                                                                                                   ",
"                                                                                                                                                                                                   ",
"                                                                                                                                                                                                   ",
"                                                                                                                                                                                                   ",
"                                                                                                                                                                                                   ",
"                                                                                                                                                                                                   ",
"                                                                                                                                                                                                   ",
"                                                                                                                                                                                                   ",
"                                                                                                                                                                                                   ",
"                                                                                                                                                                                                   ",
"                                                                                                                                                                                                   ",
"                                                                                                                                                                                                   ",
"                                                                                                                                                                                                   ",
"                                                                                                                                                                                                   ",
"                                                                                                                                                                                                   ",
"                                                                                                                                                                                                   "};
