/* XPM */
static char * dframeABR_xpm[] = {
"31 31 29 1",
" 	c #e6e6e6",
".	c #7b7b7b",
"+	c #ffffff",
"@	c #c5c5c5",
"#	c #8b8b8b",
"$	c #000000",
"%	c #f8f8f8",
"&	c #cdcdcd",
"*	c #575757",
"=	c #a4a4a4",
"-	c #8f8f8f",
";	c #696969",
">	c #c3c3c3",
",	c #8b8b8b",
"'	c #8f8f8f",
")	c #fcfcfc",
"!	c #e7e7e7",
"~	c #c0c0c0",
"{	c #818181",
"]	c #848484",
"^	c #f7f7f7",
"/	c #ededed",
"(	c #bdbdbd",
"_	c #8a8a8a",
":	c #eeeeee",
"<	c #f2f2f2",
"[	c #c6c6c6",
"}	c #c9c9c9",
"|	c #efefef",
"      .+@@@@@@@@@@@@@#$%&******",
"      .+@@@@@@@@@@@@@#$%&&&&&&*",
"      .+@@@@@@@@@@@@@#$%&====**",
"      .+@@@@@@@@@@@@@#$%&====**",
"      .+@@@@@@@@@@@@@#$%&====**",
"      .+##############$%&====**",
"      .$$$$$$$$$$$$$$$$%&====**",
"      .+++++++++++++++$%&====**",
"      .+@@@@@@@@@@@@@#$%&====**",
"      .+@@@@@@@@@@@@@#$%&====**",
"      .+@@@@@@@@@@@@@#$%&====**",
"      .+@@@@@@@@@@@@@#$%&====**",
"      .+@@@@@@@@@@@@@#$%&====**",
"      .+@@-;;;;;;-@@@#$%&====**",
"      .+@@>,,;;;')!!@#$%&====**",
"      .+@@@~~{;]^/@@@#$%&====**",
"      .+@@@@@(_:<[@@@#$%&====**",
"      .+@@@@@@}|}@@@@#$%&====**",
"      .+@@@@@@@@@@@@@#$%&====**",
"      .+@@@@@@@@@@@@@#$%&====**",
"      .+@@@@@@@@@@@@@#$%&====**",
"      .+##############$%&====**",
"      .$$$$$$$$$$$$$$$$%&====**",
"      %%%%%%%%%%%%%%%%%%&====**",
"&&&&&&&&&&&&&&&&&&&&&&&&&====**",
"*&===========================**",
"*&===========================**",
"*&===========================**",
"*&===========================**",
"*&*****************************",
"*******************************"};
